<?xml version="1.0" encoding="UTF-8"?>
<map version="1.10" tiledversion="1.11.2" orientation="orthogonal" renderorder="right-down" width="256" height="128" tilewidth="16" tileheight="16" infinite="0" nextlayerid="5" nextobjectid="75">
 <tileset firstgid="1" source="tiles.tsx"/>
 <layer id="1" name="Floor" width="256" height="128">
  <data encoding="csv">
8517,8518,8517,8518,8517,8518,8517,8518,8517,8518,8517,8518,8517,8518,8517,8518,8517,8518,8517,8518,8517,8518,8517,8518,8517,8518,8517,8518,8517,8518,8517,8518,8517,8518,8517,8518,8517,8518,8517,8518,8517,8518,8517,8518,8517,8518,8517,8518,8517,8518,8517,8518,8517,8518,8517,8518,8517,8518,8517,8518,8517,8518,8517,8518,8517,8518,8517,8518,8517,8518,8517,8518,8517,8518,8517,8518,8517,8518,8517,8518,8521,8522,8521,8522,8521,8522,8521,8522,8521,8522,8521,8522,8521,8522,8521,8522,8521,8522,8521,8522,8521,8522,8521,8522,8521,8522,8521,8522,8521,8522,8521,8522,8521,8522,8521,8522,8521,8522,8521,8522,8521,8522,8521,8522,8521,8522,8521,8522,8521,8522,8521,8522,8521,8522,8521,8522,8521,8522,8521,8522,8521,8522,8521,8522,8521,8522,8517,8518,8517,8518,8517,8518,8517,8518,8517,8518,8517,8518,8517,8518,8517,8518,8517,8518,8517,8518,8517,8518,8517,8518,8517,8518,8517,8518,8517,8518,8517,8518,8517,8518,8517,8518,8517,8518,8517,8518,8517,8518,8517,8518,8517,8518,8517,8518,8517,8518,8517,8518,8517,8518,8517,8518,8517,8518,8517,8518,8517,8518,8517,8518,8517,8518,8517,8518,8517,8518,8517,8518,8517,8518,8517,8518,8517,8518,8517,8518,8517,8518,8517,8518,8517,8518,8517,8518,8517,8518,8517,8518,8517,8518,8517,8518,8517,8518,8517,8518,8517,8518,8517,8518,8517,8518,8517,8518,8517,8518,
8645,8646,8645,8646,8645,8646,8645,8646,8645,8646,8645,8646,8645,8646,8645,8646,8645,8646,8645,8646,8645,8646,8645,8646,8645,8646,8645,8646,8645,8646,8645,8646,8645,8646,8645,8646,8645,8646,8645,8646,8645,8646,8645,8646,8645,8646,8645,8646,8645,8646,8645,8646,8645,8646,8645,8646,8645,8646,8645,8646,8645,8646,8645,8646,8645,8646,8645,8646,8645,8646,8645,8646,8645,8646,8645,8646,8645,8646,8645,8646,8649,8650,8649,8650,8649,8650,8649,8650,8649,8650,8649,8650,8649,8650,8649,8650,8649,8650,8649,8650,8649,8650,8649,8650,8649,8650,8649,8650,8649,8650,8649,8650,8649,8650,8649,8650,8649,8650,8649,8650,8649,8650,8649,8650,8649,8650,8649,8650,8649,8650,8649,8650,8649,8650,8649,8650,8649,8650,8649,8650,8649,8650,8649,8650,8649,8650,8645,8646,8645,8646,8645,8646,8645,8646,8645,8646,8645,8646,8645,8646,8645,8646,8645,8646,8645,8646,8645,8646,8645,8646,8645,8646,8645,8646,8645,8646,8645,8646,8645,8646,8645,8646,8645,8646,8645,8646,8645,8646,8645,8646,8645,8646,8645,8646,8645,8646,8645,8646,8645,8646,8645,8646,8645,8646,8645,8646,8645,8646,8645,8646,8645,8646,8645,8646,8645,8646,8645,8646,8645,8646,8645,8646,8645,8646,8645,8646,8645,8646,8645,8646,8645,8646,8645,8646,8645,8646,8645,8646,8645,8646,8645,8646,8645,8646,8645,8646,8645,8646,8645,8646,8645,8646,8645,8646,8645,8646,
8517,8518,8517,8518,8517,8518,8517,8518,8517,8518,8517,8518,8517,8518,8517,8518,8517,8518,8517,8518,8517,8518,8517,8518,8517,8518,8517,8518,8517,8518,8517,8518,8517,8518,8517,8518,8517,8518,8517,8518,8517,8518,8517,8518,8517,8518,8517,8518,8517,8518,8517,8518,8517,8518,8517,8518,8517,8518,8517,8518,8517,8518,8517,8518,8517,8518,8517,8518,8517,8518,8517,8518,8517,8518,8517,8518,8517,8518,8517,8518,8521,8522,8521,8522,8521,8522,8521,8522,8521,8522,8521,8522,8521,8522,8521,8522,8521,8522,8521,8522,8521,8522,8521,8522,8521,8522,8521,8522,8521,8522,8521,8522,8521,8522,8521,8522,8521,8522,8521,8522,8521,8522,8521,8522,8521,8522,8521,8522,8521,8522,8521,8522,8521,8522,8521,8522,8521,8522,8521,8522,8521,8522,8521,8522,8521,8522,8517,8518,8517,8518,8517,8518,8517,8518,8517,8518,8517,8518,8517,8518,8517,8518,8517,8518,8517,8518,8517,8518,8517,8518,8517,8518,8517,8518,8517,8518,8517,8518,8517,8518,8517,8518,8517,8518,8517,8518,8517,8518,8517,8518,8517,8518,8517,8518,8517,8518,8517,8518,8517,8518,8517,8518,8517,8518,8517,8518,8517,8518,8517,8518,8517,8518,8517,8518,8517,8518,8517,8518,8517,8518,8517,8518,8517,8518,8517,8518,8517,8518,8517,8518,8517,8518,8517,8518,8517,8518,8517,8518,8517,8518,8517,8518,8517,8518,8517,8518,8517,8518,8517,8518,8517,8518,8517,8518,8517,8518,
8645,8646,8645,8646,8645,8646,8645,8646,8645,8646,8645,8646,8645,8646,8645,8646,8645,8646,8645,8646,8645,8646,8645,8646,8645,8646,8645,8646,8645,8646,8645,8646,8645,8646,8645,8646,8645,8646,8645,8646,8645,8646,8645,8646,8645,8646,8645,8646,8645,8646,8645,8646,8645,8646,8645,8646,8645,8646,8645,8646,8645,8646,8645,8646,8645,8646,8645,8646,8645,8646,8645,8646,8645,8646,8645,8646,8645,8646,8645,8646,8649,8650,8649,8650,8649,8650,8649,8650,8649,8650,8649,8650,8649,8650,8649,8650,8649,8650,8649,8650,8649,8650,8649,8650,8649,8650,8649,8650,8649,8650,8649,8650,8649,8650,8649,8650,8649,8650,8649,8650,8649,8650,8649,8650,8649,8650,8649,8650,8649,8650,8649,8650,8649,8650,8649,8650,8649,8650,8649,8650,8649,8650,8649,8650,8649,8650,8645,8646,8645,8646,8645,8646,8645,8646,8645,8646,8645,8646,8645,8646,8645,8646,8645,8646,8645,8646,8645,8646,8645,8646,8645,8646,8645,8646,8645,8646,8645,8646,8645,8646,8645,8646,8645,8646,8645,8646,8645,8646,8645,8646,8645,8646,8645,8646,8645,8646,8645,8646,8645,8646,8645,8646,8645,8646,8645,8646,8645,8646,8645,8646,8645,8646,8645,8646,8645,8646,8645,8646,8645,8646,8645,8646,8645,8646,8645,8646,8645,8646,8645,8646,8645,8646,8645,8646,8645,8646,8645,8646,8645,8646,8645,8646,8645,8646,8645,8646,8645,8646,8645,8646,8645,8646,8645,8646,8645,8646,
8517,8518,8517,8518,8517,8518,8517,8518,8517,8518,8517,8518,8517,8518,8517,8518,8517,8518,8517,8518,8517,8518,8517,8518,8517,8518,8517,8518,8517,8518,8517,8518,8517,8518,8517,8518,8517,8518,8517,8518,8517,8518,8517,8518,8517,8518,8517,8518,8517,8518,8517,8518,8517,8518,8517,8518,8517,8518,8517,8518,8517,8518,8517,8518,8517,8518,8517,8518,8517,8518,8517,8518,8517,8518,8517,8518,8517,8518,8517,8518,8521,8522,8521,8522,8521,8522,8521,8522,8521,8522,8521,8522,8521,8522,8521,8522,8521,8522,8521,8522,8521,8522,8521,8522,8521,8522,8521,8522,8521,8522,8521,8522,8521,8522,8521,8522,8521,8522,8521,8522,8521,8522,8521,8522,8521,8522,8521,8522,8521,8522,8521,8522,8521,8522,8521,8522,8521,8522,8521,8522,8521,8522,8521,8522,8521,8522,8517,8518,8517,8518,8517,8518,8517,8518,8517,8518,8517,8518,8517,8518,8517,8518,8517,8518,8517,8518,8517,8518,8517,8518,8517,8518,8517,8518,8517,8518,8517,8518,8517,8518,8517,8518,8517,8518,8517,8518,8517,8518,8517,8518,8517,8518,8517,8518,8517,8518,8517,8518,8517,8518,8517,8518,8517,8518,8517,8518,8517,8518,8517,8518,8517,8518,8517,8518,8517,8518,8517,8518,8517,8518,8517,8518,8517,8518,8517,8518,8517,8518,8517,8518,8517,8518,8517,8518,8517,8518,8517,8518,8517,8518,8517,8518,8517,8518,8517,8518,8517,8518,8517,8518,8517,8518,8517,8518,8517,8518,
8645,8646,8645,8646,8645,8646,8645,8646,8645,8646,8645,8646,8645,8646,8645,8646,8645,8646,8645,8646,8645,8646,8645,8646,8645,8646,8645,8646,8645,8646,8645,8646,8645,8646,8645,8646,8645,8646,8645,8646,8645,8646,8645,8646,8645,8646,8645,8646,8645,8646,8645,8646,8645,8646,8645,8646,8645,8646,8645,8646,8645,8646,8645,8646,8645,8646,8645,8646,8645,8646,8645,8646,8645,8646,8645,8646,8645,8646,8645,8646,8649,8650,8649,8650,8649,8650,8649,8650,8649,8650,8649,8650,8649,8650,8649,8650,8649,8650,8649,8650,8649,8650,8649,8650,8649,8650,8649,8650,8649,8650,8649,8650,8649,8650,8649,8650,8649,8650,8649,8650,8649,8650,8649,8650,8649,8650,8649,8650,8649,8650,8649,8650,8649,8650,8649,8650,8649,8650,8649,8650,8649,8650,8649,8650,8649,8650,8645,8646,8645,8646,8645,8646,8645,8646,8645,8646,8645,8646,8645,8646,8645,8646,8645,8646,8645,8646,8645,8646,8645,8646,8645,8646,8645,8646,8645,8646,8645,8646,8645,8646,8645,8646,8645,8646,8645,8646,8645,8646,8645,8646,8645,8646,8645,8646,8645,8646,8645,8646,8645,8646,8645,8646,8645,8646,8645,8646,8645,8646,8645,8646,8645,8646,8645,8646,8645,8646,8645,8646,8645,8646,8645,8646,8645,8646,8645,8646,8645,8646,8645,8646,8645,8646,8645,8646,8645,8646,8645,8646,8645,8646,8645,8646,8645,8646,8645,8646,8645,8646,8645,8646,8645,8646,8645,8646,8645,8646,
8517,8518,8517,8518,8517,8518,8517,8518,8517,8518,8517,8518,8517,8518,8517,8518,8517,8518,8517,8518,8517,8518,8517,8518,8517,8518,8517,8518,8517,8518,8517,8518,8517,8518,8517,8518,8517,8518,8517,8518,8517,8518,8517,8518,8517,8518,8517,8518,8517,8518,8517,8518,8517,8518,8517,8518,8517,8518,8517,8518,8517,8518,8517,8518,8517,8518,8517,8518,8517,8518,8517,8518,8517,8518,8517,8518,8517,8518,8517,8518,8521,8522,8521,8522,8521,8522,8521,8522,8521,8522,8521,8522,8521,8522,8521,8522,8521,8522,8521,8522,8521,8522,8521,8522,8521,8522,8521,8522,8521,8522,8521,8522,8521,8522,8521,8522,8521,8522,8521,8522,8521,8522,8521,8522,8521,8522,8521,8522,8521,8522,8521,8522,8521,8522,8521,8522,8521,8522,8521,8522,8521,8522,8521,8522,8521,8522,8517,8518,8517,8518,8517,8518,8517,8518,8517,8518,8517,8518,8517,8518,8517,8518,8517,8518,8517,8518,8517,8518,8517,8518,8517,8518,8517,8518,8517,8518,8517,8518,8517,8518,8517,8518,8517,8518,8517,8518,8517,8518,8517,8518,8517,8518,8517,8518,8517,8518,8517,8518,8517,8518,8517,8518,8517,8518,8517,8518,8517,8518,8517,8518,8517,8518,8517,8518,8517,8518,8517,8518,8517,8518,8517,8518,8517,8518,8517,8518,8517,8518,8517,8518,8517,8518,8517,8518,8517,8518,8517,8518,8517,8518,8517,8518,8517,8518,8517,8518,8517,8518,8517,8518,8517,8518,8517,8518,8517,8518,
8645,8646,8645,8646,8645,8646,8645,8646,8645,8646,8645,8646,8645,8646,8645,8646,8645,8646,8645,8646,8645,8646,8645,8646,8645,8646,8645,8646,8645,8646,8645,8646,8645,8646,8645,8646,8645,8646,8645,8646,8645,8646,8645,8646,8645,8646,8645,8646,8645,8646,8645,8646,8645,8646,8645,8646,8645,8646,8645,8646,8645,8646,8645,8646,8645,8646,8645,8646,8645,8646,8645,8646,8645,8646,8645,8646,8645,8646,8645,8646,8649,8650,8649,8650,8649,8650,8649,8650,8649,8650,8649,8650,8649,8650,8649,8650,8649,8650,8649,8650,8649,8650,8649,8650,8649,8650,8649,8650,8649,8650,8649,8650,8649,8650,8649,8650,8649,8650,8649,8650,8649,8650,8649,8650,8649,8650,8649,8650,8649,8650,8649,8650,8649,8650,8649,8650,8649,8650,8649,8650,8649,8650,8649,8650,8649,8650,8645,8646,8645,8646,8645,8646,8645,8646,8645,8646,8645,8646,8645,8646,8645,8646,8645,8646,8645,8646,8645,8646,8645,8646,8645,8646,8645,8646,8645,8646,8645,8646,8645,8646,8645,8646,8645,8646,8645,8646,8645,8646,8645,8646,8645,8646,8645,8646,8645,8646,8645,8646,8645,8646,8645,8646,8645,8646,8645,8646,8645,8646,8645,8646,8645,8646,8645,8646,8645,8646,8645,8646,8645,8646,8645,8646,8645,8646,8645,8646,8645,8646,8645,8646,8645,8646,8645,8646,8645,8646,8645,8646,8645,8646,8645,8646,8645,8646,8645,8646,8645,8646,8645,8646,8645,8646,8645,8646,8645,8646,
8517,8518,8517,8518,8517,8518,8517,8518,8517,8518,8517,8518,8517,8518,8517,8518,8517,8518,8517,8518,8517,8518,8517,8518,8517,8518,8517,8518,8517,8518,8517,8518,8517,8518,8517,8518,8517,8518,8517,8518,8517,8518,8517,8518,8517,8518,8517,8518,8517,8518,8517,8518,8517,8518,8517,8518,8517,8518,8517,8518,8517,8518,8517,8518,8517,8518,8517,8518,8517,8518,8517,8518,8517,8518,8517,8518,8517,8518,8517,8518,8521,8522,8521,8522,8521,8522,8521,8522,8521,8522,8521,8522,8521,8522,8521,8522,8521,8522,8521,8522,8521,8522,8521,8522,8521,8522,8521,8522,8521,8522,8521,8522,8521,8522,8521,8522,8521,8522,8521,8522,8521,8522,8521,8522,8521,8522,8521,8522,8521,8522,8521,8522,8521,8522,8521,8522,8521,8522,8521,8522,8521,8522,8521,8522,8521,8522,8517,8518,8517,8518,8517,8518,8517,8518,8517,8518,8517,8518,8517,8518,8517,8518,8517,8518,8517,8518,8517,8518,8517,8518,8517,8518,8517,8518,8517,8518,8517,8518,8517,8518,8517,8518,8517,8518,8517,8518,8517,8518,8517,8518,8517,8518,8517,8518,8517,8518,8517,8518,8517,8518,8517,8518,8517,8518,8517,8518,8517,8518,8517,8518,8517,8518,8517,8518,8517,8518,8517,8518,8517,8518,8517,8518,8517,8518,8517,8518,8517,8518,8517,8518,8517,8518,8517,8518,8517,8518,8517,8518,8517,8518,8517,8518,8517,8518,8517,8518,8517,8518,8517,8518,8517,8518,8517,8518,8517,8518,
8645,8646,8645,8646,8645,8646,8645,8646,8645,8646,8645,8646,8645,8646,8645,8646,8645,8646,8645,8646,8645,8646,8645,8646,8645,8646,8645,8646,8645,8646,8645,8646,8645,8646,8645,8646,8645,8646,8645,8646,8645,8646,8645,8646,8645,8646,8645,8646,8645,8646,8645,8646,8645,8646,8645,8646,8645,8646,8645,8646,8645,8646,8645,8646,8645,8646,8645,8646,8645,8646,8645,8646,8645,8646,8645,8646,8645,8646,8645,8646,8649,8650,8649,8650,8649,8650,8649,8650,8649,8650,8649,8650,8649,8650,8649,8650,8649,8650,8649,8650,8649,8650,8649,8650,8649,8650,8649,8650,8649,8650,8649,8650,8649,8650,8649,8650,8649,8650,8649,8650,8649,8650,8649,8650,8649,8650,8649,8650,8649,8650,8649,8650,8649,8650,8649,8650,8649,8650,8649,8650,8649,8650,8649,8650,8649,8650,8645,8646,8645,8646,8645,8646,8645,8646,8645,8646,8645,8646,8645,8646,8645,8646,8645,8646,8645,8646,8645,8646,8645,8646,8645,8646,8645,8646,8645,8646,8645,8646,8645,8646,8645,8646,8645,8646,8645,8646,8645,8646,8645,8646,8645,8646,8645,8646,8645,8646,8645,8646,8645,8646,8645,8646,8645,8646,8645,8646,8645,8646,8645,8646,8645,8646,8645,8646,8645,8646,8645,8646,8645,8646,8645,8646,8645,8646,8645,8646,8645,8646,8645,8646,8645,8646,8645,8646,8645,8646,8645,8646,8645,8646,8645,8646,8645,8646,8645,8646,8645,8646,8645,8646,8645,8646,8645,8646,8645,8646,
8517,8518,8517,8518,8517,8518,8517,8518,8517,8518,8517,8518,8517,8518,8517,8518,8517,8518,8517,8518,8517,8518,8517,8518,8517,8518,8769,8770,8517,8518,8517,8518,8517,8518,8517,8518,8517,8518,8769,8770,8517,8518,8517,8518,8517,8518,8517,8518,8517,8518,8517,8518,8517,8518,8517,8518,8517,8518,8517,8518,8517,8518,8517,8518,8517,8518,8517,8518,8517,8518,8517,8518,8517,8518,8517,8518,8517,8518,8517,8518,8521,8522,8521,8522,8521,8522,8521,8522,8521,8522,8521,8522,8521,8522,8521,8522,8521,8522,8521,8522,8521,8522,8521,8522,8521,8522,8521,8522,8521,8522,8521,8522,8521,8522,8521,8522,8521,8522,8521,8522,8521,8522,8521,8522,8521,8522,8521,8522,8521,8522,8521,8522,8521,8522,8521,8522,8521,8522,8521,8522,8521,8522,8521,8522,8521,8522,8517,8518,8517,8518,8517,8518,8517,8518,8517,8518,8517,8518,8517,8518,8517,8518,8517,8518,8517,8518,8517,8518,8517,8518,8517,8518,8517,8518,8517,8518,8517,8518,8517,8518,8517,8518,8517,8518,8517,8518,8517,8518,8517,8518,8517,8518,8517,8518,8517,8518,8517,8518,8517,8518,8517,8518,8517,8518,8517,8518,8517,8518,8517,8518,8517,8518,8517,8518,8517,8518,8517,8518,8517,8518,8517,8518,8517,8518,8517,8518,8517,8518,8517,8518,8517,8518,8517,8518,8517,8518,8517,8518,8517,8518,8517,8518,8517,8518,8517,8518,8517,8518,8517,8518,8517,8518,8517,8518,8517,8518,
8645,8646,8645,8646,8645,8646,8645,8646,8645,8646,8645,8646,8645,8646,8645,8646,8645,8646,8645,8646,8645,8646,8645,8646,8645,8646,8897,8898,8645,8646,8645,8646,8645,8646,8645,8646,8645,8646,8897,8898,8645,8646,8645,8646,8645,8646,8645,8646,8645,8646,8645,8646,8645,8646,8645,8646,8645,8646,8645,8646,8645,8646,8645,8646,8645,8646,8645,8646,8645,8646,8645,8646,8645,8646,8645,8646,8645,8646,8645,8646,8649,8650,8649,8650,8649,8650,8649,8650,8649,8650,8649,8650,8649,8650,8649,8650,8649,8650,8649,8650,8649,8650,8649,8650,8649,8650,8649,8650,8649,8650,8649,8650,8649,8650,8649,8650,8649,8650,8649,8650,8649,8650,8649,8650,8649,8650,8649,8650,8649,8650,8649,8650,8649,8650,8649,8650,8649,8650,8649,8650,8649,8650,8649,8650,8649,8650,8645,8646,8645,8646,8645,8646,8645,8646,8645,8646,8645,8646,8645,8646,8645,8646,8645,8646,8645,8646,8645,8646,8645,8646,8645,8646,8645,8646,8645,8646,8645,8646,8645,8646,8645,8646,8645,8646,8645,8646,8645,8646,8645,8646,8645,8646,8645,8646,8645,8646,8645,8646,8645,8646,8645,8646,8645,8646,8645,8646,8645,8646,8645,8646,8645,8646,8645,8646,8645,8646,8645,8646,8645,8646,8645,8646,8645,8646,8645,8646,8645,8646,8645,8646,8645,8646,8645,8646,8645,8646,8645,8646,8645,8646,8645,8646,8645,8646,8645,8646,8645,8646,8645,8646,8645,8646,8645,8646,8645,8646,
8517,8518,8517,8518,8517,8518,8517,8518,8517,8518,8517,8518,8517,8518,8517,8518,8517,8518,8517,8518,8517,8518,8517,8518,8517,8518,8517,8518,8517,8518,8517,8518,8517,8518,8517,8518,8517,8518,8517,8518,8517,8518,8517,8518,8517,8518,8517,8518,8517,8518,8517,8518,8517,8518,8517,8518,8517,8518,8517,8518,8517,8518,8517,8518,8517,8518,8517,8518,8517,8518,8517,8518,8517,8518,8517,8518,8517,8518,8517,8518,8521,8522,8521,8522,8521,8522,8521,8522,8521,8522,8521,8522,8521,8522,8521,8522,8521,8522,8521,8522,8521,8522,8521,8522,8521,8522,8521,8522,8521,8522,8521,8522,8521,8522,8521,8522,8521,8522,8521,8522,8521,8522,8521,8522,8521,8522,8521,8522,8521,8522,8521,8522,8521,8522,8521,8522,8521,8522,8521,8522,8521,8522,8521,8522,8521,8522,8517,8518,8517,8518,8517,8518,8517,8518,8517,8518,8517,8518,8517,8518,8517,8518,8517,8518,8517,8518,8517,8518,8517,8518,8517,8518,8517,8518,8517,8518,8517,8518,8517,8518,8517,8518,8517,8518,8517,8518,8517,8518,8517,8518,8517,8518,8517,8518,8517,8518,8517,8518,8517,8518,8517,8518,8517,8518,8517,8518,8517,8518,8517,8518,8517,8518,8517,8518,8517,8518,8517,8518,8517,8518,8517,8518,8517,8518,8517,8518,8517,8518,8517,8518,8517,8518,8517,8518,8517,8518,8517,8518,8517,8518,8517,8518,8517,8518,8517,8518,8517,8518,8517,8518,8517,8518,8517,8518,8517,8518,
8645,8646,8645,8646,8645,8646,8645,8646,8645,8646,8645,8646,8645,8646,8645,8646,8645,8646,8645,8646,8645,8646,8645,8646,8645,8646,8645,8646,8645,8646,8645,8646,8645,8646,8645,8646,8645,8646,8645,8646,8645,8646,8645,8646,8645,8646,8645,8646,8645,8646,8645,8646,8645,8646,8645,8646,8645,8646,8645,8646,8645,8646,8645,8646,8645,8646,8645,8646,8645,8646,8645,8646,8645,8646,8645,8646,8645,8646,8645,8646,8649,8650,8649,8650,8649,8650,8649,8650,8649,8650,8649,8650,8649,8650,8649,8650,8649,8650,8649,8650,8649,8650,8649,8650,8649,8650,8649,8650,8649,8650,8649,8650,8649,8650,8649,8650,8649,8650,8649,8650,8649,8650,8649,8650,8649,8650,8649,8650,8649,8650,8649,8650,8649,8650,8649,8650,8649,8650,8649,8650,8649,8650,8649,8650,8649,8650,8645,8646,8645,8646,8645,8646,8645,8646,8645,8646,8645,8646,8645,8646,8645,8646,8645,8646,8645,8646,8645,8646,8645,8646,8645,8646,8645,8646,8645,8646,8645,8646,8645,8646,8645,8646,8645,8646,8645,8646,8645,8646,8645,8646,8645,8646,8645,8646,8645,8646,8645,8646,8645,8646,8645,8646,8645,8646,8645,8646,8645,8646,8645,8646,8645,8646,8645,8646,8645,8646,8645,8646,8645,8646,8645,8646,8645,8646,8645,8646,8645,8646,8645,8646,8645,8646,8645,8646,8645,8646,8645,8646,8645,8646,8645,8646,8645,8646,8645,8646,8645,8646,8645,8646,8645,8646,8645,8646,8645,8646,
8517,8518,8517,8518,8517,8518,8517,8518,8517,8518,8517,8518,8517,8518,8517,8518,8517,8518,8517,8518,8517,8518,8517,8518,8517,8518,8517,8518,8517,8518,8517,8518,8517,8518,8517,8518,8517,8518,8517,8518,8517,8518,8517,8518,8517,8518,8517,8518,8517,8518,8517,8518,8517,8518,8517,8518,8517,8518,8517,8518,8517,8518,8517,8518,8517,8518,8517,8518,8517,8518,8517,8518,8517,8518,8517,8518,8517,8518,8517,8518,8521,8522,8521,8522,8521,8522,8521,8522,8521,8522,8521,8522,8521,8522,8521,8522,8521,8522,8521,8522,8521,8522,8521,8522,8521,8522,8521,8522,8521,8522,8521,8522,8521,8522,8521,8522,8521,8522,8521,8522,8521,8522,8521,8522,8521,8522,8521,8522,8521,8522,8521,8522,8521,8522,8521,8522,8521,8522,8521,8522,8521,8522,8521,8522,8521,8522,8517,8518,8517,8518,8517,8518,8517,8518,8517,8518,8517,8518,8517,8518,8517,8518,8517,8518,8517,8518,8517,8518,8517,8518,8517,8518,8517,8518,8517,8518,8517,8518,8517,8518,8517,8518,8517,8518,8517,8518,8517,8518,8517,8518,8517,8518,8517,8518,8517,8518,8517,8518,8517,8518,8517,8518,8517,8518,8517,8518,8517,8518,8517,8518,8517,8518,8517,8518,8517,8518,8517,8518,8517,8518,8517,8518,8517,8518,8517,8518,8517,8518,8517,8518,8517,8518,8517,8518,8517,8518,8517,8518,8517,8518,8517,8518,8517,8518,8517,8518,8517,8518,8517,8518,8517,8518,8517,8518,8517,8518,
8645,8646,8645,8646,8645,8646,8645,8646,8645,8646,8645,8646,8645,8646,8645,8646,8645,8646,8645,8646,8645,8646,8645,8646,8645,8646,8645,8646,8645,8646,8645,8646,8645,8646,8645,8646,8645,8646,8645,8646,8645,8646,8645,8646,8645,8646,8645,8646,8645,8646,8645,8646,8645,8646,8645,8646,8645,8646,8645,8646,8645,8646,8645,8646,8645,8646,8645,8646,8645,8646,8645,8646,8645,8646,8645,8646,8645,8646,8645,8646,8649,8650,8649,8650,8649,8650,8649,8650,8649,8650,8649,8650,8649,8650,8649,8650,8649,8650,8649,8650,8649,8650,8649,8650,8649,8650,8649,8650,8649,8650,8649,8650,8649,8650,8649,8650,8649,8650,8649,8650,8649,8650,8649,8650,8649,8650,8649,8650,8649,8650,8649,8650,8649,8650,8649,8650,8649,8650,8649,8650,8649,8650,8649,8650,8649,8650,8645,8646,8645,8646,8645,8646,8645,8646,8645,8646,8645,8646,8645,8646,8645,8646,8645,8646,8645,8646,8645,8646,8645,8646,8645,8646,8645,8646,8645,8646,8645,8646,8645,8646,8645,8646,8645,8646,8645,8646,8645,8646,8645,8646,8645,8646,8645,8646,8645,8646,8645,8646,8645,8646,8645,8646,8645,8646,8645,8646,8645,8646,8645,8646,8645,8646,8645,8646,8645,8646,8645,8646,8645,8646,8645,8646,8645,8646,8645,8646,8645,8646,8645,8646,8645,8646,8645,8646,8645,8646,8645,8646,8645,8646,8645,8646,8645,8646,8645,8646,8645,8646,8645,8646,8645,8646,8645,8646,8645,8646,
8517,8518,8517,8518,8517,8518,8517,8518,8517,8518,8517,8518,8517,8518,8517,8518,8517,8518,8517,8518,8517,8518,8517,8518,8517,8518,8517,8518,8517,8518,8517,8518,8517,8518,8517,8518,8517,8518,8517,8518,8517,8518,8517,8518,8517,8518,8517,8518,8517,8518,8517,8518,8517,8518,8517,8518,8517,8518,8517,8518,8517,8518,8517,8518,8517,8518,8517,8518,8517,8518,8517,8518,8517,8518,8517,8518,8517,8518,8517,8518,8521,8522,8521,8522,8521,8522,8521,8522,8521,8522,8521,8522,8521,8522,8521,8522,8521,8522,8521,8522,8521,8522,8521,8522,8521,8522,8521,8522,8521,8522,8521,8522,8521,8522,8521,8522,8521,8522,8521,8522,8521,8522,8521,8522,8521,8522,8521,8522,8521,8522,8521,8522,8521,8522,8521,8522,8521,8522,8521,8522,8521,8522,8521,8522,8521,8522,8517,8518,8517,8518,8517,8518,8517,8518,8517,8518,8517,8518,8517,8518,8517,8518,8517,8518,8517,8518,8517,8518,8517,8518,8517,8518,8517,8518,8517,8518,8517,8518,8517,8518,8517,8518,8517,8518,8517,8518,8517,8518,8517,8518,8517,8518,8517,8518,8517,8518,8517,8518,8517,8518,8517,8518,8517,8518,8517,8518,8517,8518,8517,8518,8517,8518,8517,8518,8517,8518,8517,8518,8517,8518,8517,8518,8517,8518,8517,8518,8517,8518,8517,8518,8517,8518,8517,8518,8517,8518,8517,8518,8517,8518,8517,8518,8517,8518,8517,8518,8517,8518,8517,8518,8517,8518,8517,8518,8517,8518,
8645,8646,8645,8646,8645,8646,8645,8646,8645,8646,8645,8646,8645,8646,8645,8646,8645,8646,8645,8646,8645,8646,8645,8646,8645,8646,8645,8646,8645,8646,8645,8646,8645,8646,8645,8646,8645,8646,8645,8646,8645,8646,8645,8646,8645,8646,8645,8646,8645,8646,8645,8646,8645,8646,8645,8646,8645,8646,8645,8646,8645,8646,8645,8646,8645,8646,8645,8646,8645,8646,8645,8646,8645,8646,8645,8646,8645,8646,8645,8646,8649,8650,8649,8650,8649,8650,8649,8650,8649,8650,8649,8650,8649,8650,8649,8650,8649,8650,8649,8650,8649,8650,8649,8650,8649,8650,8649,8650,8649,8650,8649,8650,8649,8650,8649,8650,8649,8650,8649,8650,8649,8650,8649,8650,8649,8650,8649,8650,8649,8650,8649,8650,8649,8650,8649,8650,8649,8650,8649,8650,8649,8650,8649,8650,8649,8650,8645,8646,8645,8646,8645,8646,8645,8646,8645,8646,8645,8646,8645,8646,8645,8646,8645,8646,8645,8646,8645,8646,8645,8646,8645,8646,8645,8646,8645,8646,8645,8646,8645,8646,8645,8646,8645,8646,8645,8646,8645,8646,8645,8646,8645,8646,8645,8646,8645,8646,8645,8646,8645,8646,8645,8646,8645,8646,8645,8646,8645,8646,8645,8646,8645,8646,8645,8646,8645,8646,8645,8646,8645,8646,8645,8646,8645,8646,8645,8646,8645,8646,8645,8646,8645,8646,8645,8646,8645,8646,8645,8646,8645,8646,8645,8646,8645,8646,8645,8646,8645,8646,8645,8646,8645,8646,8645,8646,8645,8646,
8517,8518,8517,8518,8517,8518,8517,8518,8517,8518,8517,8518,8517,8518,8517,8518,8517,8518,8517,8518,8517,8518,8517,8518,8517,8518,8517,8518,8517,8518,8517,8518,8517,8518,8517,8518,8517,8518,8517,8518,8517,8518,8517,8518,8517,8518,8517,8518,8517,8518,8517,8518,8517,8518,8517,8518,8517,8518,8517,8518,8517,8518,8517,8518,8517,8518,8517,8518,8517,8518,8517,8518,8517,8518,8517,8518,8517,8518,8517,8518,8521,8522,8521,8522,8521,8522,8521,8522,8521,8522,8521,8522,8521,8522,8521,8522,8521,8522,8521,8522,8521,8522,8521,8522,8521,8522,8521,8522,8521,8522,8521,8522,8521,8522,8521,8522,8521,8522,8521,8522,8521,8522,8521,8522,8521,8522,8521,8522,8521,8522,8521,8522,8521,8522,8521,8522,8521,8522,8521,8522,8521,8522,8521,8522,8521,8522,8517,8518,8517,8518,8517,8518,8517,8518,8517,8518,8517,8518,8517,8518,8517,8518,8517,8518,8517,8518,8517,8518,8517,8518,8517,8518,8517,8518,8517,8518,8517,8518,8517,8518,8517,8518,8517,8518,8517,8518,8517,8518,8517,8518,8517,8518,8517,8518,8517,8518,8517,8518,8517,8518,8517,8518,8517,8518,8517,8518,8517,8518,8517,8518,8517,8518,8517,8518,8517,8518,8517,8518,8517,8518,8517,8518,8517,8518,8517,8518,8517,8518,8517,8518,8517,8518,8517,8518,8517,8518,8517,8518,8517,8518,8517,8518,8517,8518,8517,8518,8517,8518,8517,8518,8517,8518,8517,8518,8517,8518,
8645,8646,8645,8646,8645,8646,8645,8646,8645,8646,8645,8646,8645,8646,8645,8646,8645,8646,8645,8646,8645,8646,8645,8646,8645,8646,8645,8646,8645,8646,8645,8646,8645,8646,8645,8646,8645,8646,8645,8646,8645,8646,8645,8646,8645,8646,8645,8646,8645,8646,8645,8646,8645,8646,8645,8646,8645,8646,8645,8646,8645,8646,8645,8646,8645,8646,8645,8646,8645,8646,8645,8646,8645,8646,8645,8646,8645,8646,8645,8646,8649,8650,8649,8650,8649,8650,8649,8650,8649,8650,8649,8650,8649,8650,8649,8650,8649,8650,8649,8650,8649,8650,8649,8650,8649,8650,8649,8650,8649,8650,8649,8650,8649,8650,8649,8650,8649,8650,8649,8650,8649,8650,8649,8650,8649,8650,8649,8650,8649,8650,8649,8650,8649,8650,8649,8650,8649,8650,8649,8650,8649,8650,8649,8650,8649,8650,8645,8646,8645,8646,8645,8646,8645,8646,8645,8646,8645,8646,8645,8646,8645,8646,8645,8646,8645,8646,8645,8646,8645,8646,8645,8646,8645,8646,8645,8646,8645,8646,8645,8646,8645,8646,8645,8646,8645,8646,8645,8646,8645,8646,8645,8646,8645,8646,8645,8646,8645,8646,8645,8646,8645,8646,8645,8646,8645,8646,8645,8646,8645,8646,8645,8646,8645,8646,8645,8646,8645,8646,8645,8646,8645,8646,8645,8646,8645,8646,8645,8646,8645,8646,8645,8646,8645,8646,8645,8646,8645,8646,8645,8646,8645,8646,8645,8646,8645,8646,8645,8646,8645,8646,8645,8646,8645,8646,8645,8646,
8517,8518,8517,8518,8517,8518,8517,8518,8517,8518,8517,8518,8517,8518,8517,8518,8517,8518,8517,8518,8517,8518,8517,8518,8517,8518,8769,8770,8517,8518,8517,8518,8517,8518,8517,8518,8517,8518,8769,8770,8517,8518,8517,8518,8517,8518,8517,8518,8517,8518,8517,8518,8517,8518,8517,8518,8517,8518,8517,8518,8517,8518,8517,8518,8517,8518,8517,8518,8517,8518,8517,8518,8517,8518,8517,8518,8517,8518,8517,8518,8521,8522,8521,8522,8521,8522,8521,8522,8521,8522,8521,8522,8521,8522,8521,8522,8521,8522,8521,8522,8521,8522,8521,8522,8521,8522,8521,8522,8521,8522,8521,8522,8521,8522,8521,8522,8521,8522,8521,8522,8521,8522,8521,8522,8521,8522,8521,8522,8521,8522,8521,8522,8521,8522,8521,8522,8521,8522,8521,8522,8521,8522,8521,8522,8521,8522,8517,8518,8517,8518,8517,8518,8517,8518,8517,8518,8517,8518,8517,8518,8517,8518,8517,8518,8517,8518,8517,8518,8517,8518,8517,8518,8517,8518,8517,8518,8517,8518,8517,8518,8517,8518,8517,8518,8517,8518,8517,8518,8517,8518,8517,8518,8517,8518,8517,8518,8517,8518,8517,8518,8517,8518,8517,8518,8517,8518,8517,8518,8517,8518,8517,8518,8517,8518,8517,8518,8517,8518,8517,8518,8517,8518,8517,8518,8517,8518,8517,8518,8517,8518,8517,8518,8517,8518,8517,8518,8517,8518,8517,8518,8517,8518,8517,8518,8517,8518,8517,8518,8517,8518,8517,8518,8517,8518,8517,8518,
8645,8646,8645,8646,8645,8646,8645,8646,8645,8646,8645,8646,8645,8646,8645,8646,8645,8646,8645,8646,8645,8646,8645,8646,8645,8646,8897,8898,8645,8646,8645,8646,8645,8646,8645,8646,8645,8646,8897,8898,8645,8646,8645,8646,8645,8646,8645,8646,8645,8646,8645,8646,8645,8646,8645,8646,8645,8646,8645,8646,8645,8646,8645,8646,8645,8646,8645,8646,8645,8646,8645,8646,8645,8646,8645,8646,8645,8646,8645,8646,8649,8650,8649,8650,8649,8650,8649,8650,8649,8650,8649,8650,8649,8650,8649,8650,8649,8650,8649,8650,8649,8650,8649,8650,8649,8650,8649,8650,8649,8650,8649,8650,8649,8650,8649,8650,8649,8650,8649,8650,8649,8650,8649,8650,8649,8650,8649,8650,8649,8650,8649,8650,8649,8650,8649,8650,8649,8650,8649,8650,8649,8650,8649,8650,8649,8650,8645,8646,8645,8646,8645,8646,8645,8646,8645,8646,8645,8646,8645,8646,8645,8646,8645,8646,8645,8646,8645,8646,8645,8646,8645,8646,8645,8646,8645,8646,8645,8646,8645,8646,8645,8646,8645,8646,8645,8646,8645,8646,8645,8646,8645,8646,8645,8646,8645,8646,8645,8646,8645,8646,8645,8646,8645,8646,8645,8646,8645,8646,8645,8646,8645,8646,8645,8646,8645,8646,8645,8646,8645,8646,8645,8646,8645,8646,8645,8646,8645,8646,8645,8646,8645,8646,8645,8646,8645,8646,8645,8646,8645,8646,8645,8646,8645,8646,8645,8646,8645,8646,8645,8646,8645,8646,8645,8646,8645,8646,
8517,8518,8517,8518,8517,8518,8517,8518,8517,8518,8517,8518,8517,8518,8517,8518,8517,8518,8517,8518,8517,8518,8517,8518,8517,8518,8517,8518,8517,8518,8517,8518,8517,8518,8517,8518,8517,8518,8517,8518,8517,8518,8517,8518,8517,8518,8517,8518,8517,8518,8517,8518,8517,8518,8517,8518,8517,8518,8517,8518,8517,8518,8517,8518,8517,8518,8517,8518,8517,8518,8517,8518,8517,8518,8517,8518,8517,8518,8517,8518,8521,8522,8521,8522,8521,8522,8521,8522,8521,8522,8521,8522,8521,8522,8521,8522,8521,8522,8521,8522,8521,8522,8521,8522,8521,8522,8521,8522,8521,8522,8521,8522,8521,8522,8521,8522,8521,8522,8521,8522,8521,8522,8521,8522,8521,8522,8521,8522,8521,8522,8521,8522,8521,8522,8521,8522,8521,8522,8521,8522,8521,8522,8521,8522,8521,8522,8517,8518,8517,8518,8517,8518,8517,8518,8517,8518,8517,8518,8517,8518,8517,8518,8517,8518,8517,8518,8517,8518,8517,8518,8517,8518,8517,8518,8517,8518,8517,8518,8517,8518,8517,8518,8517,8518,8517,8518,8517,8518,8517,8518,8517,8518,8517,8518,8517,8518,8517,8518,8517,8518,8517,8518,8517,8518,8517,8518,8517,8518,8517,8518,8517,8518,8517,8518,8517,8518,8517,8518,8517,8518,8517,8518,8517,8518,8517,8518,8517,8518,8517,8518,8517,8518,8517,8518,8517,8518,8517,8518,8517,8518,8517,8518,8517,8518,8517,8518,8517,8518,8517,8518,8517,8518,8517,8518,8517,8518,
8645,8646,8645,8646,8645,8646,8645,8646,8645,8646,8645,8646,8645,8646,8645,8646,8645,8646,8645,8646,8645,8646,8645,8646,8645,8646,8645,8646,8645,8646,8645,8646,8645,8646,8645,8646,8645,8646,8645,8646,8645,8646,8645,8646,8645,8646,8645,8646,8645,8646,8645,8646,8645,8646,8645,8646,8645,8646,8645,8646,8645,8646,8645,8646,8645,8646,8645,8646,8645,8646,8645,8646,8645,8646,8645,8646,8645,8646,8645,8646,8649,8650,8649,8650,8649,8650,8649,8650,8649,8650,8649,8650,8649,8650,8649,8650,8649,8650,8649,8650,8649,8650,8649,8650,8649,8650,8649,8650,8649,8650,8649,8650,8649,8650,8649,8650,8649,8650,8649,8650,8649,8650,8649,8650,8649,8650,8649,8650,8649,8650,8649,8650,8649,8650,8649,8650,8649,8650,8649,8650,8649,8650,8649,8650,8649,8650,8645,8646,8645,8646,8645,8646,8645,8646,8645,8646,8645,8646,8645,8646,8645,8646,8645,8646,8645,8646,8645,8646,8645,8646,8645,8646,8645,8646,8645,8646,8645,8646,8645,8646,8645,8646,8645,8646,8645,8646,8645,8646,8645,8646,8645,8646,8645,8646,8645,8646,8645,8646,8645,8646,8645,8646,8645,8646,8645,8646,8645,8646,8645,8646,8645,8646,8645,8646,8645,8646,8645,8646,8645,8646,8645,8646,8645,8646,8645,8646,8645,8646,8645,8646,8645,8646,8645,8646,8645,8646,8645,8646,8645,8646,8645,8646,8645,8646,8645,8646,8645,8646,8645,8646,8645,8646,8645,8646,8645,8646,
8517,8518,8517,8518,8517,8518,8517,8518,8517,8518,8517,8518,8517,8518,8517,8518,8517,8518,8517,8518,8517,8518,8517,8518,8517,8518,8517,8518,8517,8518,8517,8518,8517,8518,8517,8518,8517,8518,8517,8518,8517,8518,8517,8518,8517,8518,8517,8518,8517,8518,8517,8518,8517,8518,8517,8518,8517,8518,8517,8518,8517,8518,8517,8518,8517,8518,8517,8518,8517,8518,8517,8518,8517,8518,8517,8518,8517,8518,8517,8518,8521,8522,8521,8522,8521,8522,8521,8522,8521,8522,8521,8522,8521,8522,8521,8522,8521,8522,8521,8522,8521,8522,8521,8522,8521,8522,8521,8522,8521,8522,8521,8522,8521,8522,8521,8522,8521,8522,8521,8522,8521,8522,8521,8522,8521,8522,8521,8522,8521,8522,8521,8522,8521,8522,8521,8522,8521,8522,8521,8522,8521,8522,8521,8522,8521,8522,8517,8518,8517,8518,8517,8518,8517,8518,8517,8518,8517,8518,8517,8518,8517,8518,8517,8518,8517,8518,8517,8518,8517,8518,8517,8518,8517,8518,8517,8518,8517,8518,8517,8518,8517,8518,8517,8518,8517,8518,8517,8518,8517,8518,8517,8518,8517,8518,8517,8518,8517,8518,8517,8518,8517,8518,8517,8518,8517,8518,8517,8518,8517,8518,8517,8518,8517,8518,8517,8518,8517,8518,8517,8518,8517,8518,8517,8518,8517,8518,8517,8518,8517,8518,8517,8518,8517,8518,8517,8518,8517,8518,8517,8518,8517,8518,8517,8518,8517,8518,8517,8518,8517,8518,8517,8518,8517,8518,8517,8518,
8645,8646,8645,8646,8645,8646,8645,8646,8645,8646,8645,8646,8645,8646,8645,8646,8645,8646,8645,8646,8645,8646,8645,8646,8645,8646,8645,8646,8645,8646,8645,8646,8645,8646,8645,8646,8645,8646,8645,8646,8645,8646,8645,8646,8645,8646,8645,8646,8645,8646,8645,8646,8645,8646,8645,8646,8645,8646,8645,8646,8645,8646,8645,8646,8645,8646,8645,8646,8645,8646,8645,8646,8645,8646,8645,8646,8645,8646,8645,8646,8649,8650,8649,8650,8649,8650,8649,8650,8649,8650,8649,8650,8649,8650,8649,8650,8649,8650,8649,8650,8649,8650,8649,8650,8649,8650,8649,8650,8649,8650,8649,8650,8649,8650,8649,8650,8649,8650,8649,8650,8649,8650,8649,8650,8649,8650,8649,8650,8649,8650,8649,8650,8649,8650,8649,8650,8649,8650,8649,8650,8649,8650,8649,8650,8649,8650,8645,8646,8645,8646,8645,8646,8645,8646,8645,8646,8645,8646,8645,8646,8645,8646,8645,8646,8645,8646,8645,8646,8645,8646,8645,8646,8645,8646,8645,8646,8645,8646,8645,8646,8645,8646,8645,8646,8645,8646,8645,8646,8645,8646,8645,8646,8645,8646,8645,8646,8645,8646,8645,8646,8645,8646,8645,8646,8645,8646,8645,8646,8645,8646,8645,8646,8645,8646,8645,8646,8645,8646,8645,8646,8645,8646,8645,8646,8645,8646,8645,8646,8645,8646,8645,8646,8645,8646,8645,8646,8645,8646,8645,8646,8645,8646,8645,8646,8645,8646,8645,8646,8645,8646,8645,8646,8645,8646,8645,8646,
8517,8518,8517,8518,8517,8518,8517,8518,8517,8518,8517,8518,8517,8518,8517,8518,8517,8518,8517,8518,8517,8518,8517,8518,8517,8518,8517,8518,8517,8518,8517,8518,8517,8518,8517,8518,8517,8518,8517,8518,8517,8518,8517,8518,8517,8518,8517,8518,8517,8518,8517,8518,8517,8518,8517,8518,8517,8518,8517,8518,8517,8518,8517,8518,8517,8518,8517,8518,8517,8518,8517,8518,8517,8518,8517,8518,8517,8518,8517,8518,8521,8522,8521,8522,8521,8522,8521,8522,8521,8522,8521,8522,8521,8522,8521,8522,8521,8522,8521,8522,8521,8522,8521,8522,8521,8522,8521,8522,8521,8522,8521,8522,8521,8522,8521,8522,8521,8522,8521,8522,8521,8522,8521,8522,8521,8522,8521,8522,8521,8522,8521,8522,8521,8522,8521,8522,8521,8522,8521,8522,8521,8522,8521,8522,8521,8522,8517,8518,8517,8518,8517,8518,8517,8518,8517,8518,8517,8518,8517,8518,8517,8518,8517,8518,8517,8518,8517,8518,8517,8518,8517,8518,8517,8518,8517,8518,8517,8518,8517,8518,8517,8518,8517,8518,8517,8518,8517,8518,8517,8518,8517,8518,8517,8518,8517,8518,8517,8518,8517,8518,8517,8518,8517,8518,8517,8518,8517,8518,8517,8518,8517,8518,8517,8518,8517,8518,8517,8518,8517,8518,8517,8518,8517,8518,8517,8518,8517,8518,8517,8518,8517,8518,8517,8518,8517,8518,8517,8518,8517,8518,8517,8518,8517,8518,8517,8518,8517,8518,8517,8518,8517,8518,8517,8518,8517,8518,
8645,8646,8645,8646,8645,8646,8645,8646,8645,8646,8645,8646,8645,8646,8645,8646,8645,8646,8645,8646,8645,8646,8645,8646,8645,8646,8645,8646,8645,8646,8645,8646,8645,8646,8645,8646,8645,8646,8645,8646,8645,8646,8645,8646,8645,8646,8645,8646,8645,8646,8645,8646,8645,8646,8645,8646,8645,8646,8645,8646,8645,8646,8645,8646,8645,8646,8645,8646,8645,8646,8645,8646,8645,8646,8645,8646,8645,8646,8645,8646,8649,8650,8649,8650,8649,8650,8649,8650,8649,8650,8649,8650,8649,8650,8649,8650,8649,8650,8649,8650,8649,8650,8649,8650,8649,8650,8649,8650,8649,8650,8649,8650,8649,8650,8649,8650,8649,8650,8649,8650,8649,8650,8649,8650,8649,8650,8649,8650,8649,8650,8649,8650,8649,8650,8649,8650,8649,8650,8649,8650,8649,8650,8649,8650,8649,8650,8645,8646,8645,8646,8645,8646,8645,8646,8645,8646,8645,8646,8645,8646,8645,8646,8645,8646,8645,8646,8645,8646,8645,8646,8645,8646,8645,8646,8645,8646,8645,8646,8645,8646,8645,8646,8645,8646,8645,8646,8645,8646,8645,8646,8645,8646,8645,8646,8645,8646,8645,8646,8645,8646,8645,8646,8645,8646,8645,8646,8645,8646,8645,8646,8645,8646,8645,8646,8645,8646,8645,8646,8645,8646,8645,8646,8645,8646,8645,8646,8645,8646,8645,8646,8645,8646,8645,8646,8645,8646,8645,8646,8645,8646,8645,8646,8645,8646,8645,8646,8645,8646,8645,8646,8645,8646,8645,8646,8645,8646,
8517,8518,8517,8518,8517,8518,8517,8518,8517,8518,8517,8518,8517,8518,8517,8518,8517,8518,8517,8518,8517,8518,8517,8518,8517,8518,8517,8518,8517,8518,8517,8518,8517,8518,8517,8518,8517,8518,8517,8518,8517,8518,8517,8518,8517,8518,8517,8518,8517,8518,8517,8518,8517,8518,8517,8518,8517,8518,8517,8518,8517,8518,8517,8518,8517,8518,8517,8518,8517,8518,8517,8518,8517,8518,8517,8518,8517,8518,8517,8518,8521,8522,8521,8522,8521,8522,8521,8522,8521,8522,8521,8522,8521,8522,8521,8522,8521,8522,8521,8522,8521,8522,8521,8522,8521,8522,8521,8522,8521,8522,8521,8522,8521,8522,8521,8522,8521,8522,8521,8522,8521,8522,8521,8522,8521,8522,8521,8522,8521,8522,8521,8522,8521,8522,8521,8522,8521,8522,8521,8522,8521,8522,8521,8522,8521,8522,8517,8518,8517,8518,8517,8518,8517,8518,8517,8518,8517,8518,8517,8518,8517,8518,8517,8518,8517,8518,8517,8518,8517,8518,8517,8518,8517,8518,8517,8518,8517,8518,8517,8518,8517,8518,8517,8518,8517,8518,8517,8518,8517,8518,8517,8518,8517,8518,8517,8518,8517,8518,8517,8518,8517,8518,8517,8518,8517,8518,8517,8518,8517,8518,8517,8518,8517,8518,8517,8518,8517,8518,8517,8518,8517,8518,8517,8518,8517,8518,8517,8518,8517,8518,8517,8518,8517,8518,8517,8518,8517,8518,8517,8518,8517,8518,8517,8518,8517,8518,8517,8518,8517,8518,8517,8518,8517,8518,8517,8518,
8645,8646,8645,8646,8645,8646,8645,8646,8645,8646,8645,8646,8645,8646,8645,8646,8645,8646,8645,8646,8645,8646,8645,8646,8645,8646,8645,8646,8645,8646,8645,8646,8645,8646,8645,8646,8645,8646,8645,8646,8645,8646,8645,8646,8645,8646,8645,8646,8645,8646,8645,8646,8645,8646,8645,8646,8645,8646,8645,8646,8645,8646,8645,8646,8645,8646,8645,8646,8645,8646,8645,8646,8645,8646,8645,8646,8645,8646,8645,8646,8649,8650,8649,8650,8649,8650,8649,8650,8649,8650,8649,8650,8649,8650,8649,8650,8649,8650,8649,8650,8649,8650,8649,8650,8649,8650,8649,8650,8649,8650,8649,8650,8649,8650,8649,8650,8649,8650,8649,8650,8649,8650,8649,8650,8649,8650,8649,8650,8649,8650,8649,8650,8649,8650,8649,8650,8649,8650,8649,8650,8649,8650,8649,8650,8649,8650,8645,8646,8645,8646,8645,8646,8645,8646,8645,8646,8645,8646,8645,8646,8645,8646,8645,8646,8645,8646,8645,8646,8645,8646,8645,8646,8645,8646,8645,8646,8645,8646,8645,8646,8645,8646,8645,8646,8645,8646,8645,8646,8645,8646,8645,8646,8645,8646,8645,8646,8645,8646,8645,8646,8645,8646,8645,8646,8645,8646,8645,8646,8645,8646,8645,8646,8645,8646,8645,8646,8645,8646,8645,8646,8645,8646,8645,8646,8645,8646,8645,8646,8645,8646,8645,8646,8645,8646,8645,8646,8645,8646,8645,8646,8645,8646,8645,8646,8645,8646,8645,8646,8645,8646,8645,8646,8645,8646,8645,8646,
8517,8518,8517,8518,8517,8518,8517,8518,8517,8518,8517,8518,8517,8518,8517,8518,8517,8518,8517,8518,8517,8518,8517,8518,8517,8518,8517,8518,8517,8518,8517,8518,8517,8518,8517,8518,8517,8518,8517,8518,8517,8518,8517,8518,8517,8518,8517,8518,8517,8518,8517,8518,8517,8518,8517,8518,8517,8518,8517,8518,8517,8518,8517,8518,8517,8518,8517,8518,8517,8518,8517,8518,8517,8518,8517,8518,8517,8518,8517,8518,8521,8522,8521,8522,8521,8522,8521,8522,8521,8522,8521,8522,8521,8522,8521,8522,8521,8522,8521,8522,8521,8522,8521,8522,8521,8522,8521,8522,8521,8522,8521,8522,8521,8522,8521,8522,8521,8522,8521,8522,8521,8522,8521,8522,8521,8522,8521,8522,8521,8522,8521,8522,8521,8522,8521,8522,8521,8522,8521,8522,8521,8522,8521,8522,8521,8522,8517,8518,8517,8518,8517,8518,8517,8518,8517,8518,8517,8518,8517,8518,8517,8518,8517,8518,8517,8518,8517,8518,8517,8518,8517,8518,8517,8518,8517,8518,8517,8518,8517,8518,8517,8518,8517,8518,8517,8518,8517,8518,8517,8518,8517,8518,8517,8518,8517,8518,8517,8518,8517,8518,8517,8518,8517,8518,8517,8518,8517,8518,8517,8518,8517,8518,8517,8518,8517,8518,8517,8518,8517,8518,8517,8518,8517,8518,8517,8518,8517,8518,8517,8518,8517,8518,8517,8518,8517,8518,8517,8518,8517,8518,8517,8518,8517,8518,8517,8518,8517,8518,8517,8518,8517,8518,8517,8518,8517,8518,
8645,8646,8645,8646,8645,8646,8645,8646,8645,8646,8645,8646,8645,8646,8645,8646,8645,8646,8645,8646,8645,8646,8645,8646,8645,8646,8645,8646,8645,8646,8645,8646,8645,8646,8645,8646,8645,8646,8645,8646,8645,8646,8645,8646,8645,8646,8645,8646,8645,8646,8645,8646,8645,8646,8645,8646,8645,8646,8645,8646,8645,8646,8645,8646,8645,8646,8645,8646,8645,8646,8645,8646,8645,8646,8645,8646,8645,8646,8645,8646,8649,8650,8649,8650,8649,8650,8649,8650,8649,8650,8649,8650,8649,8650,8649,8650,8649,8650,8649,8650,8649,8650,8649,8650,8649,8650,8649,8650,8649,8650,8649,8650,8649,8650,8649,8650,8649,8650,8649,8650,8649,8650,8649,8650,8649,8650,8649,8650,8649,8650,8649,8650,8649,8650,8649,8650,8649,8650,8649,8650,8649,8650,8649,8650,8649,8650,8645,8646,8645,8646,8645,8646,8645,8646,8645,8646,8645,8646,8645,8646,8645,8646,8645,8646,8645,8646,8645,8646,8645,8646,8645,8646,8645,8646,8645,8646,8645,8646,8645,8646,8645,8646,8645,8646,8645,8646,8645,8646,8645,8646,8645,8646,8645,8646,8645,8646,8645,8646,8645,8646,8645,8646,8645,8646,8645,8646,8645,8646,8645,8646,8645,8646,8645,8646,8645,8646,8645,8646,8645,8646,8645,8646,8645,8646,8645,8646,8645,8646,8645,8646,8645,8646,8645,8646,8645,8646,8645,8646,8645,8646,8645,8646,8645,8646,8645,8646,8645,8646,8645,8646,8645,8646,8645,8646,8645,8646,
8517,8518,8517,8518,8517,8518,8517,8518,8517,8518,8517,8518,8517,8518,8517,8518,8517,8518,8517,8518,8517,8518,8517,8518,8517,8518,8517,8518,8517,8518,8517,8518,8517,8518,8517,8518,8517,8518,8517,8518,8517,8518,8517,8518,8517,8518,8517,8518,8517,8518,8517,8518,8517,8518,8517,8518,8517,8518,8517,8518,8517,8518,8517,8518,8517,8518,8517,8518,8517,8518,8517,8518,8517,8518,8517,8518,8517,8518,8517,8518,8517,8518,8517,8518,8517,8518,8517,8518,8517,8518,8517,8518,8517,8518,8517,8518,8517,8518,8517,8518,8517,8518,8517,8518,8517,8518,8517,8518,8517,8518,8517,8518,8517,8518,8517,8518,8517,8518,8517,8518,8517,8518,8517,8518,8517,8518,8517,8518,8517,8518,8517,8518,8517,8518,8517,8518,8517,8518,8517,8518,8517,8518,8517,8518,8517,8518,8517,8518,8517,8518,8517,8518,8517,8518,8517,8518,8517,8518,8517,8518,8517,8518,8517,8518,8517,8518,8517,8518,8517,8518,8517,8518,8517,8518,8517,8518,8517,8518,8517,8518,8517,8518,8517,8518,8517,8518,8517,8518,8517,8518,8517,8518,8517,8518,8517,8518,8517,8518,8517,8518,8517,8518,8517,8518,8517,8518,8517,8518,8517,8518,8517,8518,8517,8518,8517,8518,8517,8518,8517,8518,8517,8518,8517,8518,8517,8518,8517,8518,8517,8518,8517,8518,8517,8518,8517,8518,8517,8518,8517,8518,8517,8518,8517,8518,8517,8518,8517,8518,8517,8518,8517,8518,8517,8518,8517,8518,
8645,8646,8645,8646,8645,8646,8645,8646,8645,8646,8645,8646,8645,8646,8645,8646,8645,8646,8645,8646,8645,8646,8645,8646,8645,8646,8645,8646,8645,8646,8645,8646,8645,8646,8645,8646,8645,8646,8645,8646,8645,8646,8645,8646,8645,8646,8645,8646,8645,8646,8645,8646,8645,8646,8645,8646,8645,8646,8645,8646,8645,8646,8645,8646,8645,8646,8645,8646,8645,8646,8645,8646,8645,8646,8645,8646,8645,8646,8645,8646,8645,8646,8645,8646,8645,8646,8645,8646,8645,8646,8645,8646,8645,8646,8645,8646,8645,8646,8645,8646,8645,8646,8645,8646,8645,8646,8645,8646,8645,8646,8645,8646,8645,8646,8645,8646,8645,8646,8645,8646,8645,8646,8645,8646,8645,8646,8645,8646,8645,8646,8645,8646,8645,8646,8645,8646,8645,8646,8645,8646,8645,8646,8645,8646,8645,8646,8645,8646,8645,8646,8645,8646,8645,8646,8645,8646,8645,8646,8645,8646,8645,8646,8645,8646,8645,8646,8645,8646,8645,8646,8645,8646,8645,8646,8645,8646,8645,8646,8645,8646,8645,8646,8645,8646,8645,8646,8645,8646,8645,8646,8645,8646,8645,8646,8645,8646,8645,8646,8645,8646,8645,8646,8645,8646,8645,8646,8645,8646,8645,8646,8645,8646,8645,8646,8645,8646,8645,8646,8645,8646,8645,8646,8645,8646,8645,8646,8645,8646,8645,8646,8645,8646,8645,8646,8645,8646,8645,8646,8645,8646,8645,8646,8645,8646,8645,8646,8645,8646,8645,8646,8645,8646,8645,8646,8645,8646,
8517,8518,8517,8518,8517,8518,8517,8518,8517,8518,8517,8518,8517,8518,8517,8518,8517,8518,8517,8518,8517,8518,8517,8518,8517,8518,8517,8518,8517,8518,8517,8518,8517,8518,8517,8518,8517,8518,8517,8518,8517,8518,8517,8518,8517,8518,8517,8518,8517,8518,8769,8770,8517,8518,8517,8518,8517,8518,8517,8518,8769,8770,8517,8518,8517,8518,8517,8518,8517,8518,8517,8518,8517,8518,8517,8518,8517,8518,8517,8518,8517,8518,8517,8518,8517,8518,8517,8518,8517,8518,8517,8518,8517,8518,8517,8518,8517,8518,8517,8518,8517,8518,8517,8518,8517,8518,8517,8518,8517,8518,8517,8518,8517,8518,8517,8518,8517,8518,8517,8518,8517,8518,8517,8518,8517,8518,8517,8518,8517,8518,8517,8518,8517,8518,8517,8518,8517,8518,8517,8518,8517,8518,8517,8518,8517,8518,8517,8518,8517,8518,8517,8518,8517,8518,8517,8518,8517,8518,8517,8518,8517,8518,8517,8518,8517,8518,8517,8518,8517,8518,8517,8518,8517,8518,8517,8518,8517,8518,8517,8518,8517,8518,8517,8518,8517,8518,8517,8518,8517,8518,8517,8518,8517,8518,8517,8518,8517,8518,8517,8518,8517,8518,8517,8518,8517,8518,8517,8518,8517,8518,8517,8518,8517,8518,8517,8518,8517,8518,8517,8518,8517,8518,8517,8518,8517,8518,8517,8518,8517,8518,8517,8518,8517,8518,8517,8518,8517,8518,8517,8518,8517,8518,8517,8518,8517,8518,8517,8518,8517,8518,8517,8518,8517,8518,8517,8518,
8645,8646,8645,8646,8645,8646,8645,8646,8645,8646,8645,8646,8645,8646,8645,8646,8645,8646,8645,8646,8645,8646,8645,8646,8645,8646,8645,8646,8645,8646,8645,8646,8645,8646,8645,8646,8645,8646,8645,8646,8645,8646,8645,8646,8645,8646,8645,8646,8645,8646,8897,8898,8645,8646,8645,8646,8645,8646,8645,8646,8897,8898,8645,8646,8645,8646,8645,8646,8645,8646,8645,8646,8645,8646,8645,8646,8645,8646,8645,8646,8645,8646,8645,8646,8645,8646,8645,8646,8645,8646,8645,8646,8645,8646,8645,8646,8645,8646,8645,8646,8645,8646,8645,8646,8645,8646,8645,8646,8645,8646,8645,8646,8645,8646,8645,8646,8645,8646,8645,8646,8645,8646,8645,8646,8645,8646,8645,8646,8645,8646,8645,8646,8645,8646,8645,8646,8645,8646,8645,8646,8645,8646,8645,8646,8645,8646,8645,8646,8645,8646,8645,8646,8645,8646,8645,8646,8645,8646,8645,8646,8645,8646,8645,8646,8645,8646,8645,8646,8645,8646,8645,8646,8645,8646,8645,8646,8645,8646,8645,8646,8645,8646,8645,8646,8645,8646,8645,8646,8645,8646,8645,8646,8645,8646,8645,8646,8645,8646,8645,8646,8645,8646,8645,8646,8645,8646,8645,8646,8645,8646,8645,8646,8645,8646,8645,8646,8645,8646,8645,8646,8645,8646,8645,8646,8645,8646,8645,8646,8645,8646,8645,8646,8645,8646,8645,8646,8645,8646,8645,8646,8645,8646,8645,8646,8645,8646,8645,8646,8645,8646,8645,8646,8645,8646,8645,8646,
8517,8518,8517,8518,8517,8518,8517,8518,8517,8518,8517,8518,8517,8518,8517,8518,8517,8518,8517,8518,8517,8518,8517,8518,8517,8518,8517,8518,8517,8518,8517,8518,8517,8518,8517,8518,8517,8518,8517,8518,8517,8518,8517,8518,8517,8518,8517,8518,8517,8518,8517,8518,8517,8518,8517,8518,8517,8518,8517,8518,8517,8518,8517,8518,8517,8518,8517,8518,8517,8518,8517,8518,8517,8518,8517,8518,8517,8518,8517,8518,8517,8518,8517,8518,8517,8518,8517,8518,8517,8518,8517,8518,8517,8518,8517,8518,8517,8518,8517,8518,8517,8518,8517,8518,8517,8518,8517,8518,8517,8518,8517,8518,8517,8518,8517,8518,8517,8518,8517,8518,8517,8518,8517,8518,8517,8518,8517,8518,8517,8518,8517,8518,8517,8518,8517,8518,8517,8518,8517,8518,8517,8518,8517,8518,8517,8518,8517,8518,8517,8518,8517,8518,8517,8518,8517,8518,8517,8518,8517,8518,8517,8518,8517,8518,8517,8518,8517,8518,8517,8518,8517,8518,8517,8518,8517,8518,8517,8518,8517,8518,8517,8518,8517,8518,8517,8518,8517,8518,8517,8518,8517,8518,8517,8518,8517,8518,8517,8518,8517,8518,8517,8518,8517,8518,8517,8518,8517,8518,8517,8518,8517,8518,8517,8518,8517,8518,8517,8518,8517,8518,8517,8518,8517,8518,8517,8518,8517,8518,8517,8518,8517,8518,8517,8518,8517,8518,8517,8518,8517,8518,8517,8518,8517,8518,8517,8518,8517,8518,8517,8518,8517,8518,8517,8518,8517,8518,
8645,8646,8645,8646,8645,8646,8645,8646,8645,8646,8645,8646,8645,8646,8645,8646,8645,8646,8645,8646,8645,8646,8645,8646,8645,8646,8645,8646,8645,8646,8645,8646,8645,8646,8645,8646,8645,8646,8645,8646,8645,8646,8645,8646,8645,8646,8645,8646,8645,8646,8645,8646,8645,8646,8645,8646,8645,8646,8645,8646,8645,8646,8645,8646,8645,8646,8645,8646,8645,8646,8645,8646,8645,8646,8645,8646,8645,8646,8645,8646,8645,8646,8645,8646,8645,8646,8645,8646,8645,8646,8645,8646,8645,8646,8645,8646,8645,8646,8645,8646,8645,8646,8645,8646,8645,8646,8645,8646,8645,8646,8645,8646,8645,8646,8645,8646,8645,8646,8645,8646,8645,8646,8645,8646,8645,8646,8645,8646,8645,8646,8645,8646,8645,8646,8645,8646,8645,8646,8645,8646,8645,8646,8645,8646,8645,8646,8645,8646,8645,8646,8645,8646,8645,8646,8645,8646,8645,8646,8645,8646,8645,8646,8645,8646,8645,8646,8645,8646,8645,8646,8645,8646,8645,8646,8645,8646,8645,8646,8645,8646,8645,8646,8645,8646,8645,8646,8645,8646,8645,8646,8645,8646,8645,8646,8645,8646,8645,8646,8645,8646,8645,8646,8645,8646,8645,8646,8645,8646,8645,8646,8645,8646,8645,8646,8645,8646,8645,8646,8645,8646,8645,8646,8645,8646,8645,8646,8645,8646,8645,8646,8645,8646,8645,8646,8645,8646,8645,8646,8645,8646,8645,8646,8645,8646,8645,8646,8645,8646,8645,8646,8645,8646,8645,8646,8645,8646,
8517,8518,8517,8518,8517,8518,8517,8518,8517,8518,8517,8518,8517,8518,8517,8518,8517,8518,8517,8518,8517,8518,8517,8518,8517,8518,8517,8518,8517,8518,8517,8518,8517,8518,8517,8518,8517,8518,8517,8518,8769,8770,8517,8518,8517,8518,8517,8518,8517,8518,8517,8518,8517,8518,8517,8518,8517,8518,8517,8518,8517,8518,8517,8518,8517,8518,8517,8518,8517,8518,8517,8518,8517,8518,8517,8518,8517,8518,8517,8518,8517,8518,8517,8518,8517,8518,8517,8518,8517,8518,8517,8518,8517,8518,8517,8518,8517,8518,8517,8518,8517,8518,8517,8518,8517,8518,8517,8518,8517,8518,8517,8518,8517,8518,8517,8518,8517,8518,8517,8518,8517,8518,8517,8518,8517,8518,8517,8518,8517,8518,8517,8518,8517,8518,8517,8518,8517,8518,8517,8518,8517,8518,8517,8518,8517,8518,8517,8518,8517,8518,8517,8518,8517,8518,8517,8518,8517,8518,8517,8518,8517,8518,8517,8518,8517,8518,8517,8518,8517,8518,8517,8518,8517,8518,8517,8518,8517,8518,8517,8518,8517,8518,8517,8518,8517,8518,8517,8518,8517,8518,8517,8518,8517,8518,8517,8518,8517,8518,8517,8518,8517,8518,8517,8518,8517,8518,8517,8518,8517,8518,8517,8518,8517,8518,8517,8518,8517,8518,8517,8518,8517,8518,8517,8518,8517,8518,8517,8518,8517,8518,8517,8518,8517,8518,8517,8518,8517,8518,8517,8518,8517,8518,8517,8518,8517,8518,8517,8518,8517,8518,8517,8518,8517,8518,8517,8518,
8645,8646,8645,8646,8645,8646,8645,8646,8645,8646,8645,8646,8645,8646,8645,8646,8645,8646,8645,8646,8645,8646,8645,8646,8645,8646,8645,8646,8645,8646,8645,8646,8645,8646,8645,8646,8645,8646,8645,8646,8897,8898,8645,8646,8645,8646,8645,8646,8645,8646,8645,8646,8645,8646,8645,8646,8645,8646,8645,8646,8645,8646,8645,8646,8645,8646,8645,8646,8645,8646,8645,8646,8645,8646,8645,8646,8645,8646,8645,8646,8645,8646,8645,8646,8645,8646,8645,8646,8645,8646,8645,8646,8645,8646,8645,8646,8645,8646,8645,8646,8645,8646,8645,8646,8645,8646,8645,8646,8645,8646,8645,8646,8645,8646,8645,8646,8645,8646,8645,8646,8645,8646,8645,8646,8645,8646,8645,8646,8645,8646,8645,8646,8645,8646,8645,8646,8645,8646,8645,8646,8645,8646,8645,8646,8645,8646,8645,8646,8645,8646,8645,8646,8645,8646,8645,8646,8645,8646,8645,8646,8645,8646,8645,8646,8645,8646,8645,8646,8645,8646,8645,8646,8645,8646,8645,8646,8645,8646,8645,8646,8645,8646,8645,8646,8645,8646,8645,8646,8645,8646,8645,8646,8645,8646,8645,8646,8645,8646,8645,8646,8645,8646,8645,8646,8645,8646,8645,8646,8645,8646,8645,8646,8645,8646,8645,8646,8645,8646,8645,8646,8645,8646,8645,8646,8645,8646,8645,8646,8645,8646,8645,8646,8645,8646,8645,8646,8645,8646,8645,8646,8645,8646,8645,8646,8645,8646,8645,8646,8645,8646,8645,8646,8645,8646,8645,8646,
8517,8518,8517,8518,8517,8518,8517,8518,8517,8518,8517,8518,8517,8518,8517,8518,8517,8518,8517,8518,8517,8518,8517,8518,8517,8518,8517,8518,8517,8518,8517,8518,8517,8518,8517,8518,8517,8518,8517,8518,8517,8518,8517,8518,8517,8518,8517,8518,8517,8518,8517,8518,8517,8518,8517,8518,8517,8518,8517,8518,8517,8518,8517,8518,8517,8518,8517,8518,8517,8518,8517,8518,8517,8518,8517,8518,8517,8518,8517,8518,8517,8518,8517,8518,8517,8518,8517,8518,8517,8518,8517,8518,8517,8518,8517,8518,8517,8518,8517,8518,8517,8518,8517,8518,8517,8518,8517,8518,8517,8518,8517,8518,8517,8518,8517,8518,8517,8518,8517,8518,8517,8518,8517,8518,8517,8518,8517,8518,8517,8518,8517,8518,8517,8518,8517,8518,8517,8518,8517,8518,8517,8518,8517,8518,8517,8518,8517,8518,8517,8518,8517,8518,8517,8518,8517,8518,8517,8518,8517,8518,8517,8518,8517,8518,8517,8518,8517,8518,8517,8518,8517,8518,8517,8518,8517,8518,8517,8518,8517,8518,8517,8518,8517,8518,8517,8518,8517,8518,8517,8518,8517,8518,8517,8518,8517,8518,8517,8518,8517,8518,8517,8518,8517,8518,8517,8518,8517,8518,8517,8518,8517,8518,8517,8518,8517,8518,8517,8518,8517,8518,8517,8518,8517,8518,8517,8518,8517,8518,8517,8518,8517,8518,8517,8518,8517,8518,8517,8518,8517,8518,8517,8518,8517,8518,8517,8518,8517,8518,8517,8518,8517,8518,8517,8518,8517,8518,
8645,8646,8645,8646,8645,8646,8645,8646,8645,8646,8645,8646,8645,8646,8645,8646,8645,8646,8645,8646,8645,8646,8645,8646,8645,8646,8645,8646,8645,8646,8645,8646,8645,8646,8645,8646,8645,8646,8645,8646,8645,8646,8645,8646,8645,8646,8645,8646,8645,8646,8645,8646,8645,8646,8645,8646,8645,8646,8645,8646,8645,8646,8645,8646,8645,8646,8645,8646,8645,8646,8645,8646,8645,8646,8645,8646,8645,8646,8645,8646,8645,8646,8645,8646,8645,8646,8645,8646,8645,8646,8645,8646,8645,8646,8645,8646,8645,8646,8645,8646,8645,8646,8645,8646,8645,8646,8645,8646,8645,8646,8645,8646,8645,8646,8645,8646,8645,8646,8645,8646,8645,8646,8645,8646,8645,8646,8645,8646,8645,8646,8645,8646,8645,8646,8645,8646,8645,8646,8645,8646,8645,8646,8645,8646,8645,8646,8645,8646,8645,8646,8645,8646,8645,8646,8645,8646,8645,8646,8645,8646,8645,8646,8645,8646,8645,8646,8645,8646,8645,8646,8645,8646,8645,8646,8645,8646,8645,8646,8645,8646,8645,8646,8645,8646,8645,8646,8645,8646,8645,8646,8645,8646,8645,8646,8645,8646,8645,8646,8645,8646,8645,8646,8645,8646,8645,8646,8645,8646,8645,8646,8645,8646,8645,8646,8645,8646,8645,8646,8645,8646,8645,8646,8645,8646,8645,8646,8645,8646,8645,8646,8645,8646,8645,8646,8645,8646,8645,8646,8645,8646,8645,8646,8645,8646,8645,8646,8645,8646,8645,8646,8645,8646,8645,8646,8645,8646,
8517,8518,8517,8518,8517,8518,8517,8518,8517,8518,8517,8518,8517,8518,8517,8518,8517,8518,8517,8518,8517,8518,8517,8518,8517,8518,8517,8518,8517,8518,8517,8518,8517,8518,8517,8518,8517,8518,8517,8518,8517,8518,8517,8518,8517,8518,8517,8518,8517,8518,8517,8518,8517,8518,8517,8518,8517,8518,8517,8518,8517,8518,8517,8518,8517,8518,8517,8518,8517,8518,8517,8518,8517,8518,8517,8518,8517,8518,8517,8518,8517,8518,8517,8518,8517,8518,8517,8518,8517,8518,8517,8518,8517,8518,8517,8518,8517,8518,8517,8518,8517,8518,8517,8518,8517,8518,8517,8518,8517,8518,8517,8518,8517,8518,8517,8518,8517,8518,8517,8518,8517,8518,8517,8518,8517,8518,8517,8518,8517,8518,8517,8518,8517,8518,8517,8518,8517,8518,8517,8518,8517,8518,8517,8518,8517,8518,8517,8518,8517,8518,8517,8518,8517,8518,8517,8518,8517,8518,8517,8518,8517,8518,8517,8518,8517,8518,8517,8518,8517,8518,8517,8518,8517,8518,8517,8518,8517,8518,8517,8518,8517,8518,8517,8518,8517,8518,8517,8518,8517,8518,8517,8518,8517,8518,8517,8518,8517,8518,8517,8518,8517,8518,8517,8518,8517,8518,8517,8518,8517,8518,8517,8518,8517,8518,8517,8518,8517,8518,8517,8518,8517,8518,8517,8518,8517,8518,8517,8518,8517,8518,8517,8518,8517,8518,8517,8518,8517,8518,8517,8518,8517,8518,8517,8518,8517,8518,8517,8518,8517,8518,8517,8518,8517,8518,8517,8518,
8645,8646,8645,8646,8645,8646,8645,8646,8645,8646,8645,8646,8645,8646,8645,8646,8645,8646,8645,8646,8645,8646,8645,8646,8645,8646,8645,8646,8645,8646,8645,8646,8645,8646,8645,8646,8645,8646,8645,8646,8645,8646,8645,8646,8645,8646,8645,8646,8645,8646,8645,8646,8645,8646,8645,8646,8645,8646,8645,8646,8645,8646,8645,8646,8645,8646,8645,8646,8645,8646,8645,8646,8645,8646,8645,8646,8645,8646,8645,8646,8645,8646,8645,8646,8645,8646,8645,8646,8645,8646,8645,8646,8645,8646,8645,8646,8645,8646,8645,8646,8645,8646,8645,8646,8645,8646,8645,8646,8645,8646,8645,8646,8645,8646,8645,8646,8645,8646,8645,8646,8645,8646,8645,8646,8645,8646,8645,8646,8645,8646,8645,8646,8645,8646,8645,8646,8645,8646,8645,8646,8645,8646,8645,8646,8645,8646,8645,8646,8645,8646,8645,8646,8645,8646,8645,8646,8645,8646,8645,8646,8645,8646,8645,8646,8645,8646,8645,8646,8645,8646,8645,8646,8645,8646,8645,8646,8645,8646,8645,8646,8645,8646,8645,8646,8645,8646,8645,8646,8645,8646,8645,8646,8645,8646,8645,8646,8645,8646,8645,8646,8645,8646,8645,8646,8645,8646,8645,8646,8645,8646,8645,8646,8645,8646,8645,8646,8645,8646,8645,8646,8645,8646,8645,8646,8645,8646,8645,8646,8645,8646,8645,8646,8645,8646,8645,8646,8645,8646,8645,8646,8645,8646,8645,8646,8645,8646,8645,8646,8645,8646,8645,8646,8645,8646,8645,8646,
8517,8518,8517,8518,8517,8518,8517,8518,8517,8518,8517,8518,8517,8518,8517,8518,8517,8518,8517,8518,8517,8518,8517,8518,8517,8518,8517,8518,8517,8518,8517,8518,8517,8518,8517,8518,8517,8518,8517,8518,8517,8518,8517,8518,8517,8518,8517,8518,8517,8518,8517,8518,8517,8518,8517,8518,8517,8518,8517,8518,8517,8518,8517,8518,8517,8518,8517,8518,8517,8518,8517,8518,8517,8518,8517,8518,8517,8518,8517,8518,8517,8518,8517,8518,8517,8518,8517,8518,8517,8518,8517,8518,8517,8518,8517,8518,8517,8518,8517,8518,8517,8518,8517,8518,8517,8518,8517,8518,8517,8518,8517,8518,8517,8518,8517,8518,8517,8518,8517,8518,8517,8518,8517,8518,8517,8518,8517,8518,8517,8518,8517,8518,8517,8518,8517,8518,8517,8518,8517,8518,8517,8518,8517,8518,8517,8518,8517,8518,8517,8518,8517,8518,8517,8518,8517,8518,8517,8518,8517,8518,8517,8518,8517,8518,8517,8518,8517,8518,8517,8518,8517,8518,8517,8518,8517,8518,8517,8518,8517,8518,8517,8518,8517,8518,8517,8518,8517,8518,8517,8518,8517,8518,8517,8518,8517,8518,8517,8518,8517,8518,8517,8518,8517,8518,8517,8518,8517,8518,8517,8518,8517,8518,8517,8518,8517,8518,8517,8518,8517,8518,8517,8518,8517,8518,8517,8518,8517,8518,8517,8518,8517,8518,8517,8518,8517,8518,8517,8518,8517,8518,8517,8518,8517,8518,8517,8518,8517,8518,8517,8518,8517,8518,8517,8518,8517,8518,
8645,8646,8645,8646,8645,8646,8645,8646,8645,8646,8645,8646,8645,8646,8645,8646,8645,8646,8645,8646,8645,8646,8645,8646,8645,8646,8645,8646,8645,8646,8645,8646,8645,8646,8645,8646,8645,8646,8645,8646,8645,8646,8645,8646,8645,8646,8645,8646,8645,8646,8645,8646,8645,8646,8645,8646,8645,8646,8645,8646,8645,8646,8645,8646,8645,8646,8645,8646,8645,8646,8645,8646,8645,8646,8645,8646,8645,8646,8645,8646,8645,8646,8645,8646,8645,8646,8645,8646,8645,8646,8645,8646,8645,8646,8645,8646,8645,8646,8645,8646,8645,8646,8645,8646,8645,8646,8645,8646,8645,8646,8645,8646,8645,8646,8645,8646,8645,8646,8645,8646,8645,8646,8645,8646,8645,8646,8645,8646,8645,8646,8645,8646,8645,8646,8645,8646,8645,8646,8645,8646,8645,8646,8645,8646,8645,8646,8645,8646,8645,8646,8645,8646,8645,8646,8645,8646,8645,8646,8645,8646,8645,8646,8645,8646,8645,8646,8645,8646,8645,8646,8645,8646,8645,8646,8645,8646,8645,8646,8645,8646,8645,8646,8645,8646,8645,8646,8645,8646,8645,8646,8645,8646,8645,8646,8645,8646,8645,8646,8645,8646,8645,8646,8645,8646,8645,8646,8645,8646,8645,8646,8645,8646,8645,8646,8645,8646,8645,8646,8645,8646,8645,8646,8645,8646,8645,8646,8645,8646,8645,8646,8645,8646,8645,8646,8645,8646,8645,8646,8645,8646,8645,8646,8645,8646,8645,8646,8645,8646,8645,8646,8645,8646,8645,8646,8645,8646,
8517,8518,8517,8518,8517,8518,8517,8518,8517,8518,8517,8518,8517,8518,8517,8518,8517,8518,8517,8518,8517,8518,8517,8518,8517,8518,8517,8518,8517,8518,8517,8518,8517,8518,8517,8518,8517,8518,8517,8518,8517,8518,8517,8518,8517,8518,8517,8518,8517,8518,8517,8518,8517,8518,8517,8518,8517,8518,8517,8518,8517,8518,8517,8518,8517,8518,8517,8518,8517,8518,8517,8518,8517,8518,8517,8518,8517,8518,8517,8518,8517,8518,8517,8518,8517,8518,8517,8518,8517,8518,8517,8518,8517,8518,8517,8518,8517,8518,8517,8518,8517,8518,8517,8518,8517,8518,8517,8518,8517,8518,8517,8518,8517,8518,8517,8518,8517,8518,8517,8518,8517,8518,8517,8518,8517,8518,8517,8518,8517,8518,8517,8518,8517,8518,8517,8518,8517,8518,8517,8518,8517,8518,8517,8518,8517,8518,8517,8518,8517,8518,8517,8518,8517,8518,8517,8518,8517,8518,8517,8518,8517,8518,8517,8518,8517,8518,8517,8518,8517,8518,8517,8518,8517,8518,8517,8518,8517,8518,8517,8518,8517,8518,8517,8518,8517,8518,8517,8518,8517,8518,8517,8518,8517,8518,8517,8518,8517,8518,8517,8518,8517,8518,8517,8518,8517,8518,8517,8518,8517,8518,8517,8518,8517,8518,8517,8518,8517,8518,8517,8518,8517,8518,8517,8518,8517,8518,8517,8518,8517,8518,8517,8518,8517,8518,8517,8518,8517,8518,8517,8518,8517,8518,8517,8518,8517,8518,8517,8518,8517,8518,8517,8518,8517,8518,8517,8518,
8645,8646,8645,8646,8645,8646,8645,8646,8645,8646,8645,8646,8645,8646,8645,8646,8645,8646,8645,8646,8645,8646,8645,8646,8645,8646,8645,8646,8645,8646,8645,8646,8645,8646,8645,8646,8645,8646,8645,8646,8645,8646,8645,8646,8645,8646,8645,8646,8645,8646,8645,8646,8645,8646,8645,8646,8645,8646,8645,8646,8645,8646,8645,8646,8645,8646,8645,8646,8645,8646,8645,8646,8645,8646,8645,8646,8645,8646,8645,8646,8645,8646,8645,8646,8645,8646,8645,8646,8645,8646,8645,8646,8645,8646,8645,8646,8645,8646,8645,8646,8645,8646,8645,8646,8645,8646,8645,8646,8645,8646,8645,8646,8645,8646,8645,8646,8645,8646,8645,8646,8645,8646,8645,8646,8645,8646,8645,8646,8645,8646,8645,8646,8645,8646,8645,8646,8645,8646,8645,8646,8645,8646,8645,8646,8645,8646,8645,8646,8645,8646,8645,8646,8645,8646,8645,8646,8645,8646,8645,8646,8645,8646,8645,8646,8645,8646,8645,8646,8645,8646,8645,8646,8645,8646,8645,8646,8645,8646,8645,8646,8645,8646,8645,8646,8645,8646,8645,8646,8645,8646,8645,8646,8645,8646,8645,8646,8645,8646,8645,8646,8645,8646,8645,8646,8645,8646,8645,8646,8645,8646,8645,8646,8645,8646,8645,8646,8645,8646,8645,8646,8645,8646,8645,8646,8645,8646,8645,8646,8645,8646,8645,8646,8645,8646,8645,8646,8645,8646,8645,8646,8645,8646,8645,8646,8645,8646,8645,8646,8645,8646,8645,8646,8645,8646,8645,8646,
8517,8518,8517,8518,8517,8518,8517,8518,8517,8518,8517,8518,8517,8518,8517,8518,8517,8518,8517,8518,8517,8518,8517,8518,8517,8518,8517,8518,8517,8518,8517,8518,8517,8518,8517,8518,8517,8518,8517,8518,8517,8518,8517,8518,8517,8518,8517,8518,8517,8518,8517,8518,8517,8518,8517,8518,8517,8518,8517,8518,8517,8518,8517,8518,8517,8518,8517,8518,8517,8518,8517,8518,8517,8518,8517,8518,8517,8518,8517,8518,8517,8518,8517,8518,8517,8518,8517,8518,8517,8518,8517,8518,8517,8518,8517,8518,8517,8518,8517,8518,8517,8518,8517,8518,8517,8518,8517,8518,8517,8518,8517,8518,8517,8518,8517,8518,8517,8518,8517,8518,8517,8518,8517,8518,8517,8518,8517,8518,8517,8518,8517,8518,8517,8518,8517,8518,8517,8518,8517,8518,8517,8518,8517,8518,8517,8518,8517,8518,8517,8518,8517,8518,8517,8518,8517,8518,8517,8518,8517,8518,8517,8518,8517,8518,8517,8518,8517,8518,8517,8518,8517,8518,8517,8518,8517,8518,8517,8518,8517,8518,8517,8518,8517,8518,8517,8518,8517,8518,8517,8518,8517,8518,8517,8518,8517,8518,8517,8518,8517,8518,8517,8518,8517,8518,8517,8518,8517,8518,8517,8518,8517,8518,8517,8518,8517,8518,8517,8518,8517,8518,8517,8518,8517,8518,8517,8518,8517,8518,8517,8518,8517,8518,8517,8518,8517,8518,8517,8518,8517,8518,8517,8518,8517,8518,8517,8518,8517,8518,8517,8518,8517,8518,8517,8518,8517,8518,
8645,8646,8645,8646,8645,8646,8645,8646,8645,8646,8645,8646,8645,8646,8645,8646,8645,8646,8645,8646,8645,8646,8645,8646,8645,8646,8645,8646,8645,8646,8645,8646,8645,8646,8645,8646,8645,8646,8645,8646,8645,8646,8645,8646,8645,8646,8645,8646,8645,8646,8645,8646,8645,8646,8645,8646,8645,8646,8645,8646,8645,8646,8645,8646,8645,8646,8645,8646,8645,8646,8645,8646,8645,8646,8645,8646,8645,8646,8645,8646,8645,8646,8645,8646,8645,8646,8645,8646,8645,8646,8645,8646,8645,8646,8645,8646,8645,8646,8645,8646,8645,8646,8645,8646,8645,8646,8645,8646,8645,8646,8645,8646,8645,8646,8645,8646,8645,8646,8645,8646,8645,8646,8645,8646,8645,8646,8645,8646,8645,8646,8645,8646,8645,8646,8645,8646,8645,8646,8645,8646,8645,8646,8645,8646,8645,8646,8645,8646,8645,8646,8645,8646,8645,8646,8645,8646,8645,8646,8645,8646,8645,8646,8645,8646,8645,8646,8645,8646,8645,8646,8645,8646,8645,8646,8645,8646,8645,8646,8645,8646,8645,8646,8645,8646,8645,8646,8645,8646,8645,8646,8645,8646,8645,8646,8645,8646,8645,8646,8645,8646,8645,8646,8645,8646,8645,8646,8645,8646,8645,8646,8645,8646,8645,8646,8645,8646,8645,8646,8645,8646,8645,8646,8645,8646,8645,8646,8645,8646,8645,8646,8645,8646,8645,8646,8645,8646,8645,8646,8645,8646,8645,8646,8645,8646,8645,8646,8645,8646,8645,8646,8645,8646,8645,8646,8645,8646,
8517,8518,8517,8518,8517,8518,8517,8518,8517,8518,8517,8518,8517,8518,8517,8518,8517,8518,8517,8518,8517,8518,8517,8518,8517,8518,8517,8518,8517,8518,8517,8518,8517,8518,8517,8518,8517,8518,8517,8518,8517,8518,8517,8518,8517,8518,8517,8518,8517,8518,8517,8518,8517,8518,8517,8518,8517,8518,8517,8518,8517,8518,8517,8518,8517,8518,8517,8518,8517,8518,8517,8518,8517,8518,8517,8518,8517,8518,8517,8518,8517,8518,8517,8518,8517,8518,8517,8518,8517,8518,8517,8518,8517,8518,8517,8518,8517,8518,8517,8518,8517,8518,8517,8518,8517,8518,8517,8518,8517,8518,8517,8518,8517,8518,8517,8518,8517,8518,8517,8518,8517,8518,8517,8518,8517,8518,8517,8518,8517,8518,8517,8518,8517,8518,8517,8518,8517,8518,8517,8518,8517,8518,8517,8518,8517,8518,8517,8518,8517,8518,8517,8518,8517,8518,8517,8518,8517,8518,8517,8518,8517,8518,8517,8518,8517,8518,8517,8518,8517,8518,8517,8518,8517,8518,8517,8518,8517,8518,8517,8518,8517,8518,8517,8518,8517,8518,8517,8518,8517,8518,8517,8518,8517,8518,8517,8518,8517,8518,8517,8518,8517,8518,8517,8518,8517,8518,8517,8518,8517,8518,8517,8518,8517,8518,8517,8518,8517,8518,8517,8518,8517,8518,8517,8518,8517,8518,8517,8518,8517,8518,8517,8518,8517,8518,8517,8518,8517,8518,8517,8518,8517,8518,8517,8518,8517,8518,8517,8518,8517,8518,8517,8518,8517,8518,8517,8518,
8645,8646,8645,8646,8645,8646,8645,8646,8645,8646,8645,8646,8645,8646,8645,8646,8645,8646,8645,8646,8645,8646,8645,8646,8645,8646,8645,8646,8645,8646,8645,8646,8645,8646,8645,8646,8645,8646,8645,8646,8645,8646,8645,8646,8645,8646,8645,8646,8645,8646,8645,8646,8645,8646,8645,8646,8645,8646,8645,8646,8645,8646,8645,8646,8645,8646,8645,8646,8645,8646,8645,8646,8645,8646,8645,8646,8645,8646,8645,8646,8645,8646,8645,8646,8645,8646,8645,8646,8645,8646,8645,8646,8645,8646,8645,8646,8645,8646,8645,8646,8645,8646,8645,8646,8645,8646,8645,8646,8645,8646,8645,8646,8645,8646,8645,8646,8645,8646,8645,8646,8645,8646,8645,8646,8645,8646,8645,8646,8645,8646,8645,8646,8645,8646,8645,8646,8645,8646,8645,8646,8645,8646,8645,8646,8645,8646,8645,8646,8645,8646,8645,8646,8645,8646,8645,8646,8645,8646,8645,8646,8645,8646,8645,8646,8645,8646,8645,8646,8645,8646,8645,8646,8645,8646,8645,8646,8645,8646,8645,8646,8645,8646,8645,8646,8645,8646,8645,8646,8645,8646,8645,8646,8645,8646,8645,8646,8645,8646,8645,8646,8645,8646,8645,8646,8645,8646,8645,8646,8645,8646,8645,8646,8645,8646,8645,8646,8645,8646,8645,8646,8645,8646,8645,8646,8645,8646,8645,8646,8645,8646,8645,8646,8645,8646,8645,8646,8645,8646,8645,8646,8645,8646,8645,8646,8645,8646,8645,8646,8645,8646,8645,8646,8645,8646,8645,8646,
8517,8518,8517,8518,8517,8518,8517,8518,8517,8518,8517,8518,8517,8518,8517,8518,8517,8518,8517,8518,8517,8518,8517,8518,8517,8518,8517,8518,8517,8518,8517,8518,8517,8518,8517,8518,8517,8518,8517,8518,8517,8518,8517,8518,8517,8518,8517,8518,8517,8518,8517,8518,8517,8518,8517,8518,8517,8518,8517,8518,8517,8518,8517,8518,8517,8518,8517,8518,8517,8518,8517,8518,8517,8518,8517,8518,8517,8518,8517,8518,8517,8518,8517,8518,8517,8518,8517,8518,8517,8518,8517,8518,8517,8518,8517,8518,8517,8518,8517,8518,8517,8518,8517,8518,8517,8518,8517,8518,8517,8518,8517,8518,8517,8518,8517,8518,8517,8518,8517,8518,8517,8518,8517,8518,8517,8518,8517,8518,8517,8518,8517,8518,8517,8518,8517,8518,8517,8518,8517,8518,8517,8518,8517,8518,8517,8518,8517,8518,8517,8518,8517,8518,8517,8518,8517,8518,8517,8518,8517,8518,8517,8518,8517,8518,8517,8518,8517,8518,8517,8518,8517,8518,8517,8518,8517,8518,8517,8518,8517,8518,8517,8518,8517,8518,8517,8518,8517,8518,8517,8518,8517,8518,8517,8518,8517,8518,8517,8518,8517,8518,8517,8518,8517,8518,8517,8518,8517,8518,8517,8518,8517,8518,8517,8518,8517,8518,8517,8518,8517,8518,8517,8518,8517,8518,8517,8518,8517,8518,8517,8518,8517,8518,8517,8518,8517,8518,8517,8518,8517,8518,8517,8518,8517,8518,8517,8518,8517,8518,8517,8518,8517,8518,8517,8518,8517,8518,
8645,8646,8645,8646,8645,8646,8645,8646,8645,8646,8645,8646,8645,8646,8645,8646,8645,8646,8645,8646,8645,8646,8645,8646,8645,8646,8645,8646,8645,8646,8645,8646,8645,8646,8645,8646,8645,8646,8645,8646,8645,8646,8645,8646,8645,8646,8645,8646,8645,8646,8645,8646,8645,8646,8645,8646,8645,8646,8645,8646,8645,8646,8645,8646,8645,8646,8645,8646,8645,8646,8645,8646,8645,8646,8645,8646,8645,8646,8645,8646,8645,8646,8645,8646,8645,8646,8645,8646,8645,8646,8645,8646,8645,8646,8645,8646,8645,8646,8645,8646,8645,8646,8645,8646,8645,8646,8645,8646,8645,8646,8645,8646,8645,8646,8645,8646,8645,8646,8645,8646,8645,8646,8645,8646,8645,8646,8645,8646,8645,8646,8645,8646,8645,8646,8645,8646,8645,8646,8645,8646,8645,8646,8645,8646,8645,8646,8645,8646,8645,8646,8645,8646,8645,8646,8645,8646,8645,8646,8645,8646,8645,8646,8645,8646,8645,8646,8645,8646,8645,8646,8645,8646,8645,8646,8645,8646,8645,8646,8645,8646,8645,8646,8645,8646,8645,8646,8645,8646,8645,8646,8645,8646,8645,8646,8645,8646,8645,8646,8645,8646,8645,8646,8645,8646,8645,8646,8645,8646,8645,8646,8645,8646,8645,8646,8645,8646,8645,8646,8645,8646,8645,8646,8645,8646,8645,8646,8645,8646,8645,8646,8645,8646,8645,8646,8645,8646,8645,8646,8645,8646,8645,8646,8645,8646,8645,8646,8645,8646,8645,8646,8645,8646,8645,8646,8645,8646,
8517,8518,8517,8518,8517,8518,8517,8518,8517,8518,8517,8518,8517,8518,8517,8518,8517,8518,8517,8518,8517,8518,8517,8518,8517,8518,8517,8518,8517,8518,8517,8518,8517,8518,8517,8518,8517,8518,8517,8518,8517,8518,8517,8518,8517,8518,8517,8518,8517,8518,8517,8518,8517,8518,8517,8518,8517,8518,8517,8518,8517,8518,8517,8518,8517,8518,8517,8518,8517,8518,8517,8518,8517,8518,8517,8518,8517,8518,8517,8518,8517,8518,8517,8518,8517,8518,8517,8518,8517,8518,8517,8518,8517,8518,8517,8518,8517,8518,8517,8518,8517,8518,8517,8518,8517,8518,8517,8518,8517,8518,8517,8518,8517,8518,8517,8518,8517,8518,8517,8518,8517,8518,8517,8518,8517,8518,8517,8518,8517,8518,8517,8518,8517,8518,8517,8518,8517,8518,8517,8518,8517,8518,8517,8518,8517,8518,8517,8518,8517,8518,8517,8518,8517,8518,8517,8518,8517,8518,8517,8518,8517,8518,8517,8518,8517,8518,8517,8518,8517,8518,8517,8518,8517,8518,8517,8518,8517,8518,8517,8518,8517,8518,8517,8518,8517,8518,8517,8518,8517,8518,8517,8518,8517,8518,8517,8518,8517,8518,8517,8518,8517,8518,8517,8518,8517,8518,8517,8518,8517,8518,8517,8518,8517,8518,8517,8518,8517,8518,8517,8518,8517,8518,8517,8518,8517,8518,8517,8518,8517,8518,8517,8518,8517,8518,8517,8518,8517,8518,8517,8518,8517,8518,8517,8518,8517,8518,8517,8518,8517,8518,8517,8518,8517,8518,8517,8518,
8645,8646,8645,8646,8645,8646,8645,8646,8645,8646,8645,8646,8645,8646,8645,8646,8645,8646,8645,8646,8645,8646,8645,8646,8645,8646,8645,8646,8645,8646,8645,8646,8645,8646,8645,8646,8645,8646,8645,8646,8645,8646,8645,8646,8645,8646,8645,8646,8645,8646,8645,8646,8645,8646,8645,8646,8645,8646,8645,8646,8645,8646,8645,8646,8645,8646,8645,8646,8645,8646,8645,8646,8645,8646,8645,8646,8645,8646,8645,8646,8645,8646,8645,8646,8645,8646,8645,8646,8645,8646,8645,8646,8645,8646,8645,8646,8645,8646,8645,8646,8645,8646,8645,8646,8645,8646,8645,8646,8645,8646,8645,8646,8645,8646,8645,8646,8645,8646,8645,8646,8645,8646,8645,8646,8645,8646,8645,8646,8645,8646,8645,8646,8645,8646,8645,8646,8645,8646,8645,8646,8645,8646,8645,8646,8645,8646,8645,8646,8645,8646,8645,8646,8645,8646,8645,8646,8645,8646,8645,8646,8645,8646,8645,8646,8645,8646,8645,8646,8645,8646,8645,8646,8645,8646,8645,8646,8645,8646,8645,8646,8645,8646,8645,8646,8645,8646,8645,8646,8645,8646,8645,8646,8645,8646,8645,8646,8645,8646,8645,8646,8645,8646,8645,8646,8645,8646,8645,8646,8645,8646,8645,8646,8645,8646,8645,8646,8645,8646,8645,8646,8645,8646,8645,8646,8645,8646,8645,8646,8645,8646,8645,8646,8645,8646,8645,8646,8645,8646,8645,8646,8645,8646,8645,8646,8645,8646,8645,8646,8645,8646,8645,8646,8645,8646,8645,8646,
8517,8518,8517,8518,8517,8518,8517,8518,8517,8518,8517,8518,8517,8518,8517,8518,8517,8518,8517,8518,8517,8518,8517,8518,8517,8518,8517,8518,8517,8518,8517,8518,8517,8518,8517,8518,8517,8518,8517,8518,8517,8518,8517,8518,8517,8518,8517,8518,8517,8518,8517,8518,8517,8518,8517,8518,8517,8518,8517,8518,8517,8518,8517,8518,8517,8518,8517,8518,8517,8518,8517,8518,8517,8518,8517,8518,8517,8518,8517,8518,8517,8518,8517,8518,8517,8518,8517,8518,8517,8518,8517,8518,8517,8518,8517,8518,8517,8518,8517,8518,8517,8518,8517,8518,8517,8518,8517,8518,8517,8518,8517,8518,8517,8518,8517,8518,8517,8518,8517,8518,8517,8518,8517,8518,8517,8518,8517,8518,8517,8518,8517,8518,8517,8518,8517,8518,8517,8518,8517,8518,8517,8518,8517,8518,8517,8518,8517,8518,8517,8518,8517,8518,8517,8518,8517,8518,8517,8518,8517,8518,8517,8518,8517,8518,8517,8518,8517,8518,8517,8518,8517,8518,8517,8518,8517,8518,8517,8518,8517,8518,8517,8518,8517,8518,8517,8518,8517,8518,8517,8518,8517,8518,8517,8518,8517,8518,8517,8518,8517,8518,8517,8518,8517,8518,8517,8518,8517,8518,8517,8518,8517,8518,8517,8518,8517,8518,8517,8518,8517,8518,8517,8518,8517,8518,8517,8518,8517,8518,8517,8518,8517,8518,8517,8518,8517,8518,8517,8518,8517,8518,8517,8518,8517,8518,8517,8518,8517,8518,8517,8518,8517,8518,8517,8518,8517,8518,
8645,8646,8645,8646,8645,8646,8645,8646,8645,8646,8645,8646,8645,8646,8645,8646,8645,8646,8645,8646,8645,8646,8645,8646,8645,8646,8645,8646,8645,8646,8645,8646,8645,8646,8645,8646,8645,8646,8645,8646,8645,8646,8645,8646,8645,8646,8645,8646,8645,8646,8645,8646,8645,8646,8645,8646,8645,8646,8645,8646,8645,8646,8645,8646,8645,8646,8645,8646,8645,8646,8645,8646,8645,8646,8645,8646,8645,8646,8645,8646,8645,8646,8645,8646,8645,8646,8645,8646,8645,8646,8645,8646,8645,8646,8645,8646,8645,8646,8645,8646,8645,8646,8645,8646,8645,8646,8645,8646,8645,8646,8645,8646,8645,8646,8645,8646,8645,8646,8645,8646,8645,8646,8645,8646,8645,8646,8645,8646,8645,8646,8645,8646,8645,8646,8645,8646,8645,8646,8645,8646,8645,8646,8645,8646,8645,8646,8645,8646,8645,8646,8645,8646,8645,8646,8645,8646,8645,8646,8645,8646,8645,8646,8645,8646,8645,8646,8645,8646,8645,8646,8645,8646,8645,8646,8645,8646,8645,8646,8645,8646,8645,8646,8645,8646,8645,8646,8645,8646,8645,8646,8645,8646,8645,8646,8645,8646,8645,8646,8645,8646,8645,8646,8645,8646,8645,8646,8645,8646,8645,8646,8645,8646,8645,8646,8645,8646,8645,8646,8645,8646,8645,8646,8645,8646,8645,8646,8645,8646,8645,8646,8645,8646,8645,8646,8645,8646,8645,8646,8645,8646,8645,8646,8645,8646,8645,8646,8645,8646,8645,8646,8645,8646,8645,8646,8645,8646,
8517,8518,8517,8518,8517,8518,8517,8518,8517,8518,8517,8518,8517,8518,8517,8518,8517,8518,8517,8518,8517,8518,8517,8518,8517,8518,8517,8518,8517,8518,8517,8518,8517,8518,8517,8518,8517,8518,8517,8518,8517,8518,8517,8518,8517,8518,8517,8518,8517,8518,8517,8518,8517,8518,8517,8518,8517,8518,8517,8518,8517,8518,8517,8518,8517,8518,8517,8518,8517,8518,8517,8518,8517,8518,8517,8518,8517,8518,8517,8518,8517,8518,8517,8518,8517,8518,8517,8518,8517,8518,8517,8518,8517,8518,8517,8518,8517,8518,8517,8518,8517,8518,8517,8518,8517,8518,8517,8518,8517,8518,8517,8518,8517,8518,8517,8518,8517,8518,8517,8518,8517,8518,8517,8518,8517,8518,8517,8518,8517,8518,8517,8518,8517,8518,8517,8518,8517,8518,8517,8518,8517,8518,8517,8518,8517,8518,8517,8518,8517,8518,8517,8518,8517,8518,8517,8518,8517,8518,8517,8518,8517,8518,8517,8518,8517,8518,8517,8518,8517,8518,8517,8518,8517,8518,8517,8518,8517,8518,8517,8518,8517,8518,8517,8518,8517,8518,8517,8518,8517,8518,8517,8518,8517,8518,8517,8518,8517,8518,8517,8518,8517,8518,8517,8518,8517,8518,8517,8518,8517,8518,8517,8518,8517,8518,8517,8518,8517,8518,8517,8518,8517,8518,8517,8518,8517,8518,8517,8518,8517,8518,8517,8518,8517,8518,8517,8518,8517,8518,8517,8518,8517,8518,8517,8518,8517,8518,8517,8518,8517,8518,8517,8518,8517,8518,8517,8518,
8645,8646,8645,8646,8645,8646,8645,8646,8645,8646,8645,8646,8645,8646,8645,8646,8645,8646,8645,8646,8645,8646,8645,8646,8645,8646,8645,8646,8645,8646,8645,8646,8645,8646,8645,8646,8645,8646,8645,8646,8645,8646,8645,8646,8645,8646,8645,8646,8645,8646,8645,8646,8645,8646,8645,8646,8645,8646,8645,8646,8645,8646,8645,8646,8645,8646,8645,8646,8645,8646,8645,8646,8645,8646,8645,8646,8645,8646,8645,8646,8645,8646,8645,8646,8645,8646,8645,8646,8645,8646,8645,8646,8645,8646,8645,8646,8645,8646,8645,8646,8645,8646,8645,8646,8645,8646,8645,8646,8645,8646,8645,8646,8645,8646,8645,8646,8645,8646,8645,8646,8645,8646,8645,8646,8645,8646,8645,8646,8645,8646,8645,8646,8645,8646,8645,8646,8645,8646,8645,8646,8645,8646,8645,8646,8645,8646,8645,8646,8645,8646,8645,8646,8645,8646,8645,8646,8645,8646,8645,8646,8645,8646,8645,8646,8645,8646,8645,8646,8645,8646,8645,8646,8645,8646,8645,8646,8645,8646,8645,8646,8645,8646,8645,8646,8645,8646,8645,8646,8645,8646,8645,8646,8645,8646,8645,8646,8645,8646,8645,8646,8645,8646,8645,8646,8645,8646,8645,8646,8645,8646,8645,8646,8645,8646,8645,8646,8645,8646,8645,8646,8645,8646,8645,8646,8645,8646,8645,8646,8645,8646,8645,8646,8645,8646,8645,8646,8645,8646,8645,8646,8645,8646,8645,8646,8645,8646,8645,8646,8645,8646,8645,8646,8645,8646,8645,8646,
8517,8518,8517,8518,8517,8518,8517,8518,8517,8518,8517,8518,8517,8518,8517,8518,8517,8518,8517,8518,8517,8518,8517,8518,8517,8518,8517,8518,8517,8518,8517,8518,8517,8518,8517,8518,8517,8518,8517,8518,8517,8518,8517,8518,8517,8518,8517,8518,8517,8518,8517,8518,8517,8518,8517,8518,8517,8518,8517,8518,8517,8518,8517,8518,8517,8518,8517,8518,8517,8518,8517,8518,8517,8518,8517,8518,8517,8518,8517,8518,8517,8518,8517,8518,8517,8518,8517,8518,8517,8518,8517,8518,8517,8518,8517,8518,8517,8518,8517,8518,8517,8518,8517,8518,8517,8518,8517,8518,8517,8518,8517,8518,8517,8518,8517,8518,8517,8518,8517,8518,8517,8518,8517,8518,8517,8518,8517,8518,8517,8518,8517,8518,8517,8518,8517,8518,8517,8518,8517,8518,8517,8518,8517,8518,8517,8518,8517,8518,8517,8518,8517,8518,8517,8518,8517,8518,8517,8518,8517,8518,8517,8518,8517,8518,8517,8518,8517,8518,8517,8518,8517,8518,8517,8518,8517,8518,8517,8518,8517,8518,8517,8518,8517,8518,8517,8518,8517,8518,8517,8518,8517,8518,8517,8518,8517,8518,8517,8518,8517,8518,8517,8518,8517,8518,8517,8518,8517,8518,8517,8518,8517,8518,8517,8518,8517,8518,8517,8518,8517,8518,8517,8518,8517,8518,8517,8518,8517,8518,8517,8518,8517,8518,8517,8518,8517,8518,8517,8518,8517,8518,8517,8518,8517,8518,8517,8518,8517,8518,8517,8518,8517,8518,8517,8518,8517,8518,
8645,8646,8645,8646,8645,8646,8645,8646,8645,8646,8645,8646,8645,8646,8645,8646,8645,8646,8645,8646,8645,8646,8645,8646,8645,8646,8645,8646,8645,8646,8645,8646,8645,8646,8645,8646,8645,8646,8645,8646,8645,8646,8645,8646,8645,8646,8645,8646,8645,8646,8645,8646,8645,8646,8645,8646,8645,8646,8645,8646,8645,8646,8645,8646,8645,8646,8645,8646,8645,8646,8645,8646,8645,8646,8645,8646,8645,8646,8645,8646,8645,8646,8645,8646,8645,8646,8645,8646,8645,8646,8645,8646,8645,8646,8645,8646,8645,8646,8645,8646,8645,8646,8645,8646,8645,8646,8645,8646,8645,8646,8645,8646,8645,8646,8645,8646,8645,8646,8645,8646,8645,8646,8645,8646,8645,8646,8645,8646,8645,8646,8645,8646,8645,8646,8645,8646,8645,8646,8645,8646,8645,8646,8645,8646,8645,8646,8645,8646,8645,8646,8645,8646,8645,8646,8645,8646,8645,8646,8645,8646,8645,8646,8645,8646,8645,8646,8645,8646,8645,8646,8645,8646,8645,8646,8645,8646,8645,8646,8645,8646,8645,8646,8645,8646,8645,8646,8645,8646,8645,8646,8645,8646,8645,8646,8645,8646,8645,8646,8645,8646,8645,8646,8645,8646,8645,8646,8645,8646,8645,8646,8645,8646,8645,8646,8645,8646,8645,8646,8645,8646,8645,8646,8645,8646,8645,8646,8645,8646,8645,8646,8645,8646,8645,8646,8645,8646,8645,8646,8645,8646,8645,8646,8645,8646,8645,8646,8645,8646,8645,8646,8645,8646,8645,8646,8645,8646,
8517,8518,8517,8518,8517,8518,8517,8518,8517,8518,8517,8518,8517,8518,8517,8518,8517,8518,8517,8518,8517,8518,8517,8518,8517,8518,8517,8518,8517,8518,8517,8518,8517,8518,8517,8518,8517,8518,8517,8518,8517,8518,8517,8518,8517,8518,8517,8518,8517,8518,8517,8518,8517,8518,8517,8518,8517,8518,8517,8518,8517,8518,8517,8518,8517,8518,8517,8518,8517,8518,8517,8518,8517,8518,8517,8518,8517,8518,8517,8518,8517,8518,8517,8518,8517,8518,8517,8518,8517,8518,8517,8518,8517,8518,8517,8518,8517,8518,8517,8518,8517,8518,8517,8518,8517,8518,8517,8518,8517,8518,8517,8518,8517,8518,8517,8518,8517,8518,8517,8518,8517,8518,8517,8518,8517,8518,8517,8518,8517,8518,8517,8518,8517,8518,8517,8518,8517,8518,8517,8518,8517,8518,8517,8518,8517,8518,8517,8518,8517,8518,8517,8518,8517,8518,8517,8518,8517,8518,8517,8518,8517,8518,8517,8518,8517,8518,8517,8518,8517,8518,8517,8518,8517,8518,8517,8518,8517,8518,8517,8518,8517,8518,8517,8518,8517,8518,8517,8518,8517,8518,8517,8518,8517,8518,8517,8518,8517,8518,8517,8518,8517,8518,8517,8518,8517,8518,8517,8518,8517,8518,8517,8518,8517,8518,8517,8518,8517,8518,8517,8518,8517,8518,8517,8518,8517,8518,8517,8518,8517,8518,8517,8518,8517,8518,8517,8518,8517,8518,8517,8518,8517,8518,8517,8518,8517,8518,8517,8518,8517,8518,8517,8518,8517,8518,8517,8518,
8645,8646,8645,8646,8645,8646,8645,8646,8645,8646,8645,8646,8645,8646,8645,8646,8645,8646,8645,8646,8645,8646,8645,8646,8645,8646,8645,8646,8645,8646,8645,8646,8645,8646,8645,8646,8645,8646,8645,8646,8645,8646,8645,8646,8645,8646,8645,8646,8645,8646,8645,8646,8645,8646,8645,8646,8645,8646,8645,8646,8645,8646,8645,8646,8645,8646,8645,8646,8645,8646,8645,8646,8645,8646,8645,8646,8645,8646,8645,8646,8645,8646,8645,8646,8645,8646,8645,8646,8645,8646,8645,8646,8645,8646,8645,8646,8645,8646,8645,8646,8645,8646,8645,8646,8645,8646,8645,8646,8645,8646,8645,8646,8645,8646,8645,8646,8645,8646,8645,8646,8645,8646,8645,8646,8645,8646,8645,8646,8645,8646,8645,8646,8645,8646,8645,8646,8645,8646,8645,8646,8645,8646,8645,8646,8645,8646,8645,8646,8645,8646,8645,8646,8645,8646,8645,8646,8645,8646,8645,8646,8645,8646,8645,8646,8645,8646,8645,8646,8645,8646,8645,8646,8645,8646,8645,8646,8645,8646,8645,8646,8645,8646,8645,8646,8645,8646,8645,8646,8645,8646,8645,8646,8645,8646,8645,8646,8645,8646,8645,8646,8645,8646,8645,8646,8645,8646,8645,8646,8645,8646,8645,8646,8645,8646,8645,8646,8645,8646,8645,8646,8645,8646,8645,8646,8645,8646,8645,8646,8645,8646,8645,8646,8645,8646,8645,8646,8645,8646,8645,8646,8645,8646,8645,8646,8645,8646,8645,8646,8645,8646,8645,8646,8645,8646,8645,8646,
8517,8518,8517,8518,8517,8518,8517,8518,8517,8518,8517,8518,8517,8518,8517,8518,8517,8518,8517,8518,8517,8518,8517,8518,8517,8518,8517,8518,8517,8518,8517,8518,8517,8518,8517,8518,8517,8518,8517,8518,8517,8518,8517,8518,8517,8518,8517,8518,8517,8518,8517,8518,8517,8518,8517,8518,8517,8518,8517,8518,8517,8518,8517,8518,8517,8518,8517,8518,8517,8518,8517,8518,8517,8518,8517,8518,8517,8518,8517,8518,8517,8518,8517,8518,8517,8518,8517,8518,8517,8518,8517,8518,8517,8518,8517,8518,8517,8518,8517,8518,8517,8518,8517,8518,8517,8518,8517,8518,8517,8518,8517,8518,8517,8518,8517,8518,8517,8518,8517,8518,8517,8518,8517,8518,8517,8518,8517,8518,8517,8518,8517,8518,8517,8518,8517,8518,8517,8518,8517,8518,8517,8518,8517,8518,8517,8518,8517,8518,8517,8518,8517,8518,8517,8518,8517,8518,8517,8518,8517,8518,8517,8518,8517,8518,8517,8518,8517,8518,8517,8518,8517,8518,8517,8518,8517,8518,8517,8518,8517,8518,8517,8518,8517,8518,8517,8518,8517,8518,8517,8518,8517,8518,8517,8518,8517,8518,8517,8518,8517,8518,8517,8518,8517,8518,8517,8518,8517,8518,8517,8518,8517,8518,8517,8518,8517,8518,8517,8518,8517,8518,8517,8518,8517,8518,8517,8518,8517,8518,8517,8518,8517,8518,8517,8518,8517,8518,8517,8518,8517,8518,8517,8518,8517,8518,8517,8518,8517,8518,8517,8518,8517,8518,8517,8518,8517,8518,
8645,8646,8645,8646,8645,8646,8645,8646,8645,8646,8645,8646,8645,8646,8645,8646,8645,8646,8645,8646,8645,8646,8645,8646,8645,8646,8645,8646,8645,8646,8645,8646,8645,8646,8645,8646,8645,8646,8645,8646,8645,8646,8645,8646,8645,8646,8645,8646,8645,8646,8645,8646,8645,8646,8645,8646,8645,8646,8645,8646,8645,8646,8645,8646,8645,8646,8645,8646,8645,8646,8645,8646,8645,8646,8645,8646,8645,8646,8645,8646,8645,8646,8645,8646,8645,8646,8645,8646,8645,8646,8645,8646,8645,8646,8645,8646,8645,8646,8645,8646,8645,8646,8645,8646,8645,8646,8645,8646,8645,8646,8645,8646,8645,8646,8645,8646,8645,8646,8645,8646,8645,8646,8645,8646,8645,8646,8645,8646,8645,8646,8645,8646,8645,8646,8645,8646,8645,8646,8645,8646,8645,8646,8645,8646,8645,8646,8645,8646,8645,8646,8645,8646,8645,8646,8645,8646,8645,8646,8645,8646,8645,8646,8645,8646,8645,8646,8645,8646,8645,8646,8645,8646,8645,8646,8645,8646,8645,8646,8645,8646,8645,8646,8645,8646,8645,8646,8645,8646,8645,8646,8645,8646,8645,8646,8645,8646,8645,8646,8645,8646,8645,8646,8645,8646,8645,8646,8645,8646,8645,8646,8645,8646,8645,8646,8645,8646,8645,8646,8645,8646,8645,8646,8645,8646,8645,8646,8645,8646,8645,8646,8645,8646,8645,8646,8645,8646,8645,8646,8645,8646,8645,8646,8645,8646,8645,8646,8645,8646,8645,8646,8645,8646,8645,8646,8645,8646,
8517,8518,8517,8518,8517,8518,8517,8518,8517,8518,8517,8518,8517,8518,8517,8518,8517,8518,8517,8518,8517,8518,8517,8518,8517,8518,8517,8518,8517,8518,8517,8518,8517,8518,8517,8518,8517,8518,8517,8518,8517,8518,8517,8518,8517,8518,8517,8518,8517,8518,8517,8518,8517,8518,8517,8518,8517,8518,8517,8518,8517,8518,8517,8518,8517,8518,8517,8518,8517,8518,8517,8518,8517,8518,8517,8518,8517,8518,8517,8518,8517,8518,8517,8518,8517,8518,8517,8518,8517,8518,8517,8518,8517,8518,8517,8518,8517,8518,8517,8518,8517,8518,8517,8518,8517,8518,8517,8518,8517,8518,8517,8518,8517,8518,8517,8518,8517,8518,8517,8518,8517,8518,8517,8518,8517,8518,8517,8518,8517,8518,8517,8518,8517,8518,8517,8518,8517,8518,8517,8518,8517,8518,8517,8518,8517,8518,8517,8518,8517,8518,8517,8518,8517,8518,8517,8518,8517,8518,8517,8518,8517,8518,8517,8518,8517,8518,8517,8518,8517,8518,8517,8518,8517,8518,8517,8518,8517,8518,8517,8518,8517,8518,8517,8518,8517,8518,8517,8518,8517,8518,8517,8518,8517,8518,8517,8518,8517,8518,8517,8518,8517,8518,8517,8518,8517,8518,8517,8518,8517,8518,8517,8518,8517,8518,8517,8518,8517,8518,8517,8518,8517,8518,8517,8518,8517,8518,8517,8518,8517,8518,8517,8518,8517,8518,8517,8518,8517,8518,8517,8518,8517,8518,8517,8518,8517,8518,8517,8518,8517,8518,8517,8518,8517,8518,8517,8518,
8645,8646,8645,8646,8645,8646,8645,8646,8645,8646,8645,8646,8645,8646,8645,8646,8645,8646,8645,8646,8645,8646,8645,8646,8645,8646,8645,8646,8645,8646,8645,8646,8645,8646,8645,8646,8645,8646,8645,8646,8645,8646,8645,8646,8645,8646,8645,8646,8645,8646,8645,8646,8645,8646,8645,8646,8645,8646,8645,8646,8645,8646,8645,8646,8645,8646,8645,8646,8645,8646,8645,8646,8645,8646,8645,8646,8645,8646,8645,8646,8645,8646,8645,8646,8645,8646,8645,8646,8645,8646,8645,8646,8645,8646,8645,8646,8645,8646,8645,8646,8645,8646,8645,8646,8645,8646,8645,8646,8645,8646,8645,8646,8645,8646,8645,8646,8645,8646,8645,8646,8645,8646,8645,8646,8645,8646,8645,8646,8645,8646,8645,8646,8645,8646,8645,8646,8645,8646,8645,8646,8645,8646,8645,8646,8645,8646,8645,8646,8645,8646,8645,8646,8645,8646,8645,8646,8645,8646,8645,8646,8645,8646,8645,8646,8645,8646,8645,8646,8645,8646,8645,8646,8645,8646,8645,8646,8645,8646,8645,8646,8645,8646,8645,8646,8645,8646,8645,8646,8645,8646,8645,8646,8645,8646,8645,8646,8645,8646,8645,8646,8645,8646,8645,8646,8645,8646,8645,8646,8645,8646,8645,8646,8645,8646,8645,8646,8645,8646,8645,8646,8645,8646,8645,8646,8645,8646,8645,8646,8645,8646,8645,8646,8645,8646,8645,8646,8645,8646,8645,8646,8645,8646,8645,8646,8645,8646,8645,8646,8645,8646,8645,8646,8645,8646,8645,8646,
8517,8518,8517,8518,8517,8518,8517,8518,8517,8518,8517,8518,8517,8518,8517,8518,8517,8518,8517,8518,8517,8518,8517,8518,8517,8518,8517,8518,8517,8518,8517,8518,8517,8518,8517,8518,8517,8518,8517,8518,8517,8518,8517,8518,8517,8518,8517,8518,8517,8518,8517,8518,8517,8518,8517,8518,8517,8518,8517,8518,8517,8518,8517,8518,8517,8518,8517,8518,8517,8518,8517,8518,8517,8518,8517,8518,8517,8518,8517,8518,8517,8518,8517,8518,8517,8518,8517,8518,8517,8518,8517,8518,8517,8518,8517,8518,8517,8518,8517,8518,8517,8518,8517,8518,8517,8518,8517,8518,8517,8518,8517,8518,8517,8518,8517,8518,8517,8518,8517,8518,8517,8518,8517,8518,8517,8518,8517,8518,8517,8518,8517,8518,8517,8518,8517,8518,8517,8518,8517,8518,8517,8518,8517,8518,8517,8518,8517,8518,8517,8518,8517,8518,8517,8518,8517,8518,8517,8518,8517,8518,8517,8518,8517,8518,8517,8518,8517,8518,8517,8518,8517,8518,8517,8518,8517,8518,8517,8518,8517,8518,8517,8518,8517,8518,8517,8518,8517,8518,8517,8518,8517,8518,8517,8518,8517,8518,8517,8518,8517,8518,8517,8518,8517,8518,8517,8518,8517,8518,8517,8518,8517,8518,8517,8518,8517,8518,8517,8518,8517,8518,8517,8518,8517,8518,8517,8518,8517,8518,8517,8518,8517,8518,8517,8518,8517,8518,8517,8518,8517,8518,8517,8518,8517,8518,8517,8518,8517,8518,8517,8518,8517,8518,8517,8518,8517,8518,
8645,8646,8645,8646,8645,8646,8645,8646,8645,8646,8645,8646,8645,8646,8645,8646,8645,8646,8645,8646,8645,8646,8645,8646,8645,8646,8645,8646,8645,8646,8645,8646,8645,8646,8645,8646,8645,8646,8645,8646,8645,8646,8645,8646,8645,8646,8645,8646,8645,8646,8645,8646,8645,8646,8645,8646,8645,8646,8645,8646,8645,8646,8645,8646,8645,8646,8645,8646,8645,8646,8645,8646,8645,8646,8645,8646,8645,8646,8645,8646,8645,8646,8645,8646,8645,8646,8645,8646,8645,8646,8645,8646,8645,8646,8645,8646,8645,8646,8645,8646,8645,8646,8645,8646,8645,8646,8645,8646,8645,8646,8645,8646,8645,8646,8645,8646,8645,8646,8645,8646,8645,8646,8645,8646,8645,8646,8645,8646,8645,8646,8645,8646,8645,8646,8645,8646,8645,8646,8645,8646,8645,8646,8645,8646,8645,8646,8645,8646,8645,8646,8645,8646,8645,8646,8645,8646,8645,8646,8645,8646,8645,8646,8645,8646,8645,8646,8645,8646,8645,8646,8645,8646,8645,8646,8645,8646,8645,8646,8645,8646,8645,8646,8645,8646,8645,8646,8645,8646,8645,8646,8645,8646,8645,8646,8645,8646,8645,8646,8645,8646,8645,8646,8645,8646,8645,8646,8645,8646,8645,8646,8645,8646,8645,8646,8645,8646,8645,8646,8645,8646,8645,8646,8645,8646,8645,8646,8645,8646,8645,8646,8645,8646,8645,8646,8645,8646,8645,8646,8645,8646,8645,8646,8645,8646,8645,8646,8645,8646,8645,8646,8645,8646,8645,8646,8645,8646,
8517,8518,8517,8518,8517,8518,8517,8518,8517,8518,8517,8518,8517,8518,8517,8518,8517,8518,8517,8518,8517,8518,8517,8518,8517,8518,8517,8518,8517,8518,8517,8518,8517,8518,8517,8518,8517,8518,8517,8518,8517,8518,8517,8518,8517,8518,8517,8518,8517,8518,8517,8518,8517,8518,8517,8518,8517,8518,8517,8518,8517,8518,8517,8518,8517,8518,8517,8518,8517,8518,8517,8518,8517,8518,8517,8518,8517,8518,8517,8518,8517,8518,8517,8518,8517,8518,8517,8518,8517,8518,8517,8518,8517,8518,8517,8518,8517,8518,8517,8518,8517,8518,8517,8518,8517,8518,8517,8518,8517,8518,8517,8518,8517,8518,8517,8518,8517,8518,8517,8518,8517,8518,8517,8518,8517,8518,8517,8518,8517,8518,8517,8518,8517,8518,8517,8518,8517,8518,8517,8518,8517,8518,8517,8518,8517,8518,8517,8518,8517,8518,8517,8518,8517,8518,8517,8518,8517,8518,8517,8518,8517,8518,8517,8518,8517,8518,8517,8518,8517,8518,8517,8518,8517,8518,8517,8518,8517,8518,8517,8518,8517,8518,8517,8518,8517,8518,8517,8518,8517,8518,8517,8518,8517,8518,8517,8518,8517,8518,8517,8518,8517,8518,8517,8518,8517,8518,8517,8518,8517,8518,8517,8518,8517,8518,8517,8518,8517,8518,8517,8518,8517,8518,8517,8518,8517,8518,8517,8518,8517,8518,8517,8518,8517,8518,8517,8518,8517,8518,8517,8518,8517,8518,8517,8518,8517,8518,8517,8518,8517,8518,8517,8518,8517,8518,8517,8518,
8645,8646,8645,8646,8645,8646,8645,8646,8645,8646,8645,8646,8645,8646,8645,8646,8645,8646,8645,8646,8645,8646,8645,8646,8645,8646,8645,8646,8645,8646,8645,8646,8645,8646,8645,8646,8645,8646,8645,8646,8645,8646,8645,8646,8645,8646,8645,8646,8645,8646,8645,8646,8645,8646,8645,8646,8645,8646,8645,8646,8645,8646,8645,8646,8645,8646,8645,8646,8645,8646,8645,8646,8645,8646,8645,8646,8645,8646,8645,8646,8645,8646,8645,8646,8645,8646,8645,8646,8645,8646,8645,8646,8645,8646,8645,8646,8645,8646,8645,8646,8645,8646,8645,8646,8645,8646,8645,8646,8645,8646,8645,8646,8645,8646,8645,8646,8645,8646,8645,8646,8645,8646,8645,8646,8645,8646,8645,8646,8645,8646,8645,8646,8645,8646,8645,8646,8645,8646,8645,8646,8645,8646,8645,8646,8645,8646,8645,8646,8645,8646,8645,8646,8645,8646,8645,8646,8645,8646,8645,8646,8645,8646,8645,8646,8645,8646,8645,8646,8645,8646,8645,8646,8645,8646,8645,8646,8645,8646,8645,8646,8645,8646,8645,8646,8645,8646,8645,8646,8645,8646,8645,8646,8645,8646,8645,8646,8645,8646,8645,8646,8645,8646,8645,8646,8645,8646,8645,8646,8645,8646,8645,8646,8645,8646,8645,8646,8645,8646,8645,8646,8645,8646,8645,8646,8645,8646,8645,8646,8645,8646,8645,8646,8645,8646,8645,8646,8645,8646,8645,8646,8645,8646,8645,8646,8645,8646,8645,8646,8645,8646,8645,8646,8645,8646,8645,8646,
8517,8518,8517,8518,8517,8518,8517,8518,8517,8518,8517,8518,8517,8518,8517,8518,8517,8518,8517,8518,8517,8518,8517,8518,8517,8518,8517,8518,8517,8518,8517,8518,8517,8518,8517,8518,8517,8518,8517,8518,8517,8518,8517,8518,8517,8518,8517,8518,8517,8518,8517,8518,8517,8518,8517,8518,8517,8518,8517,8518,8517,8518,8517,8518,8517,8518,8517,8518,8517,8518,8517,8518,8517,8518,8517,8518,8517,8518,8517,8518,8517,8518,8517,8518,8517,8518,8517,8518,8517,8518,8517,8518,8517,8518,8517,8518,8517,8518,8517,8518,8517,8518,8517,8518,8517,8518,8517,8518,8517,8518,8517,8518,8517,8518,8517,8518,8517,8518,8517,8518,8517,8518,8517,8518,8517,8518,8517,8518,8517,8518,8517,8518,8517,8518,8517,8518,8517,8518,8517,8518,8517,8518,8517,8518,8517,8518,8517,8518,8517,8518,8517,8518,8517,8518,8517,8518,8517,8518,8517,8518,8517,8518,8517,8518,8517,8518,8517,8518,8517,8518,8517,8518,8517,8518,8517,8518,8517,8518,8517,8518,8517,8518,8517,8518,8517,8518,8517,8518,8517,8518,8517,8518,8517,8518,8517,8518,8517,8518,8517,8518,8517,8518,8517,8518,8517,8518,8517,8518,8517,8518,8517,8518,8517,8518,8517,8518,8517,8518,8517,8518,8517,8518,8517,8518,8517,8518,8517,8518,8517,8518,8517,8518,8517,8518,8517,8518,8517,8518,8517,8518,8517,8518,8517,8518,8517,8518,8517,8518,8517,8518,8517,8518,8517,8518,8517,8518,
8645,8646,8645,8646,8645,8646,8645,8646,8645,8646,8645,8646,8645,8646,8645,8646,8645,8646,8645,8646,8645,8646,8645,8646,8645,8646,8645,8646,8645,8646,8645,8646,8645,8646,8645,8646,8645,8646,8645,8646,8645,8646,8645,8646,8645,8646,8645,8646,8645,8646,8645,8646,8645,8646,8645,8646,8645,8646,8645,8646,8645,8646,8645,8646,8645,8646,8645,8646,8645,8646,8645,8646,8645,8646,8645,8646,8645,8646,8645,8646,8645,8646,8645,8646,8645,8646,8645,8646,8645,8646,8645,8646,8645,8646,8645,8646,8645,8646,8645,8646,8645,8646,8645,8646,8645,8646,8645,8646,8645,8646,8645,8646,8645,8646,8645,8646,8645,8646,8645,8646,8645,8646,8645,8646,8645,8646,8645,8646,8645,8646,8645,8646,8645,8646,8645,8646,8645,8646,8645,8646,8645,8646,8645,8646,8645,8646,8645,8646,8645,8646,8645,8646,8645,8646,8645,8646,8645,8646,8645,8646,8645,8646,8645,8646,8645,8646,8645,8646,8645,8646,8645,8646,8645,8646,8645,8646,8645,8646,8645,8646,8645,8646,8645,8646,8645,8646,8645,8646,8645,8646,8645,8646,8645,8646,8645,8646,8645,8646,8645,8646,8645,8646,8645,8646,8645,8646,8645,8646,8645,8646,8645,8646,8645,8646,8645,8646,8645,8646,8645,8646,8645,8646,8645,8646,8645,8646,8645,8646,8645,8646,8645,8646,8645,8646,8645,8646,8645,8646,8645,8646,8645,8646,8645,8646,8645,8646,8645,8646,8645,8646,8645,8646,8645,8646,8645,8646,
8517,8518,8517,8518,8517,8518,8517,8518,8517,8518,8517,8518,8517,8518,8517,8518,8517,8518,8517,8518,8517,8518,8517,8518,8517,8518,8517,8518,8517,8518,8517,8518,8517,8518,8517,8518,8517,8518,8517,8518,8517,8518,8517,8518,8517,8518,8517,8518,8517,8518,8517,8518,8517,8518,8517,8518,8517,8518,8517,8518,8517,8518,8517,8518,8517,8518,8517,8518,8517,8518,8517,8518,8517,8518,8517,8518,8517,8518,8517,8518,8517,8518,8517,8518,8517,8518,8517,8518,8517,8518,8517,8518,8517,8518,8517,8518,8517,8518,8517,8518,8517,8518,8517,8518,8517,8518,8517,8518,8517,8518,8517,8518,8517,8518,8517,8518,8517,8518,8517,8518,8517,8518,8517,8518,8517,8518,8517,8518,8517,8518,8517,8518,8517,8518,8517,8518,8517,8518,8517,8518,8517,8518,8517,8518,8517,8518,8517,8518,8517,8518,8517,8518,8517,8518,8517,8518,8517,8518,8517,8518,8517,8518,8517,8518,8517,8518,8517,8518,8517,8518,8517,8518,8517,8518,8517,8518,8517,8518,8517,8518,8517,8518,8517,8518,8517,8518,8517,8518,8517,8518,8517,8518,8517,8518,8517,8518,8517,8518,8517,8518,8517,8518,8517,8518,8517,8518,8517,8518,8517,8518,8517,8518,8517,8518,8517,8518,8517,8518,8517,8518,8517,8518,8517,8518,8517,8518,8517,8518,8517,8518,8517,8518,8517,8518,8517,8518,8517,8518,8517,8518,8517,8518,8517,8518,8517,8518,8517,8518,8517,8518,8517,8518,8517,8518,8517,8518,
8645,8646,8645,8646,8645,8646,8645,8646,8645,8646,8645,8646,8645,8646,8645,8646,8645,8646,8645,8646,8645,8646,8645,8646,8645,8646,8645,8646,8645,8646,8645,8646,8645,8646,8645,8646,8645,8646,8645,8646,8645,8646,8645,8646,8645,8646,8645,8646,8645,8646,8645,8646,8645,8646,8645,8646,8645,8646,8645,8646,8645,8646,8645,8646,8645,8646,8645,8646,8645,8646,8645,8646,8645,8646,8645,8646,8645,8646,8645,8646,8645,8646,8645,8646,8645,8646,8645,8646,8645,8646,8645,8646,8645,8646,8645,8646,8645,8646,8645,8646,8645,8646,8645,8646,8645,8646,8645,8646,8645,8646,8645,8646,8645,8646,8645,8646,8645,8646,8645,8646,8645,8646,8645,8646,8645,8646,8645,8646,8645,8646,8645,8646,8645,8646,8645,8646,8645,8646,8645,8646,8645,8646,8645,8646,8645,8646,8645,8646,8645,8646,8645,8646,8645,8646,8645,8646,8645,8646,8645,8646,8645,8646,8645,8646,8645,8646,8645,8646,8645,8646,8645,8646,8645,8646,8645,8646,8645,8646,8645,8646,8645,8646,8645,8646,8645,8646,8645,8646,8645,8646,8645,8646,8645,8646,8645,8646,8645,8646,8645,8646,8645,8646,8645,8646,8645,8646,8645,8646,8645,8646,8645,8646,8645,8646,8645,8646,8645,8646,8645,8646,8645,8646,8645,8646,8645,8646,8645,8646,8645,8646,8645,8646,8645,8646,8645,8646,8645,8646,8645,8646,8645,8646,8645,8646,8645,8646,8645,8646,8645,8646,8645,8646,8645,8646,8645,8646,
8517,8518,8517,8518,8517,8518,8517,8518,8517,8518,8517,8518,8517,8518,8517,8518,8517,8518,8517,8518,8517,8518,8517,8518,8517,8518,8517,8518,8517,8518,8517,8518,8517,8518,8517,8518,8517,8518,8517,8518,8517,8518,8517,8518,8517,8518,8517,8518,8517,8518,8517,8518,8517,8518,8517,8518,8517,8518,8517,8518,8517,8518,8517,8518,8517,8518,8517,8518,8517,8518,8517,8518,8517,8518,8517,8518,8517,8518,8517,8518,8517,8518,8517,8518,8517,8518,8517,8518,8517,8518,8517,8518,8517,8518,8517,8518,8517,8518,8517,8518,8517,8518,8517,8518,8517,8518,8517,8518,8517,8518,8517,8518,8517,8518,8517,8518,8517,8518,8517,8518,8517,8518,8517,8518,8517,8518,8517,8518,8517,8518,8517,8518,8517,8518,8517,8518,8517,8518,8517,8518,8517,8518,8517,8518,8517,8518,8517,8518,8517,8518,8517,8518,8517,8518,8517,8518,8517,8518,8517,8518,8517,8518,8517,8518,8517,8518,8517,8518,8517,8518,8517,8518,8517,8518,8517,8518,8517,8518,8517,8518,8517,8518,8517,8518,8517,8518,8517,8518,8517,8518,8517,8518,8517,8518,8517,8518,8517,8518,8517,8518,8517,8518,8517,8518,8517,8518,8517,8518,8517,8518,8517,8518,8517,8518,8517,8518,8517,8518,8517,8518,8517,8518,8517,8518,8517,8518,8517,8518,8517,8518,8517,8518,8517,8518,8517,8518,8517,8518,8517,8518,8517,8518,8517,8518,8517,8518,8517,8518,8517,8518,8517,8518,8517,8518,8517,8518,
8645,8646,8645,8646,8645,8646,8645,8646,8645,8646,8645,8646,8645,8646,8645,8646,8645,8646,8645,8646,8645,8646,8645,8646,8645,8646,8645,8646,8645,8646,8645,8646,8645,8646,8645,8646,8645,8646,8645,8646,8645,8646,8645,8646,8645,8646,8645,8646,8645,8646,8645,8646,8645,8646,8645,8646,8645,8646,8645,8646,8645,8646,8645,8646,8645,8646,8645,8646,8645,8646,8645,8646,8645,8646,8645,8646,8645,8646,8645,8646,8645,8646,8645,8646,8645,8646,8645,8646,8645,8646,8645,8646,8645,8646,8645,8646,8645,8646,8645,8646,8645,8646,8645,8646,8645,8646,8645,8646,8645,8646,8645,8646,8645,8646,8645,8646,8645,8646,8645,8646,8645,8646,8645,8646,8645,8646,8645,8646,8645,8646,8645,8646,8645,8646,8645,8646,8645,8646,8645,8646,8645,8646,8645,8646,8645,8646,8645,8646,8645,8646,8645,8646,8645,8646,8645,8646,8645,8646,8645,8646,8645,8646,8645,8646,8645,8646,8645,8646,8645,8646,8645,8646,8645,8646,8645,8646,8645,8646,8645,8646,8645,8646,8645,8646,8645,8646,8645,8646,8645,8646,8645,8646,8645,8646,8645,8646,8645,8646,8645,8646,8645,8646,8645,8646,8645,8646,8645,8646,8645,8646,8645,8646,8645,8646,8645,8646,8645,8646,8645,8646,8645,8646,8645,8646,8645,8646,8645,8646,8645,8646,8645,8646,8645,8646,8645,8646,8645,8646,8645,8646,8645,8646,8645,8646,8645,8646,8645,8646,8645,8646,8645,8646,8645,8646,8645,8646,
8517,8518,8517,8518,8517,8518,8517,8518,8517,8518,8517,8518,8517,8518,8517,8518,8517,8518,8517,8518,8517,8518,8517,8518,8517,8518,8517,8518,8517,8518,8517,8518,8517,8518,8517,8518,8517,8518,8517,8518,8517,8518,8517,8518,8517,8518,8517,8518,8517,8518,8517,8518,8517,8518,8517,8518,8517,8518,8517,8518,8517,8518,8517,8518,8517,8518,8517,8518,8517,8518,8517,8518,8517,8518,8517,8518,8517,8518,8517,8518,8517,8518,8517,8518,8517,8518,8517,8518,8517,8518,8517,8518,8517,8518,8517,8518,8517,8518,8517,8518,8517,8518,8517,8518,8517,8518,8517,8518,8517,8518,8517,8518,8517,8518,8517,8518,8517,8518,8517,8518,8517,8518,8517,8518,8517,8518,8517,8518,8517,8518,8517,8518,8517,8518,8517,8518,8517,8518,8517,8518,8517,8518,8517,8518,8517,8518,8517,8518,8517,8518,8517,8518,8517,8518,8517,8518,8517,8518,8517,8518,8517,8518,8517,8518,8517,8518,8517,8518,8517,8518,8517,8518,8517,8518,8517,8518,8517,8518,8517,8518,8517,8518,8517,8518,8517,8518,8517,8518,8517,8518,8517,8518,8517,8518,8517,8518,8517,8518,8517,8518,8517,8518,8517,8518,8517,8518,8517,8518,8517,8518,8517,8518,8517,8518,8517,8518,8517,8518,8517,8518,8517,8518,8517,8518,8517,8518,8517,8518,8517,8518,8517,8518,8517,8518,8517,8518,8517,8518,8517,8518,8517,8518,8517,8518,8517,8518,8517,8518,8517,8518,8517,8518,8517,8518,8517,8518,
8645,8646,8645,8646,8645,8646,8645,8646,8645,8646,8645,8646,8645,8646,8645,8646,8645,8646,8645,8646,8645,8646,8645,8646,8645,8646,8645,8646,8645,8646,8645,8646,8645,8646,8645,8646,8645,8646,8645,8646,8645,8646,8645,8646,8645,8646,8645,8646,8645,8646,8645,8646,8645,8646,8645,8646,8645,8646,8645,8646,8645,8646,8645,8646,8645,8646,8645,8646,8645,8646,8645,8646,8645,8646,8645,8646,8645,8646,8645,8646,8645,8646,8645,8646,8645,8646,8645,8646,8645,8646,8645,8646,8645,8646,8645,8646,8645,8646,8645,8646,8645,8646,8645,8646,8645,8646,8645,8646,8645,8646,8645,8646,8645,8646,8645,8646,8645,8646,8645,8646,8645,8646,8645,8646,8645,8646,8645,8646,8645,8646,8645,8646,8645,8646,8645,8646,8645,8646,8645,8646,8645,8646,8645,8646,8645,8646,8645,8646,8645,8646,8645,8646,8645,8646,8645,8646,8645,8646,8645,8646,8645,8646,8645,8646,8645,8646,8645,8646,8645,8646,8645,8646,8645,8646,8645,8646,8645,8646,8645,8646,8645,8646,8645,8646,8645,8646,8645,8646,8645,8646,8645,8646,8645,8646,8645,8646,8645,8646,8645,8646,8645,8646,8645,8646,8645,8646,8645,8646,8645,8646,8645,8646,8645,8646,8645,8646,8645,8646,8645,8646,8645,8646,8645,8646,8645,8646,8645,8646,8645,8646,8645,8646,8645,8646,8645,8646,8645,8646,8645,8646,8645,8646,8645,8646,8645,8646,8645,8646,8645,8646,8645,8646,8645,8646,8645,8646,
8517,8518,8517,8518,8517,8518,8517,8518,8517,8518,8517,8518,8517,8518,8517,8518,8517,8518,8517,8518,8517,8518,8517,8518,8517,8518,8517,8518,8517,8518,8517,8518,8517,8518,8517,8518,8517,8518,8517,8518,8517,8518,8517,8518,8517,8518,8517,8518,8517,8518,8517,8518,8517,8518,8517,8518,8517,8518,8517,8518,8517,8518,8517,8518,8517,8518,8517,8518,8517,8518,8517,8518,8517,8518,8517,8518,8517,8518,8517,8518,8517,8518,8517,8518,8517,8518,8517,8518,8517,8518,8517,8518,8517,8518,8517,8518,8517,8518,8517,8518,8517,8518,8517,8518,8517,8518,8517,8518,8517,8518,8517,8518,8517,8518,8517,8518,8517,8518,8517,8518,8517,8518,8517,8518,8517,8518,8517,8518,8517,8518,8517,8518,8517,8518,8517,8518,8517,8518,8517,8518,8517,8518,8517,8518,8517,8518,8517,8518,8517,8518,8517,8518,8517,8518,8517,8518,8517,8518,8517,8518,8517,8518,8517,8518,8517,8518,8517,8518,8517,8518,8517,8518,8517,8518,8517,8518,8517,8518,8517,8518,8517,8518,8517,8518,8517,8518,8517,8518,8517,8518,8517,8518,8517,8518,8517,8518,8517,8518,8517,8518,8517,8518,8517,8518,8517,8518,8517,8518,8517,8518,8517,8518,8517,8518,8517,8518,8517,8518,8517,8518,8517,8518,8517,8518,8517,8518,8517,8518,8517,8518,8517,8518,8517,8518,8517,8518,8517,8518,8517,8518,8517,8518,8517,8518,8517,8518,8517,8518,8517,8518,8517,8518,8517,8518,8517,8518,
8645,8646,8645,8646,8645,8646,8645,8646,8645,8646,8645,8646,8645,8646,8645,8646,8645,8646,8645,8646,8645,8646,8645,8646,8645,8646,8645,8646,8645,8646,8645,8646,8645,8646,8645,8646,8645,8646,8645,8646,8645,8646,8645,8646,8645,8646,8645,8646,8645,8646,8645,8646,8645,8646,8645,8646,8645,8646,8645,8646,8645,8646,8645,8646,8645,8646,8645,8646,8645,8646,8645,8646,8645,8646,8645,8646,8645,8646,8645,8646,8645,8646,8645,8646,8645,8646,8645,8646,8645,8646,8645,8646,8645,8646,8645,8646,8645,8646,8645,8646,8645,8646,8645,8646,8645,8646,8645,8646,8645,8646,8645,8646,8645,8646,8645,8646,8645,8646,8645,8646,8645,8646,8645,8646,8645,8646,8645,8646,8645,8646,8645,8646,8645,8646,8645,8646,8645,8646,8645,8646,8645,8646,8645,8646,8645,8646,8645,8646,8645,8646,8645,8646,8645,8646,8645,8646,8645,8646,8645,8646,8645,8646,8645,8646,8645,8646,8645,8646,8645,8646,8645,8646,8645,8646,8645,8646,8645,8646,8645,8646,8645,8646,8645,8646,8645,8646,8645,8646,8645,8646,8645,8646,8645,8646,8645,8646,8645,8646,8645,8646,8645,8646,8645,8646,8645,8646,8645,8646,8645,8646,8645,8646,8645,8646,8645,8646,8645,8646,8645,8646,8645,8646,8645,8646,8645,8646,8645,8646,8645,8646,8645,8646,8645,8646,8645,8646,8645,8646,8645,8646,8645,8646,8645,8646,8645,8646,8645,8646,8645,8646,8645,8646,8645,8646,8645,8646,
8517,8518,8517,8518,8517,8518,8517,8518,8517,8518,8517,8518,8517,8518,8517,8518,8517,8518,8517,8518,8517,8518,8517,8518,8517,8518,8517,8518,8517,8518,8517,8518,8517,8518,8517,8518,8517,8518,8517,8518,8517,8518,8517,8518,8517,8518,8517,8518,8517,8518,8517,8518,8517,8518,8517,8518,8517,8518,8517,8518,8517,8518,8517,8518,8517,8518,8517,8518,8517,8518,8517,8518,8517,8518,8517,8518,8517,8518,8517,8518,8517,8518,8517,8518,8517,8518,8517,8518,8517,8518,8517,8518,8517,8518,8517,8518,8517,8518,8517,8518,8517,8518,8517,8518,8517,8518,8517,8518,8517,8518,8517,8518,8517,8518,8517,8518,8517,8518,8517,8518,8517,8518,8517,8518,8517,8518,8517,8518,8517,8518,8517,8518,8517,8518,8517,8518,8517,8518,8517,8518,8517,8518,8517,8518,8517,8518,8517,8518,8517,8518,8517,8518,8517,8518,8517,8518,8517,8518,8517,8518,8517,8518,8517,8518,8517,8518,8517,8518,8517,8518,8517,8518,8517,8518,8517,8518,8517,8518,8517,8518,8517,8518,8517,8518,8517,8518,8517,8518,8517,8518,8517,8518,8517,8518,8517,8518,8517,8518,8517,8518,8517,8518,8517,8518,8517,8518,8517,8518,8517,8518,8517,8518,8517,8518,8517,8518,8517,8518,8517,8518,8517,8518,8517,8518,8517,8518,8517,8518,8517,8518,8517,8518,8517,8518,8517,8518,8517,8518,8517,8518,8517,8518,8517,8518,8517,8518,8517,8518,8517,8518,8517,8518,8517,8518,8517,8518,
8645,8646,8645,8646,8645,8646,8645,8646,8645,8646,8645,8646,8645,8646,8645,8646,8645,8646,8645,8646,8645,8646,8645,8646,8645,8646,8645,8646,8645,8646,8645,8646,8645,8646,8645,8646,8645,8646,8645,8646,8645,8646,8645,8646,8645,8646,8645,8646,8645,8646,8645,8646,8645,8646,8645,8646,8645,8646,8645,8646,8645,8646,8645,8646,8645,8646,8645,8646,8645,8646,8645,8646,8645,8646,8645,8646,8645,8646,8645,8646,8645,8646,8645,8646,8645,8646,8645,8646,8645,8646,8645,8646,8645,8646,8645,8646,8645,8646,8645,8646,8645,8646,8645,8646,8645,8646,8645,8646,8645,8646,8645,8646,8645,8646,8645,8646,8645,8646,8645,8646,8645,8646,8645,8646,8645,8646,8645,8646,8645,8646,8645,8646,8645,8646,8645,8646,8645,8646,8645,8646,8645,8646,8645,8646,8645,8646,8645,8646,8645,8646,8645,8646,8645,8646,8645,8646,8645,8646,8645,8646,8645,8646,8645,8646,8645,8646,8645,8646,8645,8646,8645,8646,8645,8646,8645,8646,8645,8646,8645,8646,8645,8646,8645,8646,8645,8646,8645,8646,8645,8646,8645,8646,8645,8646,8645,8646,8645,8646,8645,8646,8645,8646,8645,8646,8645,8646,8645,8646,8645,8646,8645,8646,8645,8646,8645,8646,8645,8646,8645,8646,8645,8646,8645,8646,8645,8646,8645,8646,8645,8646,8645,8646,8645,8646,8645,8646,8645,8646,8645,8646,8645,8646,8645,8646,8645,8646,8645,8646,8645,8646,8645,8646,8645,8646,8645,8646,
8517,8518,8517,8518,8517,8518,8517,8518,8517,8518,8517,8518,8517,8518,8517,8518,8517,8518,8517,8518,8517,8518,8517,8518,8517,8518,8517,8518,8517,8518,8517,8518,8517,8518,8517,8518,8517,8518,8517,8518,8517,8518,8517,8518,8517,8518,8517,8518,8517,8518,8517,8518,8517,8518,8517,8518,8517,8518,8517,8518,8517,8518,8517,8518,8517,8518,8517,8518,8517,8518,8517,8518,8517,8518,8517,8518,8517,8518,8517,8518,8517,8518,8517,8518,8517,8518,8517,8518,8517,8518,8517,8518,8517,8518,8517,8518,8517,8518,8517,8518,8517,8518,8517,8518,8517,8518,8517,8518,8517,8518,8517,8518,8517,8518,8517,8518,8517,8518,8517,8518,8517,8518,8517,8518,8517,8518,8517,8518,8517,8518,8517,8518,8517,8518,8517,8518,8517,8518,8517,8518,8517,8518,8517,8518,8517,8518,8517,8518,8517,8518,8517,8518,8517,8518,8517,8518,8517,8518,8517,8518,8517,8518,8517,8518,8517,8518,8517,8518,8517,8518,8517,8518,8517,8518,8517,8518,8517,8518,8517,8518,8517,8518,8517,8518,8517,8518,8517,8518,8517,8518,8517,8518,8517,8518,8517,8518,8517,8518,8517,8518,8517,8518,8517,8518,8517,8518,8517,8518,8517,8518,8517,8518,8517,8518,8517,8518,8517,8518,8517,8518,8517,8518,8517,8518,8517,8518,8517,8518,8517,8518,8517,8518,8517,8518,8517,8518,8517,8518,8517,8518,8517,8518,8517,8518,8517,8518,8517,8518,8517,8518,8517,8518,8517,8518,8517,8518,
8645,8646,8645,8646,8645,8646,8645,8646,8645,8646,8645,8646,8645,8646,8645,8646,8645,8646,8645,8646,8645,8646,8645,8646,8645,8646,8645,8646,8645,8646,8645,8646,8645,8646,8645,8646,8645,8646,8645,8646,8645,8646,8645,8646,8645,8646,8645,8646,8645,8646,8645,8646,8645,8646,8645,8646,8645,8646,8645,8646,8645,8646,8645,8646,8645,8646,8645,8646,8645,8646,8645,8646,8645,8646,8645,8646,8645,8646,8645,8646,8645,8646,8645,8646,8645,8646,8645,8646,8645,8646,8645,8646,8645,8646,8645,8646,8645,8646,8645,8646,8645,8646,8645,8646,8645,8646,8645,8646,8645,8646,8645,8646,8645,8646,8645,8646,8645,8646,8645,8646,8645,8646,8645,8646,8645,8646,8645,8646,8645,8646,8645,8646,8645,8646,8645,8646,8645,8646,8645,8646,8645,8646,8645,8646,8645,8646,8645,8646,8645,8646,8645,8646,8645,8646,8645,8646,8645,8646,8645,8646,8645,8646,8645,8646,8645,8646,8645,8646,8645,8646,8645,8646,8645,8646,8645,8646,8645,8646,8645,8646,8645,8646,8645,8646,8645,8646,8645,8646,8645,8646,8645,8646,8645,8646,8645,8646,8645,8646,8645,8646,8645,8646,8645,8646,8645,8646,8645,8646,8645,8646,8645,8646,8645,8646,8645,8646,8645,8646,8645,8646,8645,8646,8645,8646,8645,8646,8645,8646,8645,8646,8645,8646,8645,8646,8645,8646,8645,8646,8645,8646,8645,8646,8645,8646,8645,8646,8645,8646,8645,8646,8645,8646,8645,8646,8645,8646,
8517,8518,8517,8518,8517,8518,8517,8518,8517,8518,8517,8518,8517,8518,8517,8518,8517,8518,8517,8518,8517,8518,8517,8518,8517,8518,8517,8518,8517,8518,8517,8518,8517,8518,8517,8518,8517,8518,8517,8518,8517,8518,8517,8518,8517,8518,8517,8518,8517,8518,8517,8518,8517,8518,8517,8518,8517,8518,8517,8518,8517,8518,8517,8518,8517,8518,8517,8518,8517,8518,8517,8518,8517,8518,8517,8518,8517,8518,8517,8518,8517,8518,8517,8518,8517,8518,8517,8518,8517,8518,8517,8518,8517,8518,8517,8518,8517,8518,8517,8518,8517,8518,8517,8518,8517,8518,8517,8518,8517,8518,8517,8518,8517,8518,8517,8518,8517,8518,8517,8518,8517,8518,8517,8518,8517,8518,8517,8518,8517,8518,8517,8518,8517,8518,8517,8518,8517,8518,8517,8518,8517,8518,8517,8518,8517,8518,8517,8518,8517,8518,8517,8518,8517,8518,8517,8518,8517,8518,8517,8518,8517,8518,8517,8518,8517,8518,8517,8518,8517,8518,8517,8518,8517,8518,8517,8518,8517,8518,8517,8518,8517,8518,8517,8518,8517,8518,8517,8518,8517,8518,8517,8518,8517,8518,8517,8518,8517,8518,8517,8518,8517,8518,8517,8518,8517,8518,8517,8518,8517,8518,8517,8518,8517,8518,8517,8518,8517,8518,8517,8518,8517,8518,8517,8518,8517,8518,8517,8518,8517,8518,8517,8518,8517,8518,8517,8518,8517,8518,8517,8518,8517,8518,8517,8518,8517,8518,8517,8518,8517,8518,8517,8518,8517,8518,8517,8518,
8645,8646,8645,8646,8645,8646,8645,8646,8645,8646,8645,8646,8645,8646,8645,8646,8645,8646,8645,8646,8645,8646,8645,8646,8645,8646,8645,8646,8645,8646,8645,8646,8645,8646,8645,8646,8645,8646,8645,8646,8645,8646,8645,8646,8645,8646,8645,8646,8645,8646,8645,8646,8645,8646,8645,8646,8645,8646,8645,8646,8645,8646,8645,8646,8645,8646,8645,8646,8645,8646,8645,8646,8645,8646,8645,8646,8645,8646,8645,8646,8645,8646,8645,8646,8645,8646,8645,8646,8645,8646,8645,8646,8645,8646,8645,8646,8645,8646,8645,8646,8645,8646,8645,8646,8645,8646,8645,8646,8645,8646,8645,8646,8645,8646,8645,8646,8645,8646,8645,8646,8645,8646,8645,8646,8645,8646,8645,8646,8645,8646,8645,8646,8645,8646,8645,8646,8645,8646,8645,8646,8645,8646,8645,8646,8645,8646,8645,8646,8645,8646,8645,8646,8645,8646,8645,8646,8645,8646,8645,8646,8645,8646,8645,8646,8645,8646,8645,8646,8645,8646,8645,8646,8645,8646,8645,8646,8645,8646,8645,8646,8645,8646,8645,8646,8645,8646,8645,8646,8645,8646,8645,8646,8645,8646,8645,8646,8645,8646,8645,8646,8645,8646,8645,8646,8645,8646,8645,8646,8645,8646,8645,8646,8645,8646,8645,8646,8645,8646,8645,8646,8645,8646,8645,8646,8645,8646,8645,8646,8645,8646,8645,8646,8645,8646,8645,8646,8645,8646,8645,8646,8645,8646,8645,8646,8645,8646,8645,8646,8645,8646,8645,8646,8645,8646,8645,8646,
8517,8518,8517,8518,8517,8518,8517,8518,8517,8518,8517,8518,8517,8518,8517,8518,8517,8518,8517,8518,8517,8518,8517,8518,8517,8518,8517,8518,8517,8518,8517,8518,8517,8518,8517,8518,8517,8518,8517,8518,8517,8518,8517,8518,8517,8518,8517,8518,8517,8518,8517,8518,8517,8518,8517,8518,8517,8518,8517,8518,8517,8518,8517,8518,8517,8518,8517,8518,8517,8518,8517,8518,8517,8518,8517,8518,8517,8518,8517,8518,8517,8518,8517,8518,8517,8518,8517,8518,8517,8518,8517,8518,8517,8518,8517,8518,8517,8518,8517,8518,8517,8518,8517,8518,8517,8518,8517,8518,8517,8518,8517,8518,8517,8518,8517,8518,8517,8518,8517,8518,8517,8518,8517,8518,8517,8518,8517,8518,8517,8518,8517,8518,8517,8518,8517,8518,8517,8518,8517,8518,8517,8518,8517,8518,8517,8518,8517,8518,8517,8518,8517,8518,8517,8518,8517,8518,8517,8518,8517,8518,8517,8518,8517,8518,8517,8518,8517,8518,8517,8518,8517,8518,8517,8518,8517,8518,8517,8518,8517,8518,8517,8518,8517,8518,8517,8518,8517,8518,8517,8518,8517,8518,8517,8518,8517,8518,8517,8518,8517,8518,8517,8518,8517,8518,8517,8518,8517,8518,8517,8518,8517,8518,8517,8518,8517,8518,8517,8518,8517,8518,8517,8518,8517,8518,8517,8518,8517,8518,8517,8518,8517,8518,8517,8518,8517,8518,8517,8518,8517,8518,8517,8518,8517,8518,8517,8518,8517,8518,8517,8518,8517,8518,8517,8518,8517,8518,
8645,8646,8645,8646,8645,8646,8645,8646,8645,8646,8645,8646,8645,8646,8645,8646,8645,8646,8645,8646,8645,8646,8645,8646,8645,8646,8645,8646,8645,8646,8645,8646,8645,8646,8645,8646,8645,8646,8645,8646,8645,8646,8645,8646,8645,8646,8645,8646,8645,8646,8645,8646,8645,8646,8645,8646,8645,8646,8645,8646,8645,8646,8645,8646,8645,8646,8645,8646,8645,8646,8645,8646,8645,8646,8645,8646,8645,8646,8645,8646,8645,8646,8645,8646,8645,8646,8645,8646,8645,8646,8645,8646,8645,8646,8645,8646,8645,8646,8645,8646,8645,8646,8645,8646,8645,8646,8645,8646,8645,8646,8645,8646,8645,8646,8645,8646,8645,8646,8645,8646,8645,8646,8645,8646,8645,8646,8645,8646,8645,8646,8645,8646,8645,8646,8645,8646,8645,8646,8645,8646,8645,8646,8645,8646,8645,8646,8645,8646,8645,8646,8645,8646,8645,8646,8645,8646,8645,8646,8645,8646,8645,8646,8645,8646,8645,8646,8645,8646,8645,8646,8645,8646,8645,8646,8645,8646,8645,8646,8645,8646,8645,8646,8645,8646,8645,8646,8645,8646,8645,8646,8645,8646,8645,8646,8645,8646,8645,8646,8645,8646,8645,8646,8645,8646,8645,8646,8645,8646,8645,8646,8645,8646,8645,8646,8645,8646,8645,8646,8645,8646,8645,8646,8645,8646,8645,8646,8645,8646,8645,8646,8645,8646,8645,8646,8645,8646,8645,8646,8645,8646,8645,8646,8645,8646,8645,8646,8645,8646,8645,8646,8645,8646,8645,8646,8645,8646,
8517,8518,8517,8518,8517,8518,8517,8518,8517,8518,8517,8518,8517,8518,8517,8518,8517,8518,8517,8518,8517,8518,8517,8518,8517,8518,8517,8518,8517,8518,8517,8518,8517,8518,8517,8518,8517,8518,8517,8518,8517,8518,8517,8518,8517,8518,8517,8518,8517,8518,8517,8518,8517,8518,8517,8518,8517,8518,8517,8518,8517,8518,8517,8518,8517,8518,8517,8518,8517,8518,8517,8518,8517,8518,8517,8518,8517,8518,8517,8518,8517,8518,8517,8518,8517,8518,8517,8518,8517,8518,8517,8518,8517,8518,8517,8518,8517,8518,8517,8518,8517,8518,8517,8518,8517,8518,8517,8518,8517,8518,8517,8518,8517,8518,8517,8518,8517,8518,8517,8518,8517,8518,8517,8518,8517,8518,8517,8518,8517,8518,8517,8518,8517,8518,8517,8518,8517,8518,8517,8518,8517,8518,8517,8518,8517,8518,8517,8518,8517,8518,8517,8518,8517,8518,8517,8518,8517,8518,8517,8518,8517,8518,8517,8518,8517,8518,8517,8518,8517,8518,8517,8518,8517,8518,8517,8518,8517,8518,8517,8518,8517,8518,8517,8518,8517,8518,8517,8518,8517,8518,8517,8518,8517,8518,8517,8518,8517,8518,8517,8518,8517,8518,8517,8518,8517,8518,8517,8518,8517,8518,8517,8518,8517,8518,8517,8518,8517,8518,8517,8518,8517,8518,8517,8518,8517,8518,8517,8518,8517,8518,8517,8518,8517,8518,8517,8518,8517,8518,8517,8518,8517,8518,8517,8518,8517,8518,8517,8518,8517,8518,8517,8518,8517,8518,8517,8518,
8645,8646,8645,8646,8645,8646,8645,8646,8645,8646,8645,8646,8645,8646,8645,8646,8645,8646,8645,8646,8645,8646,8645,8646,8645,8646,8645,8646,8645,8646,8645,8646,8645,8646,8645,8646,8645,8646,8645,8646,8645,8646,8645,8646,8645,8646,8645,8646,8645,8646,8645,8646,8645,8646,8645,8646,8645,8646,8645,8646,8645,8646,8645,8646,8645,8646,8645,8646,8645,8646,8645,8646,8645,8646,8645,8646,8645,8646,8645,8646,8645,8646,8645,8646,8645,8646,8645,8646,8645,8646,8645,8646,8645,8646,8645,8646,8645,8646,8645,8646,8645,8646,8645,8646,8645,8646,8645,8646,8645,8646,8645,8646,8645,8646,8645,8646,8645,8646,8645,8646,8645,8646,8645,8646,8645,8646,8645,8646,8645,8646,8645,8646,8645,8646,8645,8646,8645,8646,8645,8646,8645,8646,8645,8646,8645,8646,8645,8646,8645,8646,8645,8646,8645,8646,8645,8646,8645,8646,8645,8646,8645,8646,8645,8646,8645,8646,8645,8646,8645,8646,8645,8646,8645,8646,8645,8646,8645,8646,8645,8646,8645,8646,8645,8646,8645,8646,8645,8646,8645,8646,8645,8646,8645,8646,8645,8646,8645,8646,8645,8646,8645,8646,8645,8646,8645,8646,8645,8646,8645,8646,8645,8646,8645,8646,8645,8646,8645,8646,8645,8646,8645,8646,8645,8646,8645,8646,8645,8646,8645,8646,8645,8646,8645,8646,8645,8646,8645,8646,8645,8646,8645,8646,8645,8646,8645,8646,8645,8646,8645,8646,8645,8646,8645,8646,8645,8646,
8517,8518,8517,8518,8517,8518,8517,8518,8517,8518,8517,8518,8517,8518,8517,8518,8517,8518,8517,8518,8517,8518,8517,8518,8517,8518,8517,8518,8517,8518,8517,8518,8517,8518,8517,8518,8517,8518,8517,8518,8517,8518,8517,8518,8517,8518,8517,8518,8517,8518,8517,8518,8517,8518,8517,8518,8517,8518,8517,8518,8517,8518,8517,8518,8517,8518,8517,8518,8517,8518,8517,8518,8517,8518,8517,8518,8517,8518,8517,8518,8517,8518,8517,8518,8517,8518,8517,8518,8517,8518,8517,8518,8517,8518,8517,8518,8517,8518,8517,8518,8517,8518,8517,8518,8517,8518,8517,8518,8517,8518,8517,8518,8517,8518,8517,8518,8517,8518,8517,8518,8517,8518,8517,8518,8517,8518,8517,8518,8517,8518,8517,8518,8517,8518,8517,8518,8517,8518,8517,8518,8517,8518,8517,8518,8517,8518,8517,8518,8517,8518,8517,8518,8517,8518,8517,8518,8517,8518,8517,8518,8517,8518,8517,8518,8517,8518,8517,8518,8517,8518,8517,8518,8517,8518,8517,8518,8517,8518,8517,8518,8517,8518,8517,8518,8517,8518,8517,8518,8517,8518,8517,8518,8517,8518,8517,8518,8517,8518,8517,8518,8517,8518,8517,8518,8517,8518,8517,8518,8517,8518,8517,8518,8517,8518,8517,8518,8517,8518,8517,8518,8517,8518,8517,8518,8517,8518,8517,8518,8517,8518,8517,8518,8517,8518,8517,8518,8517,8518,8517,8518,8517,8518,8517,8518,8517,8518,8517,8518,8517,8518,8517,8518,8517,8518,8517,8518,
8645,8646,8645,8646,8645,8646,8645,8646,8645,8646,8645,8646,8645,8646,8645,8646,8645,8646,8645,8646,8645,8646,8645,8646,8645,8646,8645,8646,8645,8646,8645,8646,8645,8646,8645,8646,8645,8646,8645,8646,8645,8646,8645,8646,8645,8646,8645,8646,8645,8646,8645,8646,8645,8646,8645,8646,8645,8646,8645,8646,8645,8646,8645,8646,8645,8646,8645,8646,8645,8646,8645,8646,8645,8646,8645,8646,8645,8646,8645,8646,8645,8646,8645,8646,8645,8646,8645,8646,8645,8646,8645,8646,8645,8646,8645,8646,8645,8646,8645,8646,8645,8646,8645,8646,8645,8646,8645,8646,8645,8646,8645,8646,8645,8646,8645,8646,8645,8646,8645,8646,8645,8646,8645,8646,8645,8646,8645,8646,8645,8646,8645,8646,8645,8646,8645,8646,8645,8646,8645,8646,8645,8646,8645,8646,8645,8646,8645,8646,8645,8646,8645,8646,8645,8646,8645,8646,8645,8646,8645,8646,8645,8646,8645,8646,8645,8646,8645,8646,8645,8646,8645,8646,8645,8646,8645,8646,8645,8646,8645,8646,8645,8646,8645,8646,8645,8646,8645,8646,8645,8646,8645,8646,8645,8646,8645,8646,8645,8646,8645,8646,8645,8646,8645,8646,8645,8646,8645,8646,8645,8646,8645,8646,8645,8646,8645,8646,8645,8646,8645,8646,8645,8646,8645,8646,8645,8646,8645,8646,8645,8646,8645,8646,8645,8646,8645,8646,8645,8646,8645,8646,8645,8646,8645,8646,8645,8646,8645,8646,8645,8646,8645,8646,8645,8646,8645,8646,
8517,8518,8517,8518,8517,8518,8517,8518,8517,8518,8517,8518,8517,8518,8517,8518,8517,8518,8517,8518,8517,8518,8517,8518,8517,8518,8517,8518,8517,8518,8517,8518,8517,8518,8517,8518,8517,8518,8517,8518,8517,8518,8517,8518,8517,8518,8517,8518,8517,8518,8517,8518,8517,8518,8517,8518,8517,8518,8517,8518,8517,8518,8517,8518,8517,8518,8517,8518,8517,8518,8517,8518,8517,8518,8517,8518,8517,8518,8517,8518,8517,8518,8517,8518,8517,8518,8517,8518,8517,8518,8517,8518,8517,8518,8517,8518,8517,8518,8517,8518,8517,8518,8517,8518,8517,8518,8517,8518,8517,8518,8517,8518,8517,8518,8517,8518,8517,8518,8517,8518,8517,8518,8517,8518,8517,8518,8517,8518,8517,8518,8517,8518,8517,8518,8517,8518,8517,8518,8517,8518,8517,8518,8517,8518,8517,8518,8517,8518,8517,8518,8517,8518,8517,8518,8517,8518,8517,8518,8517,8518,8517,8518,8517,8518,8517,8518,8517,8518,8517,8518,8517,8518,8517,8518,8517,8518,8517,8518,8517,8518,8517,8518,8517,8518,8517,8518,8517,8518,8517,8518,8517,8518,8517,8518,8517,8518,8517,8518,8517,8518,8517,8518,8517,8518,8517,8518,8517,8518,8517,8518,8517,8518,8517,8518,8517,8518,8517,8518,8517,8518,8517,8518,8517,8518,8517,8518,8517,8518,8517,8518,8517,8518,8517,8518,8517,8518,8517,8518,8517,8518,8517,8518,8517,8518,8517,8518,8517,8518,8517,8518,8517,8518,8517,8518,8517,8518,
8645,8646,8645,8646,8645,8646,8645,8646,8645,8646,8645,8646,8645,8646,8645,8646,8645,8646,8645,8646,8645,8646,8645,8646,8645,8646,8645,8646,8645,8646,8645,8646,8645,8646,8645,8646,8645,8646,8645,8646,8645,8646,8645,8646,8645,8646,8645,8646,8645,8646,8645,8646,8645,8646,8645,8646,8645,8646,8645,8646,8645,8646,8645,8646,8645,8646,8645,8646,8645,8646,8645,8646,8645,8646,8645,8646,8645,8646,8645,8646,8645,8646,8645,8646,8645,8646,8645,8646,8645,8646,8645,8646,8645,8646,8645,8646,8645,8646,8645,8646,8645,8646,8645,8646,8645,8646,8645,8646,8645,8646,8645,8646,8645,8646,8645,8646,8645,8646,8645,8646,8645,8646,8645,8646,8645,8646,8645,8646,8645,8646,8645,8646,8645,8646,8645,8646,8645,8646,8645,8646,8645,8646,8645,8646,8645,8646,8645,8646,8645,8646,8645,8646,8645,8646,8645,8646,8645,8646,8645,8646,8645,8646,8645,8646,8645,8646,8645,8646,8645,8646,8645,8646,8645,8646,8645,8646,8645,8646,8645,8646,8645,8646,8645,8646,8645,8646,8645,8646,8645,8646,8645,8646,8645,8646,8645,8646,8645,8646,8645,8646,8645,8646,8645,8646,8645,8646,8645,8646,8645,8646,8645,8646,8645,8646,8645,8646,8645,8646,8645,8646,8645,8646,8645,8646,8645,8646,8645,8646,8645,8646,8645,8646,8645,8646,8645,8646,8645,8646,8645,8646,8645,8646,8645,8646,8645,8646,8645,8646,8645,8646,8645,8646,8645,8646,8645,8646,
8517,8518,8517,8518,8517,8518,8517,8518,8517,8518,8517,8518,8517,8518,8517,8518,8517,8518,8517,8518,8517,8518,8517,8518,8517,8518,8517,8518,8517,8518,8517,8518,8517,8518,8517,8518,8517,8518,8517,8518,8517,8518,8517,8518,8517,8518,8517,8518,8517,8518,8517,8518,8517,8518,8517,8518,8517,8518,8517,8518,8517,8518,8517,8518,8517,8518,8517,8518,8517,8518,8517,8518,8517,8518,8517,8518,8517,8518,8517,8518,8517,8518,8517,8518,8517,8518,8517,8518,8517,8518,8517,8518,8517,8518,8517,8518,8517,8518,8517,8518,8517,8518,8517,8518,8517,8518,8517,8518,8517,8518,8517,8518,8517,8518,8517,8518,8517,8518,8517,8518,8517,8518,8517,8518,8517,8518,8517,8518,8517,8518,8517,8518,8517,8518,8517,8518,8517,8518,8517,8518,8517,8518,8517,8518,8517,8518,8517,8518,8517,8518,8517,8518,8517,8518,8517,8518,8517,8518,8517,8518,8517,8518,8517,8518,8517,8518,8517,8518,8517,8518,8517,8518,8517,8518,8517,8518,8517,8518,8517,8518,8517,8518,8517,8518,8517,8518,8517,8518,8517,8518,8517,8518,8517,8518,8517,8518,8517,8518,8517,8518,8517,8518,8517,8518,8517,8518,8517,8518,8517,8518,8517,8518,8517,8518,8517,8518,8517,8518,8517,8518,8517,8518,8517,8518,8517,8518,8517,8518,8517,8518,8517,8518,8517,8518,8517,8518,8517,8518,8517,8518,8517,8518,8517,8518,8517,8518,8517,8518,8517,8518,8517,8518,8517,8518,8517,8518,
8645,8646,8645,8646,8645,8646,8645,8646,8645,8646,8645,8646,8645,8646,8645,8646,8645,8646,8645,8646,8645,8646,8645,8646,8645,8646,8645,8646,8645,8646,8645,8646,8645,8646,8645,8646,8645,8646,8645,8646,8645,8646,8645,8646,8645,8646,8645,8646,8645,8646,8645,8646,8645,8646,8645,8646,8645,8646,8645,8646,8645,8646,8645,8646,8645,8646,8645,8646,8645,8646,8645,8646,8645,8646,8645,8646,8645,8646,8645,8646,8645,8646,8645,8646,8645,8646,8645,8646,8645,8646,8645,8646,8645,8646,8645,8646,8645,8646,8645,8646,8645,8646,8645,8646,8645,8646,8645,8646,8645,8646,8645,8646,8645,8646,8645,8646,8645,8646,8645,8646,8645,8646,8645,8646,8645,8646,8645,8646,8645,8646,8645,8646,8645,8646,8645,8646,8645,8646,8645,8646,8645,8646,8645,8646,8645,8646,8645,8646,8645,8646,8645,8646,8645,8646,8645,8646,8645,8646,8645,8646,8645,8646,8645,8646,8645,8646,8645,8646,8645,8646,8645,8646,8645,8646,8645,8646,8645,8646,8645,8646,8645,8646,8645,8646,8645,8646,8645,8646,8645,8646,8645,8646,8645,8646,8645,8646,8645,8646,8645,8646,8645,8646,8645,8646,8645,8646,8645,8646,8645,8646,8645,8646,8645,8646,8645,8646,8645,8646,8645,8646,8645,8646,8645,8646,8645,8646,8645,8646,8645,8646,8645,8646,8645,8646,8645,8646,8645,8646,8645,8646,8645,8646,8645,8646,8645,8646,8645,8646,8645,8646,8645,8646,8645,8646,8645,8646,
8517,8518,8517,8518,8517,8518,8517,8518,8517,8518,8517,8518,8517,8518,8517,8518,8517,8518,8517,8518,8517,8518,8517,8518,8517,8518,8517,8518,8517,8518,8517,8518,8517,8518,8517,8518,8517,8518,8517,8518,8517,8518,8517,8518,8517,8518,8517,8518,8517,8518,8517,8518,8517,8518,8517,8518,8517,8518,8517,8518,8517,8518,8517,8518,8517,8518,8517,8518,8517,8518,8517,8518,8517,8518,8517,8518,8517,8518,8517,8518,8517,8518,8517,8518,8517,8518,8517,8518,8517,8518,8517,8518,8517,8518,8517,8518,8517,8518,8517,8518,8517,8518,8517,8518,8517,8518,8517,8518,8517,8518,8517,8518,8517,8518,8517,8518,8517,8518,8517,8518,8517,8518,8517,8518,8517,8518,8517,8518,8517,8518,8517,8518,8517,8518,8517,8518,8517,8518,8517,8518,8517,8518,8517,8518,8517,8518,8517,8518,8517,8518,8517,8518,8517,8518,8517,8518,8517,8518,8517,8518,8517,8518,8517,8518,8517,8518,8517,8518,8517,8518,8517,8518,8517,8518,8517,8518,8517,8518,8517,8518,8517,8518,8517,8518,8517,8518,8517,8518,8517,8518,8517,8518,8517,8518,8517,8518,8517,8518,8517,8518,8517,8518,8517,8518,8517,8518,8517,8518,8517,8518,8517,8518,8517,8518,8517,8518,8517,8518,8517,8518,8517,8518,8517,8518,8517,8518,8517,8518,8517,8518,8517,8518,8517,8518,8517,8518,8517,8518,8517,8518,8517,8518,8517,8518,8517,8518,8517,8518,8517,8518,8517,8518,8517,8518,8517,8518,
8645,8646,8645,8646,8645,8646,8645,8646,8645,8646,8645,8646,8645,8646,8645,8646,8645,8646,8645,8646,8645,8646,8645,8646,8645,8646,8645,8646,8645,8646,8645,8646,8645,8646,8645,8646,8645,8646,8645,8646,8645,8646,8645,8646,8645,8646,8645,8646,8645,8646,8645,8646,8645,8646,8645,8646,8645,8646,8645,8646,8645,8646,8645,8646,8645,8646,8645,8646,8645,8646,8645,8646,8645,8646,8645,8646,8645,8646,8645,8646,8645,8646,8645,8646,8645,8646,8645,8646,8645,8646,8645,8646,8645,8646,8645,8646,8645,8646,8645,8646,8645,8646,8645,8646,8645,8646,8645,8646,8645,8646,8645,8646,8645,8646,8645,8646,8645,8646,8645,8646,8645,8646,8645,8646,8645,8646,8645,8646,8645,8646,8645,8646,8645,8646,8645,8646,8645,8646,8645,8646,8645,8646,8645,8646,8645,8646,8645,8646,8645,8646,8645,8646,8645,8646,8645,8646,8645,8646,8645,8646,8645,8646,8645,8646,8645,8646,8645,8646,8645,8646,8645,8646,8645,8646,8645,8646,8645,8646,8645,8646,8645,8646,8645,8646,8645,8646,8645,8646,8645,8646,8645,8646,8645,8646,8645,8646,8645,8646,8645,8646,8645,8646,8645,8646,8645,8646,8645,8646,8645,8646,8645,8646,8645,8646,8645,8646,8645,8646,8645,8646,8645,8646,8645,8646,8645,8646,8645,8646,8645,8646,8645,8646,8645,8646,8645,8646,8645,8646,8645,8646,8645,8646,8645,8646,8645,8646,8645,8646,8645,8646,8645,8646,8645,8646,8645,8646,
8517,8518,8517,8518,8517,8518,8517,8518,8517,8518,8517,8518,8517,8518,8517,8518,8517,8518,8517,8518,8517,8518,8517,8518,8517,8518,8517,8518,8517,8518,8517,8518,8517,8518,8517,8518,8517,8518,8517,8518,8517,8518,8517,8518,8517,8518,8517,8518,8517,8518,8517,8518,8517,8518,8517,8518,8517,8518,8517,8518,8517,8518,8517,8518,8517,8518,8517,8518,8517,8518,8517,8518,8517,8518,8517,8518,8517,8518,8517,8518,8517,8518,8517,8518,8517,8518,8517,8518,8517,8518,8517,8518,8517,8518,8517,8518,8517,8518,8517,8518,8517,8518,8517,8518,8517,8518,8517,8518,8517,8518,8517,8518,8517,8518,8517,8518,8517,8518,8517,8518,8517,8518,8517,8518,8517,8518,8517,8518,8517,8518,8517,8518,8517,8518,8517,8518,8517,8518,8517,8518,8517,8518,8517,8518,8517,8518,8517,8518,8517,8518,8517,8518,8517,8518,8517,8518,8517,8518,8517,8518,8517,8518,8517,8518,8517,8518,8517,8518,8517,8518,8517,8518,8517,8518,8517,8518,8517,8518,8517,8518,8517,8518,8517,8518,8517,8518,8517,8518,8517,8518,8517,8518,8517,8518,8517,8518,8517,8518,8517,8518,8517,8518,8517,8518,8517,8518,8517,8518,8517,8518,8517,8518,8517,8518,8517,8518,8517,8518,8517,8518,8517,8518,8517,8518,8517,8518,8517,8518,8517,8518,8517,8518,8517,8518,8517,8518,8517,8518,8517,8518,8517,8518,8517,8518,8517,8518,8517,8518,8517,8518,8517,8518,8517,8518,8517,8518,
8645,8646,8645,8646,8645,8646,8645,8646,8645,8646,8645,8646,8645,8646,8645,8646,8645,8646,8645,8646,8645,8646,8645,8646,8645,8646,8645,8646,8645,8646,8645,8646,8645,8646,8645,8646,8645,8646,8645,8646,8645,8646,8645,8646,8645,8646,8645,8646,8645,8646,8645,8646,8645,8646,8645,8646,8645,8646,8645,8646,8645,8646,8645,8646,8645,8646,8645,8646,8645,8646,8645,8646,8645,8646,8645,8646,8645,8646,8645,8646,8645,8646,8645,8646,8645,8646,8645,8646,8645,8646,8645,8646,8645,8646,8645,8646,8645,8646,8645,8646,8645,8646,8645,8646,8645,8646,8645,8646,8645,8646,8645,8646,8645,8646,8645,8646,8645,8646,8645,8646,8645,8646,8645,8646,8645,8646,8645,8646,8645,8646,8645,8646,8645,8646,8645,8646,8645,8646,8645,8646,8645,8646,8645,8646,8645,8646,8645,8646,8645,8646,8645,8646,8645,8646,8645,8646,8645,8646,8645,8646,8645,8646,8645,8646,8645,8646,8645,8646,8645,8646,8645,8646,8645,8646,8645,8646,8645,8646,8645,8646,8645,8646,8645,8646,8645,8646,8645,8646,8645,8646,8645,8646,8645,8646,8645,8646,8645,8646,8645,8646,8645,8646,8645,8646,8645,8646,8645,8646,8645,8646,8645,8646,8645,8646,8645,8646,8645,8646,8645,8646,8645,8646,8645,8646,8645,8646,8645,8646,8645,8646,8645,8646,8645,8646,8645,8646,8645,8646,8645,8646,8645,8646,8645,8646,8645,8646,8645,8646,8645,8646,8645,8646,8645,8646,8645,8646,
8517,8518,8517,8518,8517,8518,8517,8518,8517,8518,8517,8518,8517,8518,8517,8518,8517,8518,8517,8518,8517,8518,8517,8518,8517,8518,8517,8518,8517,8518,8517,8518,8517,8518,8517,8518,8517,8518,8517,8518,8517,8518,8517,8518,8517,8518,8517,8518,8517,8518,8517,8518,8517,8518,8517,8518,8517,8518,8517,8518,8517,8518,8517,8518,8517,8518,8517,8518,8517,8518,8517,8518,8517,8518,8517,8518,8517,8518,8517,8518,8517,8518,8517,8518,8517,8518,8517,8518,8517,8518,8517,8518,8517,8518,8517,8518,8517,8518,8517,8518,8517,8518,8517,8518,8517,8518,8517,8518,8517,8518,8517,8518,8517,8518,8517,8518,8517,8518,8517,8518,8517,8518,8517,8518,8517,8518,8517,8518,8517,8518,8517,8518,8517,8518,8517,8518,8517,8518,8517,8518,8517,8518,8517,8518,8517,8518,8517,8518,8517,8518,8517,8518,8517,8518,8517,8518,8517,8518,8517,8518,8517,8518,8517,8518,8517,8518,8517,8518,8517,8518,8517,8518,8517,8518,8517,8518,8517,8518,8517,8518,8517,8518,8517,8518,8517,8518,8517,8518,8517,8518,8517,8518,8517,8518,8517,8518,8517,8518,8517,8518,8517,8518,8517,8518,8517,8518,8517,8518,8517,8518,8517,8518,8517,8518,8517,8518,8517,8518,8517,8518,8517,8518,8517,8518,8517,8518,8517,8518,8517,8518,8517,8518,8517,8518,8517,8518,8517,8518,8517,8518,8517,8518,8517,8518,8517,8518,8517,8518,8517,8518,8517,8518,8517,8518,8517,8518,
8645,8646,8645,8646,8645,8646,8645,8646,8645,8646,8645,8646,8645,8646,8645,8646,8645,8646,8645,8646,8645,8646,8645,8646,8645,8646,8645,8646,8645,8646,8645,8646,8645,8646,8645,8646,8645,8646,8645,8646,8645,8646,8645,8646,8645,8646,8645,8646,8645,8646,8645,8646,8645,8646,8645,8646,8645,8646,8645,8646,8645,8646,8645,8646,8645,8646,8645,8646,8645,8646,8645,8646,8645,8646,8645,8646,8645,8646,8645,8646,8645,8646,8645,8646,8645,8646,8645,8646,8645,8646,8645,8646,8645,8646,8645,8646,8645,8646,8645,8646,8645,8646,8645,8646,8645,8646,8645,8646,8645,8646,8645,8646,8645,8646,8645,8646,8645,8646,8645,8646,8645,8646,8645,8646,8645,8646,8645,8646,8645,8646,8645,8646,8645,8646,8645,8646,8645,8646,8645,8646,8645,8646,8645,8646,8645,8646,8645,8646,8645,8646,8645,8646,8645,8646,8645,8646,8645,8646,8645,8646,8645,8646,8645,8646,8645,8646,8645,8646,8645,8646,8645,8646,8645,8646,8645,8646,8645,8646,8645,8646,8645,8646,8645,8646,8645,8646,8645,8646,8645,8646,8645,8646,8645,8646,8645,8646,8645,8646,8645,8646,8645,8646,8645,8646,8645,8646,8645,8646,8645,8646,8645,8646,8645,8646,8645,8646,8645,8646,8645,8646,8645,8646,8645,8646,8645,8646,8645,8646,8645,8646,8645,8646,8645,8646,8645,8646,8645,8646,8645,8646,8645,8646,8645,8646,8645,8646,8645,8646,8645,8646,8645,8646,8645,8646,8645,8646,
8517,8518,8517,8518,8517,8518,8517,8518,8517,8518,8517,8518,8517,8518,8517,8518,8517,8518,8517,8518,8517,8518,8517,8518,8517,8518,8517,8518,8517,8518,8517,8518,8517,8518,8517,8518,8517,8518,8517,8518,8517,8518,8517,8518,8517,8518,8517,8518,8517,8518,8517,8518,8517,8518,8517,8518,8769,8770,8517,8518,8517,8518,8769,8770,8517,8518,8517,8518,8517,8518,8517,8518,8517,8518,8517,8518,8517,8518,8517,8518,8517,8518,8517,8518,8517,8518,8517,8518,8517,8518,8517,8518,8517,8518,8517,8518,8517,8518,8517,8518,8517,8518,8517,8518,8517,8518,8517,8518,8517,8518,8517,8518,8517,8518,8517,8518,8517,8518,8517,8518,8517,8518,8517,8518,8517,8518,8517,8518,8517,8518,8517,8518,8517,8518,8517,8518,8517,8518,8517,8518,8517,8518,8517,8518,8517,8518,8517,8518,8517,8518,8517,8518,8517,8518,8517,8518,8517,8518,8517,8518,8517,8518,8517,8518,8517,8518,8517,8518,8517,8518,8517,8518,8517,8518,8517,8518,8517,8518,8517,8518,8517,8518,8517,8518,8517,8518,8517,8518,8517,8518,8517,8518,8517,8518,8517,8518,8517,8518,8517,8518,8517,8518,8517,8518,8517,8518,8517,8518,8517,8518,8517,8518,8517,8518,8517,8518,8517,8518,8517,8518,8517,8518,8517,8518,8517,8518,8517,8518,8517,8518,8517,8518,8517,8518,8517,8518,8517,8518,8517,8518,8517,8518,8517,8518,8517,8518,8517,8518,8517,8518,8517,8518,8517,8518,8517,8518,
8645,8646,8645,8646,8645,8646,8645,8646,8645,8646,8645,8646,8645,8646,8645,8646,8645,8646,8645,8646,8645,8646,8645,8646,8645,8646,8645,8646,8645,8646,8645,8646,8645,8646,8645,8646,8645,8646,8645,8646,8645,8646,8645,8646,8645,8646,8645,8646,8645,8646,8645,8646,8645,8646,8645,8646,8897,8898,8645,8646,8645,8646,8897,8898,8645,8646,8645,8646,8645,8646,8645,8646,8645,8646,8645,8646,8645,8646,8645,8646,8645,8646,8645,8646,8645,8646,8645,8646,8645,8646,8645,8646,8645,8646,8645,8646,8645,8646,8645,8646,8645,8646,8645,8646,8645,8646,8645,8646,8645,8646,8645,8646,8645,8646,8645,8646,8645,8646,8645,8646,8645,8646,8645,8646,8645,8646,8645,8646,8645,8646,8645,8646,8645,8646,8645,8646,8645,8646,8645,8646,8645,8646,8645,8646,8645,8646,8645,8646,8645,8646,8645,8646,8645,8646,8645,8646,8645,8646,8645,8646,8645,8646,8645,8646,8645,8646,8645,8646,8645,8646,8645,8646,8645,8646,8645,8646,8645,8646,8645,8646,8645,8646,8645,8646,8645,8646,8645,8646,8645,8646,8645,8646,8645,8646,8645,8646,8645,8646,8645,8646,8645,8646,8645,8646,8645,8646,8645,8646,8645,8646,8645,8646,8645,8646,8645,8646,8645,8646,8645,8646,8645,8646,8645,8646,8645,8646,8645,8646,8645,8646,8645,8646,8645,8646,8645,8646,8645,8646,8645,8646,8645,8646,8645,8646,8645,8646,8645,8646,8645,8646,8645,8646,8645,8646,8645,8646,
8517,8518,8517,8518,8517,8518,8517,8518,8517,8518,8517,8518,8517,8518,8517,8518,8517,8518,8517,8518,8517,8518,8517,8518,8517,8518,8517,8518,8517,8518,8517,8518,8517,8518,8517,8518,8517,8518,8517,8518,8517,8518,8517,8518,8517,8518,8517,8518,8517,8518,8517,8518,8517,8518,8517,8518,8517,8518,8517,8518,8517,8518,8517,8518,8517,8518,8517,8518,8517,8518,8517,8518,8517,8518,8517,8518,8517,8518,8517,8518,8517,8518,8517,8518,8517,8518,8517,8518,8517,8518,8517,8518,8517,8518,8517,8518,8517,8518,8517,8518,8517,8518,8517,8518,8517,8518,8517,8518,8517,8518,8517,8518,8517,8518,8517,8518,8517,8518,8517,8518,8517,8518,8517,8518,8517,8518,8517,8518,8517,8518,8517,8518,8517,8518,8517,8518,8517,8518,8517,8518,8517,8518,8517,8518,8517,8518,8517,8518,8517,8518,8517,8518,8517,8518,8517,8518,8517,8518,8517,8518,8517,8518,8517,8518,8517,8518,8517,8518,8517,8518,8517,8518,8517,8518,8517,8518,8517,8518,8517,8518,8517,8518,8517,8518,8517,8518,8517,8518,8517,8518,8517,8518,8517,8518,8517,8518,8517,8518,8517,8518,8517,8518,8517,8518,8517,8518,8517,8518,8517,8518,8517,8518,8517,8518,8517,8518,8517,8518,8517,8518,8517,8518,8517,8518,8517,8518,8517,8518,8517,8518,8517,8518,8517,8518,8517,8518,8517,8518,8517,8518,8517,8518,8517,8518,8517,8518,8517,8518,8517,8518,8517,8518,8517,8518,8517,8518,
8645,8646,8645,8646,8645,8646,8645,8646,8645,8646,8645,8646,8645,8646,8645,8646,8645,8646,8645,8646,8645,8646,8645,8646,8645,8646,8645,8646,8645,8646,8645,8646,8645,8646,8645,8646,8645,8646,8645,8646,8645,8646,8645,8646,8645,8646,8645,8646,8645,8646,8645,8646,8645,8646,8645,8646,8645,8646,8645,8646,8645,8646,8645,8646,8645,8646,8645,8646,8645,8646,8645,8646,8645,8646,8645,8646,8645,8646,8645,8646,8645,8646,8645,8646,8645,8646,8645,8646,8645,8646,8645,8646,8645,8646,8645,8646,8645,8646,8645,8646,8645,8646,8645,8646,8645,8646,8645,8646,8645,8646,8645,8646,8645,8646,8645,8646,8645,8646,8645,8646,8645,8646,8645,8646,8645,8646,8645,8646,8645,8646,8645,8646,8645,8646,8645,8646,8645,8646,8645,8646,8645,8646,8645,8646,8645,8646,8645,8646,8645,8646,8645,8646,8645,8646,8645,8646,8645,8646,8645,8646,8645,8646,8645,8646,8645,8646,8645,8646,8645,8646,8645,8646,8645,8646,8645,8646,8645,8646,8645,8646,8645,8646,8645,8646,8645,8646,8645,8646,8645,8646,8645,8646,8645,8646,8645,8646,8645,8646,8645,8646,8645,8646,8645,8646,8645,8646,8645,8646,8645,8646,8645,8646,8645,8646,8645,8646,8645,8646,8645,8646,8645,8646,8645,8646,8645,8646,8645,8646,8645,8646,8645,8646,8645,8646,8645,8646,8645,8646,8645,8646,8645,8646,8645,8646,8645,8646,8645,8646,8645,8646,8645,8646,8645,8646,8645,8646,
8517,8518,8517,8518,8517,8518,8517,8518,8517,8518,8517,8518,8517,8518,8517,8518,8517,8518,8517,8518,8517,8518,8517,8518,8517,8518,8517,8518,8517,8518,8517,8518,8517,8518,8517,8518,8517,8518,8517,8518,8517,8518,8517,8518,8517,8518,8517,8518,8517,8518,8517,8518,8517,8518,8517,8518,8517,8518,8517,8518,8517,8518,8517,8518,8517,8518,8517,8518,8517,8518,8517,8518,8517,8518,8517,8518,8517,8518,8517,8518,8517,8518,8517,8518,8517,8518,8517,8518,8517,8518,8517,8518,8517,8518,8517,8518,8517,8518,8517,8518,8517,8518,8517,8518,8517,8518,8517,8518,8517,8518,8517,8518,8517,8518,8517,8518,8517,8518,8517,8518,8517,8518,8517,8518,8517,8518,8517,8518,8517,8518,8517,8518,8517,8518,8517,8518,8517,8518,8517,8518,8517,8518,8517,8518,8517,8518,8517,8518,8517,8518,8517,8518,8517,8518,8517,8518,8517,8518,8517,8518,8517,8518,8517,8518,8517,8518,8517,8518,8517,8518,8517,8518,8517,8518,8517,8518,8517,8518,8517,8518,8517,8518,8517,8518,8517,8518,8517,8518,8517,8518,8517,8518,8517,8518,8517,8518,8517,8518,8517,8518,8517,8518,8517,8518,8517,8518,8517,8518,8517,8518,8517,8518,8517,8518,8517,8518,8517,8518,8517,8518,8517,8518,8517,8518,8517,8518,8517,8518,8517,8518,8517,8518,8517,8518,8517,8518,8517,8518,8517,8518,8517,8518,8517,8518,8517,8518,8517,8518,8517,8518,8517,8518,8517,8518,8517,8518,
8645,8646,8645,8646,8645,8646,8645,8646,8645,8646,8645,8646,8645,8646,8645,8646,8645,8646,8645,8646,8645,8646,8645,8646,8645,8646,8645,8646,8645,8646,8645,8646,8645,8646,8645,8646,8645,8646,8645,8646,8645,8646,8645,8646,8645,8646,8645,8646,8645,8646,8645,8646,8645,8646,8645,8646,8645,8646,8645,8646,8645,8646,8645,8646,8645,8646,8645,8646,8645,8646,8645,8646,8645,8646,8645,8646,8645,8646,8645,8646,8645,8646,8645,8646,8645,8646,8645,8646,8645,8646,8645,8646,8645,8646,8645,8646,8645,8646,8645,8646,8645,8646,8645,8646,8645,8646,8645,8646,8645,8646,8645,8646,8645,8646,8645,8646,8645,8646,8645,8646,8645,8646,8645,8646,8645,8646,8645,8646,8645,8646,8645,8646,8645,8646,8645,8646,8645,8646,8645,8646,8645,8646,8645,8646,8645,8646,8645,8646,8645,8646,8645,8646,8645,8646,8645,8646,8645,8646,8645,8646,8645,8646,8645,8646,8645,8646,8645,8646,8645,8646,8645,8646,8645,8646,8645,8646,8645,8646,8645,8646,8645,8646,8645,8646,8645,8646,8645,8646,8645,8646,8645,8646,8645,8646,8645,8646,8645,8646,8645,8646,8645,8646,8645,8646,8645,8646,8645,8646,8645,8646,8645,8646,8645,8646,8645,8646,8645,8646,8645,8646,8645,8646,8645,8646,8645,8646,8645,8646,8645,8646,8645,8646,8645,8646,8645,8646,8645,8646,8645,8646,8645,8646,8645,8646,8645,8646,8645,8646,8645,8646,8645,8646,8645,8646,8645,8646,
8517,8518,8517,8518,8517,8518,8517,8518,8517,8518,8517,8518,8517,8518,8517,8518,8517,8518,8517,8518,8517,8518,8517,8518,8517,8518,8517,8518,8517,8518,8517,8518,8517,8518,8517,8518,8517,8518,8517,8518,8517,8518,8517,8518,8517,8518,8517,8518,8517,8518,8517,8518,8517,8518,8517,8518,8517,8518,8517,8518,8517,8518,8517,8518,8517,8518,8517,8518,8517,8518,8517,8518,8517,8518,8517,8518,8517,8518,8517,8518,8517,8518,8517,8518,8517,8518,8517,8518,8517,8518,8517,8518,8517,8518,8517,8518,8517,8518,8517,8518,8517,8518,8517,8518,8517,8518,8517,8518,8517,8518,8517,8518,8517,8518,8517,8518,8517,8518,8517,8518,8517,8518,8517,8518,8517,8518,8517,8518,8517,8518,8517,8518,8517,8518,8517,8518,8517,8518,8517,8518,8517,8518,8517,8518,8517,8518,8517,8518,8517,8518,8517,8518,8517,8518,8517,8518,8517,8518,8517,8518,8517,8518,8517,8518,8517,8518,8517,8518,8517,8518,8517,8518,8517,8518,8517,8518,8517,8518,8517,8518,8517,8518,8517,8518,8517,8518,8517,8518,8517,8518,8517,8518,8517,8518,8517,8518,8517,8518,8517,8518,8517,8518,8517,8518,8517,8518,8517,8518,8517,8518,8517,8518,8517,8518,8517,8518,8517,8518,8517,8518,8517,8518,8517,8518,8517,8518,8517,8518,8517,8518,8517,8518,8517,8518,8517,8518,8517,8518,8517,8518,8517,8518,8517,8518,8517,8518,8517,8518,8517,8518,8517,8518,8517,8518,8517,8518,
8645,8646,8645,8646,8645,8646,8645,8646,8645,8646,8645,8646,8645,8646,8645,8646,8645,8646,8645,8646,8645,8646,8645,8646,8645,8646,8645,8646,8645,8646,8645,8646,8645,8646,8645,8646,8645,8646,8645,8646,8645,8646,8645,8646,8645,8646,8645,8646,8645,8646,8645,8646,8645,8646,8645,8646,8645,8646,8645,8646,8645,8646,8645,8646,8645,8646,8645,8646,8645,8646,8645,8646,8645,8646,8645,8646,8645,8646,8645,8646,8645,8646,8645,8646,8645,8646,8645,8646,8645,8646,8645,8646,8645,8646,8645,8646,8645,8646,8645,8646,8645,8646,8645,8646,8645,8646,8645,8646,8645,8646,8645,8646,8645,8646,8645,8646,8645,8646,8645,8646,8645,8646,8645,8646,8645,8646,8645,8646,8645,8646,8645,8646,8645,8646,8645,8646,8645,8646,8645,8646,8645,8646,8645,8646,8645,8646,8645,8646,8645,8646,8645,8646,8645,8646,8645,8646,8645,8646,8645,8646,8645,8646,8645,8646,8645,8646,8645,8646,8645,8646,8645,8646,8645,8646,8645,8646,8645,8646,8645,8646,8645,8646,8645,8646,8645,8646,8645,8646,8645,8646,8645,8646,8645,8646,8645,8646,8645,8646,8645,8646,8645,8646,8645,8646,8645,8646,8645,8646,8645,8646,8645,8646,8645,8646,8645,8646,8645,8646,8645,8646,8645,8646,8645,8646,8645,8646,8645,8646,8645,8646,8645,8646,8645,8646,8645,8646,8645,8646,8645,8646,8645,8646,8645,8646,8645,8646,8645,8646,8645,8646,8645,8646,8645,8646,8645,8646,
8517,8518,8517,8518,8517,8518,8517,8518,8517,8518,8517,8518,8517,8518,8517,8518,8517,8518,8517,8518,8517,8518,8517,8518,8517,8518,8517,8518,8517,8518,8517,8518,8517,8518,8517,8518,8517,8518,8517,8518,8517,8518,8517,8518,8517,8518,8517,8518,8517,8518,8517,8518,8517,8518,8517,8518,8517,8518,8517,8518,8517,8518,8517,8518,8517,8518,8517,8518,8517,8518,8517,8518,8517,8518,8517,8518,8517,8518,8517,8518,8517,8518,8517,8518,8517,8518,8517,8518,8517,8518,8517,8518,8517,8518,8517,8518,8517,8518,8517,8518,8517,8518,8517,8518,8517,8518,8517,8518,8517,8518,8517,8518,8517,8518,8517,8518,8517,8518,8517,8518,8517,8518,8517,8518,8517,8518,8517,8518,8517,8518,8517,8518,8517,8518,8517,8518,8517,8518,8517,8518,8517,8518,8517,8518,8517,8518,8517,8518,8517,8518,8517,8518,8517,8518,8517,8518,8517,8518,8517,8518,8517,8518,8517,8518,8517,8518,8517,8518,8517,8518,8517,8518,8517,8518,8517,8518,8517,8518,8517,8518,8517,8518,8517,8518,8517,8518,8517,8518,8517,8518,8517,8518,8517,8518,8517,8518,8517,8518,8517,8518,8517,8518,8517,8518,8517,8518,8517,8518,8517,8518,8517,8518,8517,8518,8517,8518,8517,8518,8517,8518,8517,8518,8517,8518,8517,8518,8517,8518,8517,8518,8517,8518,8517,8518,8517,8518,8517,8518,8517,8518,8517,8518,8517,8518,8517,8518,8517,8518,8517,8518,8517,8518,8517,8518,8517,8518,
8645,8646,8645,8646,8645,8646,8645,8646,8645,8646,8645,8646,8645,8646,8645,8646,8645,8646,8645,8646,8645,8646,8645,8646,8645,8646,8645,8646,8645,8646,8645,8646,8645,8646,8645,8646,8645,8646,8645,8646,8645,8646,8645,8646,8645,8646,8645,8646,8645,8646,8645,8646,8645,8646,8645,8646,8645,8646,8645,8646,8645,8646,8645,8646,8645,8646,8645,8646,8645,8646,8645,8646,8645,8646,8645,8646,8645,8646,8645,8646,8645,8646,8645,8646,8645,8646,8645,8646,8645,8646,8645,8646,8645,8646,8645,8646,8645,8646,8645,8646,8645,8646,8645,8646,8645,8646,8645,8646,8645,8646,8645,8646,8645,8646,8645,8646,8645,8646,8645,8646,8645,8646,8645,8646,8645,8646,8645,8646,8645,8646,8645,8646,8645,8646,8645,8646,8645,8646,8645,8646,8645,8646,8645,8646,8645,8646,8645,8646,8645,8646,8645,8646,8645,8646,8645,8646,8645,8646,8645,8646,8645,8646,8645,8646,8645,8646,8645,8646,8645,8646,8645,8646,8645,8646,8645,8646,8645,8646,8645,8646,8645,8646,8645,8646,8645,8646,8645,8646,8645,8646,8645,8646,8645,8646,8645,8646,8645,8646,8645,8646,8645,8646,8645,8646,8645,8646,8645,8646,8645,8646,8645,8646,8645,8646,8645,8646,8645,8646,8645,8646,8645,8646,8645,8646,8645,8646,8645,8646,8645,8646,8645,8646,8645,8646,8645,8646,8645,8646,8645,8646,8645,8646,8645,8646,8645,8646,8645,8646,8645,8646,8645,8646,8645,8646,8645,8646,
8517,8518,8517,8518,8517,8518,8517,8518,8517,8518,8517,8518,8517,8518,8517,8518,8517,8518,8517,8518,8517,8518,8517,8518,8517,8518,8517,8518,8517,8518,8517,8518,8517,8518,8517,8518,8517,8518,8517,8518,8517,8518,8517,8518,8517,8518,8517,8518,8517,8518,8517,8518,8517,8518,8517,8518,8517,8518,8517,8518,8517,8518,8517,8518,8517,8518,8517,8518,8517,8518,8517,8518,8517,8518,8517,8518,8517,8518,8517,8518,8517,8518,8517,8518,8517,8518,8517,8518,8517,8518,8517,8518,8517,8518,8517,8518,8517,8518,8517,8518,8517,8518,8517,8518,8517,8518,8517,8518,8517,8518,8517,8518,8517,8518,8517,8518,8517,8518,8517,8518,8517,8518,8517,8518,8517,8518,8517,8518,8517,8518,8517,8518,8517,8518,8517,8518,8517,8518,8517,8518,8517,8518,8517,8518,8517,8518,8517,8518,8517,8518,8517,8518,8517,8518,8517,8518,8517,8518,8517,8518,8517,8518,8517,8518,8517,8518,8517,8518,8517,8518,8517,8518,8517,8518,8517,8518,8517,8518,8517,8518,8517,8518,8517,8518,8517,8518,8517,8518,8517,8518,8517,8518,8517,8518,8517,8518,8517,8518,8517,8518,8517,8518,8517,8518,8517,8518,8517,8518,8517,8518,8517,8518,8517,8518,8517,8518,8517,8518,8517,8518,8517,8518,8517,8518,8517,8518,8517,8518,8517,8518,8517,8518,8517,8518,8517,8518,8517,8518,8517,8518,8517,8518,8517,8518,8517,8518,8517,8518,8517,8518,8517,8518,8517,8518,8517,8518,
8645,8646,8645,8646,8645,8646,8645,8646,8645,8646,8645,8646,8645,8646,8645,8646,8645,8646,8645,8646,8645,8646,8645,8646,8645,8646,8645,8646,8645,8646,8645,8646,8645,8646,8645,8646,8645,8646,8645,8646,8645,8646,8645,8646,8645,8646,8645,8646,8645,8646,8645,8646,8645,8646,8645,8646,8645,8646,8645,8646,8645,8646,8645,8646,8645,8646,8645,8646,8645,8646,8645,8646,8645,8646,8645,8646,8645,8646,8645,8646,8645,8646,8645,8646,8645,8646,8645,8646,8645,8646,8645,8646,8645,8646,8645,8646,8645,8646,8645,8646,8645,8646,8645,8646,8645,8646,8645,8646,8645,8646,8645,8646,8645,8646,8645,8646,8645,8646,8645,8646,8645,8646,8645,8646,8645,8646,8645,8646,8645,8646,8645,8646,8645,8646,8645,8646,8645,8646,8645,8646,8645,8646,8645,8646,8645,8646,8645,8646,8645,8646,8645,8646,8645,8646,8645,8646,8645,8646,8645,8646,8645,8646,8645,8646,8645,8646,8645,8646,8645,8646,8645,8646,8645,8646,8645,8646,8645,8646,8645,8646,8645,8646,8645,8646,8645,8646,8645,8646,8645,8646,8645,8646,8645,8646,8645,8646,8645,8646,8645,8646,8645,8646,8645,8646,8645,8646,8645,8646,8645,8646,8645,8646,8645,8646,8645,8646,8645,8646,8645,8646,8645,8646,8645,8646,8645,8646,8645,8646,8645,8646,8645,8646,8645,8646,8645,8646,8645,8646,8645,8646,8645,8646,8645,8646,8645,8646,8645,8646,8645,8646,8645,8646,8645,8646,8645,8646,
8517,8518,8517,8518,8517,8518,8517,8518,8517,8518,8517,8518,8517,8518,8517,8518,8517,8518,8517,8518,8517,8518,8517,8518,8517,8518,8517,8518,8517,8518,8517,8518,8517,8518,8517,8518,8517,8518,8517,8518,8517,8518,8517,8518,8517,8518,8517,8518,8517,8518,8517,8518,8517,8518,8517,8518,8517,8518,8517,8518,8517,8518,8517,8518,8517,8518,8517,8518,8517,8518,8517,8518,8517,8518,8517,8518,8517,8518,8517,8518,8517,8518,8517,8518,8517,8518,8517,8518,8517,8518,8517,8518,8517,8518,8517,8518,8517,8518,8517,8518,8517,8518,8517,8518,8517,8518,8517,8518,8517,8518,8517,8518,8517,8518,8517,8518,8517,8518,8517,8518,8517,8518,8517,8518,8517,8518,8517,8518,8517,8518,8517,8518,8517,8518,8517,8518,8517,8518,8517,8518,8517,8518,8517,8518,8517,8518,8517,8518,8517,8518,8517,8518,8517,8518,8517,8518,8517,8518,8517,8518,8517,8518,8517,8518,8517,8518,8517,8518,8517,8518,8517,8518,8517,8518,8517,8518,8517,8518,8517,8518,8517,8518,8517,8518,8517,8518,8517,8518,8517,8518,8517,8518,8517,8518,8517,8518,8517,8518,8517,8518,8517,8518,8517,8518,8517,8518,8517,8518,8517,8518,8517,8518,8517,8518,8517,8518,8517,8518,8517,8518,8517,8518,8517,8518,8517,8518,8517,8518,8517,8518,8517,8518,8517,8518,8517,8518,8517,8518,8517,8518,8517,8518,8517,8518,8517,8518,8517,8518,8517,8518,8517,8518,8517,8518,8517,8518,
8645,8646,8645,8646,8645,8646,8645,8646,8645,8646,8645,8646,8645,8646,8645,8646,8645,8646,8645,8646,8645,8646,8645,8646,8645,8646,8645,8646,8645,8646,8645,8646,8645,8646,8645,8646,8645,8646,8645,8646,8645,8646,8645,8646,8645,8646,8645,8646,8645,8646,8645,8646,8645,8646,8645,8646,8645,8646,8645,8646,8645,8646,8645,8646,8645,8646,8645,8646,8645,8646,8645,8646,8645,8646,8645,8646,8645,8646,8645,8646,8645,8646,8645,8646,8645,8646,8645,8646,8645,8646,8645,8646,8645,8646,8645,8646,8645,8646,8645,8646,8645,8646,8645,8646,8645,8646,8645,8646,8645,8646,8645,8646,8645,8646,8645,8646,8645,8646,8645,8646,8645,8646,8645,8646,8645,8646,8645,8646,8645,8646,8645,8646,8645,8646,8645,8646,8645,8646,8645,8646,8645,8646,8645,8646,8645,8646,8645,8646,8645,8646,8645,8646,8645,8646,8645,8646,8645,8646,8645,8646,8645,8646,8645,8646,8645,8646,8645,8646,8645,8646,8645,8646,8645,8646,8645,8646,8645,8646,8645,8646,8645,8646,8645,8646,8645,8646,8645,8646,8645,8646,8645,8646,8645,8646,8645,8646,8645,8646,8645,8646,8645,8646,8645,8646,8645,8646,8645,8646,8645,8646,8645,8646,8645,8646,8645,8646,8645,8646,8645,8646,8645,8646,8645,8646,8645,8646,8645,8646,8645,8646,8645,8646,8645,8646,8645,8646,8645,8646,8645,8646,8645,8646,8645,8646,8645,8646,8645,8646,8645,8646,8645,8646,8645,8646,8645,8646,
8517,8518,8517,8518,8517,8518,8517,8518,8517,8518,8517,8518,8517,8518,8517,8518,8517,8518,8517,8518,8517,8518,8517,8518,8517,8518,8517,8518,8517,8518,8517,8518,8517,8518,8517,8518,8517,8518,8517,8518,8517,8518,8517,8518,8517,8518,8517,8518,8517,8518,8517,8518,8517,8518,8517,8518,8517,8518,8517,8518,8517,8518,8517,8518,8517,8518,8517,8518,8517,8518,8517,8518,8517,8518,8517,8518,8517,8518,8517,8518,8517,8518,8517,8518,8517,8518,8517,8518,8517,8518,8517,8518,8517,8518,8517,8518,8517,8518,8517,8518,8517,8518,8517,8518,8517,8518,8517,8518,8517,8518,8517,8518,8517,8518,8517,8518,8517,8518,8517,8518,8517,8518,8517,8518,8517,8518,8517,8518,8517,8518,8517,8518,8517,8518,8517,8518,8517,8518,8517,8518,8517,8518,8517,8518,8517,8518,8517,8518,8517,8518,8517,8518,8517,8518,8517,8518,8517,8518,8517,8518,8517,8518,8517,8518,8517,8518,8517,8518,8517,8518,8517,8518,8517,8518,8517,8518,8517,8518,8517,8518,8517,8518,8517,8518,8517,8518,8517,8518,8517,8518,8517,8518,8517,8518,8517,8518,8517,8518,8517,8518,8517,8518,8517,8518,8517,8518,8517,8518,8517,8518,8517,8518,8517,8518,8517,8518,8517,8518,8517,8518,8517,8518,8517,8518,8517,8518,8517,8518,8517,8518,8517,8518,8517,8518,8517,8518,8517,8518,8517,8518,8517,8518,8517,8518,8517,8518,8517,8518,8517,8518,8517,8518,8517,8518,8517,8518,
8645,8646,8645,8646,8645,8646,8645,8646,8645,8646,8645,8646,8645,8646,8645,8646,8645,8646,8645,8646,8645,8646,8645,8646,8645,8646,8645,8646,8645,8646,8645,8646,8645,8646,8645,8646,8645,8646,8645,8646,8645,8646,8645,8646,8645,8646,8645,8646,8645,8646,8645,8646,8645,8646,8645,8646,8645,8646,8645,8646,8645,8646,8645,8646,8645,8646,8645,8646,8645,8646,8645,8646,8645,8646,8645,8646,8645,8646,8645,8646,8645,8646,8645,8646,8645,8646,8645,8646,8645,8646,8645,8646,8645,8646,8645,8646,8645,8646,8645,8646,8645,8646,8645,8646,8645,8646,8645,8646,8645,8646,8645,8646,8645,8646,8645,8646,8645,8646,8645,8646,8645,8646,8645,8646,8645,8646,8645,8646,8645,8646,8645,8646,8645,8646,8645,8646,8645,8646,8645,8646,8645,8646,8645,8646,8645,8646,8645,8646,8645,8646,8645,8646,8645,8646,8645,8646,8645,8646,8645,8646,8645,8646,8645,8646,8645,8646,8645,8646,8645,8646,8645,8646,8645,8646,8645,8646,8645,8646,8645,8646,8645,8646,8645,8646,8645,8646,8645,8646,8645,8646,8645,8646,8645,8646,8645,8646,8645,8646,8645,8646,8645,8646,8645,8646,8645,8646,8645,8646,8645,8646,8645,8646,8645,8646,8645,8646,8645,8646,8645,8646,8645,8646,8645,8646,8645,8646,8645,8646,8645,8646,8645,8646,8645,8646,8645,8646,8645,8646,8645,8646,8645,8646,8645,8646,8645,8646,8645,8646,8645,8646,8645,8646,8645,8646,8645,8646,
8517,8518,8517,8518,8517,8518,8517,8518,8517,8518,8517,8518,8517,8518,8517,8518,8517,8518,8517,8518,8517,8518,8517,8518,8517,8518,8517,8518,8517,8518,8517,8518,8517,8518,8517,8518,8517,8518,8517,8518,8517,8518,8517,8518,8517,8518,8517,8518,8517,8518,8517,8518,8517,8518,8517,8518,8517,8518,8517,8518,8517,8518,8517,8518,8517,8518,8517,8518,8517,8518,8517,8518,8517,8518,8517,8518,8517,8518,8517,8518,8517,8518,8517,8518,8517,8518,8517,8518,8517,8518,8517,8518,8517,8518,8517,8518,8517,8518,8517,8518,8517,8518,8517,8518,8517,8518,8517,8518,8517,8518,8517,8518,8517,8518,8517,8518,8517,8518,8517,8518,8517,8518,8517,8518,8517,8518,8517,8518,8517,8518,8517,8518,8517,8518,8517,8518,8517,8518,8517,8518,8517,8518,8517,8518,8517,8518,8517,8518,8517,8518,8517,8518,8517,8518,8517,8518,8517,8518,8517,8518,8517,8518,8517,8518,8517,8518,8517,8518,8517,8518,8517,8518,8517,8518,8517,8518,8517,8518,8517,8518,8517,8518,8517,8518,8517,8518,8517,8518,8517,8518,8517,8518,8517,8518,8517,8518,8517,8518,8517,8518,8517,8518,8517,8518,8517,8518,8517,8518,8517,8518,8517,8518,8517,8518,8517,8518,8517,8518,8517,8518,8517,8518,8517,8518,8517,8518,8517,8518,8517,8518,8517,8518,8517,8518,8517,8518,8517,8518,8517,8518,8517,8518,8517,8518,8517,8518,8517,8518,8517,8518,8517,8518,8517,8518,8517,8518,
8645,8646,8645,8646,8645,8646,8645,8646,8645,8646,8645,8646,8645,8646,8645,8646,8645,8646,8645,8646,8645,8646,8645,8646,8645,8646,8645,8646,8645,8646,8645,8646,8645,8646,8645,8646,8645,8646,8645,8646,8645,8646,8645,8646,8645,8646,8645,8646,8645,8646,8645,8646,8645,8646,8645,8646,8645,8646,8645,8646,8645,8646,8645,8646,8645,8646,8645,8646,8645,8646,8645,8646,8645,8646,8645,8646,8645,8646,8645,8646,8645,8646,8645,8646,8645,8646,8645,8646,8645,8646,8645,8646,8645,8646,8645,8646,8645,8646,8645,8646,8645,8646,8645,8646,8645,8646,8645,8646,8645,8646,8645,8646,8645,8646,8645,8646,8645,8646,8645,8646,8645,8646,8645,8646,8645,8646,8645,8646,8645,8646,8645,8646,8645,8646,8645,8646,8645,8646,8645,8646,8645,8646,8645,8646,8645,8646,8645,8646,8645,8646,8645,8646,8645,8646,8645,8646,8645,8646,8645,8646,8645,8646,8645,8646,8645,8646,8645,8646,8645,8646,8645,8646,8645,8646,8645,8646,8645,8646,8645,8646,8645,8646,8645,8646,8645,8646,8645,8646,8645,8646,8645,8646,8645,8646,8645,8646,8645,8646,8645,8646,8645,8646,8645,8646,8645,8646,8645,8646,8645,8646,8645,8646,8645,8646,8645,8646,8645,8646,8645,8646,8645,8646,8645,8646,8645,8646,8645,8646,8645,8646,8645,8646,8645,8646,8645,8646,8645,8646,8645,8646,8645,8646,8645,8646,8645,8646,8645,8646,8645,8646,8645,8646,8645,8646,8645,8646,
8517,8518,8517,8518,8517,8518,8517,8518,8517,8518,8517,8518,8517,8518,8517,8518,8517,8518,8517,8518,8517,8518,8517,8518,8517,8518,8517,8518,8517,8518,8517,8518,8517,8518,8517,8518,8517,8518,8517,8518,8517,8518,8517,8518,8517,8518,8517,8518,8517,8518,8517,8518,8517,8518,8517,8518,8517,8518,8517,8518,8517,8518,8517,8518,8517,8518,8517,8518,8517,8518,8517,8518,8517,8518,8517,8518,8517,8518,8517,8518,8517,8518,8517,8518,8517,8518,8517,8518,8517,8518,8517,8518,8517,8518,8517,8518,8517,8518,8517,8518,8517,8518,8517,8518,8517,8518,8517,8518,8517,8518,8517,8518,8517,8518,8517,8518,8517,8518,8517,8518,8517,8518,8517,8518,8517,8518,8517,8518,8517,8518,8517,8518,8517,8518,8517,8518,8517,8518,8517,8518,8517,8518,8517,8518,8517,8518,8517,8518,8517,8518,8517,8518,8517,8518,8517,8518,8517,8518,8517,8518,8517,8518,8517,8518,8517,8518,8517,8518,8517,8518,8517,8518,8517,8518,8517,8518,8517,8518,8517,8518,8517,8518,8517,8518,8517,8518,8517,8518,8517,8518,8517,8518,8517,8518,8517,8518,8517,8518,8517,8518,8517,8518,8517,8518,8517,8518,8517,8518,8517,8518,8517,8518,8517,8518,8517,8518,8517,8518,8517,8518,8517,8518,8517,8518,8517,8518,8517,8518,8517,8518,8517,8518,8517,8518,8517,8518,8517,8518,8517,8518,8517,8518,8517,8518,8517,8518,8517,8518,8517,8518,8517,8518,8517,8518,8517,8518,
8645,8646,8645,8646,8645,8646,8645,8646,8645,8646,8645,8646,8645,8646,8645,8646,8645,8646,8645,8646,8645,8646,8645,8646,8645,8646,8645,8646,8645,8646,8645,8646,8645,8646,8645,8646,8645,8646,8645,8646,8645,8646,8645,8646,8645,8646,8645,8646,8645,8646,8645,8646,8645,8646,8645,8646,8645,8646,8645,8646,8645,8646,8645,8646,8645,8646,8645,8646,8645,8646,8645,8646,8645,8646,8645,8646,8645,8646,8645,8646,8645,8646,8645,8646,8645,8646,8645,8646,8645,8646,8645,8646,8645,8646,8645,8646,8645,8646,8645,8646,8645,8646,8645,8646,8645,8646,8645,8646,8645,8646,8645,8646,8645,8646,8645,8646,8645,8646,8645,8646,8645,8646,8645,8646,8645,8646,8645,8646,8645,8646,8645,8646,8645,8646,8645,8646,8645,8646,8645,8646,8645,8646,8645,8646,8645,8646,8645,8646,8645,8646,8645,8646,8645,8646,8645,8646,8645,8646,8645,8646,8645,8646,8645,8646,8645,8646,8645,8646,8645,8646,8645,8646,8645,8646,8645,8646,8645,8646,8645,8646,8645,8646,8645,8646,8645,8646,8645,8646,8645,8646,8645,8646,8645,8646,8645,8646,8645,8646,8645,8646,8645,8646,8645,8646,8645,8646,8645,8646,8645,8646,8645,8646,8645,8646,8645,8646,8645,8646,8645,8646,8645,8646,8645,8646,8645,8646,8645,8646,8645,8646,8645,8646,8645,8646,8645,8646,8645,8646,8645,8646,8645,8646,8645,8646,8645,8646,8645,8646,8645,8646,8645,8646,8645,8646,8645,8646,
8517,8518,8517,8518,8517,8518,8517,8518,8517,8518,8517,8518,8517,8518,8517,8518,8517,8518,8517,8518,8517,8518,8517,8518,8517,8518,8517,8518,8517,8518,8517,8518,8517,8518,8517,8518,8517,8518,8517,8518,8517,8518,8517,8518,8517,8518,8517,8518,8517,8518,8517,8518,8517,8518,8517,8518,8517,8518,8517,8518,8517,8518,8517,8518,8517,8518,8517,8518,8517,8518,8517,8518,8517,8518,8517,8518,8517,8518,8517,8518,8517,8518,8517,8518,8517,8518,8517,8518,8517,8518,8517,8518,8517,8518,8517,8518,8517,8518,8517,8518,8517,8518,8517,8518,8517,8518,8517,8518,8517,8518,8517,8518,8517,8518,8517,8518,8517,8518,8517,8518,8517,8518,8517,8518,8517,8518,8517,8518,8517,8518,8517,8518,8517,8518,8517,8518,8517,8518,8517,8518,8517,8518,8517,8518,8517,8518,8517,8518,8517,8518,8517,8518,8517,8518,8517,8518,8517,8518,8517,8518,8517,8518,8517,8518,8517,8518,8517,8518,8517,8518,8517,8518,8517,8518,8517,8518,8517,8518,8517,8518,8517,8518,8517,8518,8517,8518,8517,8518,8517,8518,8517,8518,8517,8518,8517,8518,8517,8518,8517,8518,8517,8518,8517,8518,8517,8518,8517,8518,8517,8518,8517,8518,8517,8518,8517,8518,8517,8518,8517,8518,8517,8518,8517,8518,8517,8518,8517,8518,8517,8518,8517,8518,8517,8518,8517,8518,8517,8518,8517,8518,8517,8518,8517,8518,8517,8518,8517,8518,8517,8518,8517,8518,8517,8518,8517,8518,
8645,8646,8645,8646,8645,8646,8645,8646,8645,8646,8645,8646,8645,8646,8645,8646,8645,8646,8645,8646,8645,8646,8645,8646,8645,8646,8645,8646,8645,8646,8645,8646,8645,8646,8645,8646,8645,8646,8645,8646,8645,8646,8645,8646,8645,8646,8645,8646,8645,8646,8645,8646,8645,8646,8645,8646,8645,8646,8645,8646,8645,8646,8645,8646,8645,8646,8645,8646,8645,8646,8645,8646,8645,8646,8645,8646,8645,8646,8645,8646,8645,8646,8645,8646,8645,8646,8645,8646,8645,8646,8645,8646,8645,8646,8645,8646,8645,8646,8645,8646,8645,8646,8645,8646,8645,8646,8645,8646,8645,8646,8645,8646,8645,8646,8645,8646,8645,8646,8645,8646,8645,8646,8645,8646,8645,8646,8645,8646,8645,8646,8645,8646,8645,8646,8645,8646,8645,8646,8645,8646,8645,8646,8645,8646,8645,8646,8645,8646,8645,8646,8645,8646,8645,8646,8645,8646,8645,8646,8645,8646,8645,8646,8645,8646,8645,8646,8645,8646,8645,8646,8645,8646,8645,8646,8645,8646,8645,8646,8645,8646,8645,8646,8645,8646,8645,8646,8645,8646,8645,8646,8645,8646,8645,8646,8645,8646,8645,8646,8645,8646,8645,8646,8645,8646,8645,8646,8645,8646,8645,8646,8645,8646,8645,8646,8645,8646,8645,8646,8645,8646,8645,8646,8645,8646,8645,8646,8645,8646,8645,8646,8645,8646,8645,8646,8645,8646,8645,8646,8645,8646,8645,8646,8645,8646,8645,8646,8645,8646,8645,8646,8645,8646,8645,8646,8645,8646,
8517,8518,8517,8518,8517,8518,8517,8518,8517,8518,8517,8518,8517,8518,8517,8518,8517,8518,8517,8518,8517,8518,8517,8518,8517,8518,8517,8518,8517,8518,8517,8518,8517,8518,8517,8518,8517,8518,8517,8518,8517,8518,8517,8518,8517,8518,8517,8518,8517,8518,8517,8518,8517,8518,8517,8518,8517,8518,8517,8518,8517,8518,8517,8518,8517,8518,8517,8518,8517,8518,8517,8518,8517,8518,8517,8518,8517,8518,8517,8518,8517,8518,8517,8518,8517,8518,8517,8518,8517,8518,8517,8518,8517,8518,8517,8518,8517,8518,8517,8518,8517,8518,8517,8518,8517,8518,8517,8518,8517,8518,8517,8518,8517,8518,8517,8518,8517,8518,8517,8518,8517,8518,8517,8518,8517,8518,8517,8518,8517,8518,8517,8518,8517,8518,8517,8518,8517,8518,8517,8518,8517,8518,8517,8518,8517,8518,8517,8518,8517,8518,8517,8518,8517,8518,8517,8518,8517,8518,8517,8518,8517,8518,8517,8518,8517,8518,8517,8518,8517,8518,8517,8518,8517,8518,8517,8518,8517,8518,8517,8518,8517,8518,8517,8518,8517,8518,8517,8518,8517,8518,8517,8518,8517,8518,8517,8518,8517,8518,8517,8518,8517,8518,8517,8518,8517,8518,8517,8518,8517,8518,8517,8518,8517,8518,8517,8518,8517,8518,8517,8518,8517,8518,8517,8518,8517,8518,8517,8518,8517,8518,8517,8518,8517,8518,8517,8518,8517,8518,8517,8518,8517,8518,8517,8518,8517,8518,8517,8518,8517,8518,8517,8518,8517,8518,8517,8518,
8645,8646,8645,8646,8645,8646,8645,8646,8645,8646,8645,8646,8645,8646,8645,8646,8645,8646,8645,8646,8645,8646,8645,8646,8645,8646,8645,8646,8645,8646,8645,8646,8645,8646,8645,8646,8645,8646,8645,8646,8645,8646,8645,8646,8645,8646,8645,8646,8645,8646,8645,8646,8645,8646,8645,8646,8645,8646,8645,8646,8645,8646,8645,8646,8645,8646,8645,8646,8645,8646,8645,8646,8645,8646,8645,8646,8645,8646,8645,8646,8645,8646,8645,8646,8645,8646,8645,8646,8645,8646,8645,8646,8645,8646,8645,8646,8645,8646,8645,8646,8645,8646,8645,8646,8645,8646,8645,8646,8645,8646,8645,8646,8645,8646,8645,8646,8645,8646,8645,8646,8645,8646,8645,8646,8645,8646,8645,8646,8645,8646,8645,8646,8645,8646,8645,8646,8645,8646,8645,8646,8645,8646,8645,8646,8645,8646,8645,8646,8645,8646,8645,8646,8645,8646,8645,8646,8645,8646,8645,8646,8645,8646,8645,8646,8645,8646,8645,8646,8645,8646,8645,8646,8645,8646,8645,8646,8645,8646,8645,8646,8645,8646,8645,8646,8645,8646,8645,8646,8645,8646,8645,8646,8645,8646,8645,8646,8645,8646,8645,8646,8645,8646,8645,8646,8645,8646,8645,8646,8645,8646,8645,8646,8645,8646,8645,8646,8645,8646,8645,8646,8645,8646,8645,8646,8645,8646,8645,8646,8645,8646,8645,8646,8645,8646,8645,8646,8645,8646,8645,8646,8645,8646,8645,8646,8645,8646,8645,8646,8645,8646,8645,8646,8645,8646,8645,8646
</data>
 </layer>
 <layer id="2" name="Walls" width="256" height="128">
  <data encoding="csv">
8451,8452,8203,8204,8203,8204,8203,8204,8203,8204,8203,8204,8207,8208,8203,8204,8203,8204,8203,8204,8203,8204,8203,8204,8203,8204,8203,8204,8203,8204,8203,8204,8203,8204,8203,8204,8203,8204,8203,8204,8203,8204,8203,8204,8203,8204,8203,8204,8203,8204,8203,8204,8203,8204,8203,8204,8203,8204,8203,8204,8203,8204,8203,8198,8199,8204,8203,8204,8203,8204,8203,8204,8203,8204,8203,8204,8203,8204,8207,8208,8203,8204,8203,8204,8203,8204,8203,8204,8203,8204,8203,8204,8203,8204,8203,8204,8203,8204,8203,8204,8203,8204,8203,8204,8203,8204,8203,8204,8203,8204,8203,8204,8203,8204,8203,8204,8203,8204,8203,8204,8203,8204,8203,8204,8203,8204,8203,8204,8203,8204,8203,8204,8203,8204,8203,8204,8203,8204,8203,8204,8203,8204,8203,8204,8203,8204,8203,8204,8203,8204,8203,8204,8203,8204,8203,8204,8203,8204,8203,8204,8203,8204,0,0,0,0,0,0,0,0,0,0,0,0,0,0,0,0,0,0,0,0,0,0,0,0,0,0,0,0,0,0,0,0,0,0,0,0,0,0,0,0,0,0,0,0,0,0,0,0,0,0,0,0,0,0,0,0,0,0,0,0,0,0,0,0,0,0,0,0,0,0,0,0,0,0,0,0,0,0,0,0,0,0,0,0,0,0,0,0,0,0,0,0,0,0,
8579,8580,8331,8332,8331,8332,8331,8332,8331,8332,8331,8332,8335,8336,8331,8332,8331,8332,8331,8332,8331,8332,8331,8332,8331,8332,8331,8332,8331,8332,8331,8332,8331,8332,8331,8332,8331,8332,8331,8332,8331,8332,8331,8332,8331,8332,8331,8332,8331,8332,8331,8332,8331,8332,8331,8332,8331,8332,8331,8332,8331,8332,8331,8326,8327,8332,8331,8332,8331,8332,8331,8332,8331,8332,8331,8332,8331,8332,8335,8336,8331,8332,8331,8332,8331,8332,8331,8332,8331,8332,8331,8332,8331,8332,8331,8332,8331,8332,8331,8332,8331,8332,8331,8332,8331,8332,8331,8332,8331,8332,8331,8332,8331,8332,8331,8332,8331,8332,8331,8332,8331,8332,8331,8332,8331,8332,8331,8332,8331,8332,8331,8332,8331,8332,8331,8332,8331,8332,8331,8332,8331,8332,8331,8332,8331,8332,8331,8332,8331,8332,8331,8332,8331,8332,8331,8332,8331,8332,8331,8332,8331,8332,0,0,0,0,0,0,0,0,0,0,0,0,0,0,0,0,0,0,0,0,0,0,0,0,0,0,0,0,0,0,0,0,0,0,0,0,0,0,0,0,0,0,0,0,0,0,0,0,0,0,0,0,0,0,0,0,0,0,0,0,0,0,0,0,0,0,0,0,0,0,0,0,0,0,0,0,0,0,0,0,0,0,0,0,0,0,0,0,0,0,0,0,0,0,
8707,0,0,0,0,0,0,0,0,0,0,0,0,8724,0,0,0,0,0,0,0,0,0,0,0,0,0,0,0,0,0,0,0,0,0,0,0,0,0,0,0,0,0,0,0,0,0,0,0,0,0,0,0,0,0,0,0,0,0,0,0,0,0,0,8707,0,0,0,0,0,0,0,0,0,0,0,0,0,0,8724,0,0,0,0,0,0,0,0,0,0,0,0,0,0,0,0,0,0,0,0,0,0,0,0,0,0,0,0,0,0,0,0,0,0,0,0,0,0,0,0,0,0,0,0,0,0,0,0,0,0,0,0,0,0,0,0,0,0,0,0,0,0,0,0,0,0,0,0,0,0,0,0,0,0,0,0,0,0,0,0,0,0,0,0,0,0,0,0,0,0,0,0,0,0,0,0,0,0,0,0,0,0,0,0,0,0,0,0,0,0,0,0,0,0,0,0,0,0,0,0,0,0,0,0,0,0,0,0,0,0,0,0,0,0,0,0,0,0,0,0,0,0,0,0,0,0,0,0,0,0,0,0,0,0,0,0,0,0,0,0,0,0,0,0,0,0,0,0,0,0,0,0,0,0,0,0,
8835,0,0,0,0,0,0,0,0,0,0,0,0,8852,0,0,0,0,0,0,0,0,0,0,0,0,0,0,0,0,0,0,0,0,0,0,0,0,0,0,0,0,0,0,0,0,0,0,0,0,0,0,0,0,0,0,0,0,0,0,0,0,0,0,8835,0,0,0,0,0,0,0,0,0,0,0,0,0,0,8852,0,0,0,0,0,0,0,0,0,0,0,0,0,0,0,0,0,0,0,0,0,0,0,0,0,0,0,0,0,0,0,0,0,0,0,0,0,0,0,0,0,0,0,0,0,0,0,0,0,0,0,0,0,0,0,0,0,0,0,0,0,0,0,0,0,0,0,0,0,0,0,0,0,0,0,0,0,0,0,0,0,0,0,0,0,0,0,0,0,0,0,0,0,0,0,0,0,0,0,0,0,0,0,0,0,0,0,0,0,0,0,0,0,0,0,0,0,0,0,0,0,0,0,0,0,0,0,0,0,0,0,0,0,0,0,0,0,0,0,0,0,0,0,0,0,0,0,0,0,0,0,0,0,0,0,0,0,0,0,0,0,0,0,0,0,0,0,0,0,0,0,0,0,0,0,0,
8707,0,0,0,0,0,0,0,0,0,0,0,0,8724,0,0,0,0,0,0,0,0,0,0,0,0,0,0,0,0,0,0,0,0,0,0,0,0,0,0,0,0,0,0,0,0,0,0,0,0,0,0,0,0,0,0,0,0,0,0,0,0,0,0,8707,0,0,0,0,0,0,0,0,0,0,0,0,0,0,8724,0,0,0,0,0,0,0,0,0,0,0,0,0,0,0,0,0,0,0,0,0,0,0,0,0,0,0,0,0,0,0,0,0,0,0,0,0,0,0,0,0,0,0,0,0,0,0,0,0,0,0,0,0,0,0,0,0,0,0,0,0,0,0,0,0,0,0,0,0,0,0,0,0,0,0,0,0,0,0,0,0,0,0,0,0,0,0,0,0,0,0,0,0,0,0,0,0,0,0,0,0,0,0,0,0,0,0,0,0,0,0,0,0,0,0,0,0,0,0,0,0,0,0,0,0,0,0,0,0,0,0,0,0,0,0,0,0,0,0,0,0,0,0,0,0,0,0,0,0,0,0,0,0,0,0,0,0,0,0,0,0,0,0,0,0,0,0,0,0,0,0,0,0,0,0,0,
8835,0,0,0,0,0,0,0,0,0,0,0,0,8852,0,0,0,0,0,0,0,0,0,0,0,0,0,0,0,0,0,0,0,0,0,0,0,0,0,0,0,0,0,0,0,0,0,0,0,0,0,0,0,0,0,0,0,0,0,0,0,0,0,0,8835,0,0,0,0,0,0,0,0,0,0,0,0,0,0,8852,0,0,0,0,0,0,0,0,0,0,0,0,0,0,0,0,0,0,0,0,0,0,0,0,0,0,0,0,0,0,0,0,0,0,0,0,0,0,0,0,0,0,0,0,0,0,0,0,0,0,0,0,0,0,0,0,0,0,0,0,0,0,0,0,0,0,0,0,0,0,0,0,0,0,0,0,0,0,0,0,0,0,0,0,0,0,0,0,0,0,0,0,0,0,0,0,0,0,0,0,0,0,0,0,0,0,0,0,0,0,0,0,0,0,0,0,0,0,0,0,0,0,0,0,0,0,0,0,0,0,0,0,0,0,0,0,0,0,0,0,0,0,0,0,0,0,0,0,0,0,0,0,0,0,0,0,0,0,0,0,0,0,0,0,0,0,0,0,0,0,0,0,0,0,0,0,
8707,0,0,0,0,0,0,0,0,0,0,0,0,8724,0,0,0,0,0,0,0,0,0,0,0,0,0,0,0,0,0,0,0,0,0,0,0,0,0,0,0,0,0,0,0,0,0,0,0,0,0,0,0,0,0,0,0,0,0,0,0,0,0,0,8707,0,0,0,0,0,0,0,0,0,0,0,0,0,0,8724,0,0,0,0,0,0,0,0,0,0,0,0,0,0,0,0,0,0,0,0,0,0,0,0,0,0,0,0,0,0,0,0,0,0,0,0,0,0,0,0,0,0,0,0,0,0,0,0,0,0,0,0,0,0,0,0,0,0,0,0,0,0,0,0,0,0,0,0,0,0,0,0,0,0,0,0,0,0,0,0,0,0,0,0,0,0,0,0,0,0,0,0,0,0,0,0,0,0,0,0,0,0,0,0,0,0,0,0,0,0,0,0,0,0,0,0,0,0,0,0,0,0,0,0,0,0,0,0,0,0,0,0,0,0,0,0,0,0,0,0,0,0,0,0,0,0,0,0,0,0,0,0,0,0,0,0,0,0,0,0,0,0,0,0,0,0,0,0,0,0,0,0,0,0,0,0,
8835,0,0,0,0,0,0,0,0,0,0,0,0,8852,0,0,0,0,0,0,0,0,0,0,0,0,0,0,0,0,0,0,0,0,0,0,0,0,0,0,0,0,0,0,0,0,0,0,0,0,0,0,0,0,0,0,0,0,0,0,0,0,0,0,8835,0,0,0,0,0,0,0,0,0,0,0,0,0,0,8852,0,0,0,0,0,0,0,0,0,0,0,0,0,0,0,0,0,0,0,0,0,0,0,0,0,0,0,0,0,0,0,0,0,0,0,0,0,0,0,0,0,0,0,0,0,0,0,0,0,0,0,0,0,0,0,0,0,0,0,0,0,0,0,0,0,0,0,0,0,0,0,0,0,0,0,0,0,0,0,0,0,0,0,0,0,0,0,0,0,0,0,0,0,0,0,0,0,0,0,0,0,0,0,0,0,0,0,0,0,0,0,0,0,0,0,0,0,0,0,0,0,0,0,0,0,0,0,0,0,0,0,0,0,0,0,0,0,0,0,0,0,0,0,0,0,0,0,0,0,0,0,0,0,0,0,0,0,0,0,0,0,0,0,0,0,0,0,0,0,0,0,0,0,0,0,0,
8707,0,0,0,0,0,0,0,0,0,0,0,0,8724,0,0,0,0,0,0,0,0,0,0,0,0,0,0,0,0,0,0,0,0,0,0,0,0,0,0,0,0,0,0,0,0,0,0,0,0,0,0,0,0,0,0,0,0,0,0,0,0,0,0,8707,0,0,0,0,0,0,0,0,0,0,0,0,0,0,8724,0,0,0,0,0,0,0,0,0,0,0,0,0,0,0,0,0,0,0,0,0,0,0,0,0,0,0,0,0,0,0,0,0,0,0,0,0,0,0,0,0,0,0,0,0,0,0,0,0,0,0,0,0,0,0,0,0,0,0,0,0,0,0,0,0,0,0,0,0,0,0,0,0,0,0,0,0,0,0,0,0,0,0,0,0,0,0,0,0,0,0,0,0,0,0,0,0,0,0,0,0,0,0,0,0,0,0,0,0,0,0,0,0,0,0,0,0,0,0,0,0,0,0,0,0,0,0,0,0,0,0,0,0,0,0,0,0,0,0,0,0,0,0,0,0,0,0,0,0,0,0,0,0,0,0,0,0,0,0,0,0,0,0,0,0,0,0,0,0,0,0,0,0,0,0,0,
8835,0,0,0,0,0,0,0,0,0,0,0,0,8852,0,0,0,0,0,0,0,0,0,0,0,0,0,0,0,0,0,0,0,0,0,0,0,0,0,0,0,0,0,0,0,0,0,0,0,0,0,0,0,0,0,0,0,0,0,0,0,0,0,0,8835,0,0,0,0,0,0,0,0,0,0,0,0,0,0,8852,0,0,0,0,0,0,0,0,0,0,0,0,0,0,0,0,0,0,0,0,0,0,0,0,0,0,0,0,0,0,0,0,0,0,0,0,0,0,0,0,0,0,0,0,0,0,0,0,0,0,0,0,0,0,0,0,0,0,0,0,0,0,0,0,0,0,0,0,0,0,0,0,0,0,0,0,0,0,0,0,0,0,0,0,0,0,0,0,0,0,0,0,0,0,0,0,0,0,0,0,0,0,0,0,0,0,0,0,0,0,0,0,0,0,0,0,0,0,0,0,0,0,0,0,0,0,0,0,0,0,0,0,0,0,0,0,0,0,0,0,0,0,0,0,0,0,0,0,0,0,0,0,0,0,0,0,0,0,0,0,0,0,0,0,0,0,0,0,0,0,0,0,0,0,0,0,
9731,10758,10763,10764,10763,10764,10763,10764,10763,10764,0,0,10769,10770,0,0,0,0,0,0,0,0,0,0,0,0,0,0,0,0,0,0,0,0,0,0,0,0,0,0,0,0,0,0,0,0,0,0,0,0,0,0,0,0,0,0,0,0,0,0,0,0,0,0,8963,0,0,0,0,0,0,0,0,0,0,0,0,0,0,8724,0,0,0,0,0,0,0,0,0,0,0,0,0,0,0,0,0,0,0,0,0,0,0,0,0,0,0,0,0,0,0,0,0,0,0,0,0,0,0,0,0,0,0,0,0,0,0,0,0,0,0,0,0,0,0,0,0,0,0,0,0,0,0,0,0,0,0,0,0,0,0,0,0,0,0,0,0,0,0,0,0,0,0,0,0,0,0,0,0,0,0,0,0,0,0,0,0,0,0,0,0,0,0,0,0,0,0,0,0,0,0,0,0,0,0,0,0,0,0,0,0,0,0,0,0,0,0,0,0,0,0,0,0,0,0,0,0,0,0,0,0,0,0,0,0,0,0,0,0,0,0,0,0,0,0,0,0,0,0,0,0,0,0,0,0,0,0,0,0,0,0,0,0,0,0,0,
9603,10886,10891,10892,10891,10892,10891,10892,10891,10892,0,0,10897,10898,0,0,0,0,0,0,0,0,0,0,0,0,0,0,0,0,0,0,0,0,0,0,0,0,0,0,0,0,0,0,0,0,0,0,0,0,0,0,0,0,0,0,0,0,0,0,0,0,0,0,9091,0,0,0,0,0,0,0,0,0,0,0,0,0,0,8852,0,0,0,0,0,0,0,0,0,0,0,0,0,0,0,0,0,0,0,0,0,0,0,0,0,0,0,0,0,0,0,0,0,0,0,0,0,0,0,0,0,0,0,0,0,0,0,0,0,0,0,0,0,0,0,0,0,0,0,0,0,0,0,0,0,0,0,0,0,0,0,0,0,0,0,0,0,0,0,0,0,0,0,0,0,0,0,0,0,0,0,0,0,0,0,0,0,0,0,0,0,0,0,0,0,0,0,0,0,0,0,0,0,0,0,0,0,0,0,0,0,0,0,0,0,0,0,0,0,0,0,0,0,0,0,0,0,0,0,0,0,0,0,0,0,0,0,0,0,0,0,0,0,0,0,0,0,0,0,0,0,0,0,0,0,0,0,0,0,0,0,0,0,0,0,0,
8707,0,0,0,0,0,0,0,0,0,0,0,0,0,0,0,0,0,0,0,0,0,0,0,0,0,0,0,0,0,0,0,0,0,0,0,0,0,0,0,0,0,0,0,0,0,0,0,0,0,0,0,0,0,0,0,0,0,0,0,0,0,0,0,0,0,0,0,0,0,0,0,0,0,0,0,0,0,0,8724,0,0,0,0,0,0,0,0,0,0,0,0,0,0,0,0,0,0,0,0,0,0,0,0,0,0,0,0,0,0,0,0,0,0,0,0,0,0,0,0,0,0,0,0,0,0,0,0,0,0,0,0,0,0,0,0,0,0,0,0,0,0,0,0,0,0,0,0,0,0,0,0,0,0,0,0,0,0,0,0,0,0,0,0,0,0,0,0,0,0,0,0,0,0,0,0,0,0,0,0,0,0,0,0,0,0,0,0,0,0,0,0,0,0,0,0,0,0,0,0,0,0,0,0,0,0,0,0,0,0,0,0,0,0,0,0,0,0,0,0,0,0,0,0,0,0,0,0,0,0,0,0,0,0,0,0,0,0,0,0,0,0,0,0,0,0,0,0,0,0,0,0,0,0,0,0,
8835,0,0,0,0,0,0,0,0,0,0,0,0,0,0,0,0,0,0,0,0,0,0,0,0,0,0,0,0,0,0,0,0,0,0,0,0,0,0,0,0,0,0,0,0,0,0,0,0,0,0,0,0,0,0,0,0,0,0,0,0,0,0,0,0,0,0,0,0,0,0,0,0,0,0,0,0,0,0,8852,0,0,0,0,0,0,0,0,0,0,0,0,0,0,0,0,0,0,0,0,0,0,0,0,0,0,0,0,0,0,0,0,0,0,0,0,0,0,0,0,0,0,0,0,0,0,0,0,0,0,0,0,0,0,0,0,0,0,0,0,0,0,0,0,0,0,0,0,0,0,0,0,0,0,0,0,0,0,0,0,0,0,0,0,0,0,0,0,0,0,0,0,0,0,0,0,0,0,0,0,0,0,0,0,0,0,0,0,0,0,0,0,0,0,0,0,0,0,0,0,0,0,0,0,0,0,0,0,0,0,0,0,0,0,0,0,0,0,0,0,0,0,0,0,0,0,0,0,0,0,0,0,0,0,0,0,0,0,0,0,0,0,0,0,0,0,0,0,0,0,0,0,0,0,0,0,
8707,0,0,0,0,0,0,0,0,0,0,0,0,0,0,0,0,0,0,0,0,0,0,0,0,0,0,0,0,0,0,0,0,0,0,0,0,0,0,0,0,0,0,0,0,0,0,0,0,0,8197,8198,8203,8204,8203,8204,10763,10764,10763,10764,10763,10764,10763,10764,0,0,0,0,0,0,0,0,0,0,0,0,0,0,0,8724,0,0,0,0,0,0,0,0,0,0,0,0,0,0,0,0,0,0,0,0,0,0,0,0,0,0,0,0,0,0,0,0,0,0,0,0,0,0,0,0,0,0,0,0,0,0,0,0,0,0,0,0,0,0,0,0,0,0,0,0,0,0,0,0,0,0,0,0,0,0,0,0,0,0,0,0,0,0,0,0,0,0,0,0,0,0,0,0,0,0,0,0,0,0,0,0,0,0,0,0,0,0,0,0,0,0,0,0,0,0,0,0,0,0,0,0,0,0,0,0,0,0,0,0,0,0,0,0,0,0,0,0,0,0,0,0,0,0,0,0,0,0,0,0,0,0,0,0,0,0,0,0,0,0,0,0,0,0,0,0,0,0,0,0,0,0,0,0,0,0,0,0,0,0,0,0,
8835,0,0,0,0,0,0,0,0,0,0,0,0,0,0,0,0,0,0,0,0,0,0,0,0,0,0,0,0,0,0,0,0,0,0,0,0,0,0,0,0,0,0,0,0,0,0,0,0,0,8325,8326,8331,8332,8331,8332,10891,10892,10891,10892,10891,10892,10891,10892,0,0,0,0,0,0,0,0,0,0,0,0,0,0,0,8852,0,0,0,0,0,0,0,0,0,0,0,0,0,0,0,0,0,0,0,0,0,0,0,0,0,0,0,0,0,0,0,0,0,0,0,0,0,0,0,0,0,0,0,0,0,0,0,0,0,0,0,0,0,0,0,0,0,0,0,0,0,0,0,0,0,0,0,0,0,0,0,0,0,0,0,0,0,0,0,0,0,0,0,0,0,0,0,0,0,0,0,0,0,0,0,0,0,0,0,0,0,0,0,0,0,0,0,0,0,0,0,0,0,0,0,0,0,0,0,0,0,0,0,0,0,0,0,0,0,0,0,0,0,0,0,0,0,0,0,0,0,0,0,0,0,0,0,0,0,0,0,0,0,0,0,0,0,0,0,0,0,0,0,0,0,0,0,0,0,0,0,0,0,0,0,0,
8707,0,0,0,11555,11556,11307,11308,11307,11308,11307,11308,11313,11314,0,0,0,0,0,0,0,0,0,0,0,0,0,0,0,0,0,0,0,0,0,0,0,0,0,0,0,0,0,0,0,0,0,0,0,0,10757,10758,10763,10764,10763,10764,10763,10764,10763,10764,10763,10764,10763,10764,0,0,0,0,0,0,0,0,0,0,0,0,0,0,0,8724,0,0,0,0,0,0,0,0,0,0,0,0,0,0,0,0,0,0,0,0,0,0,0,0,0,0,0,0,0,0,0,0,0,0,0,0,0,0,0,0,0,0,0,0,0,0,0,0,0,0,0,0,0,0,0,0,0,0,0,0,0,0,0,0,0,0,0,0,0,0,0,0,0,0,0,0,0,0,0,0,0,0,0,0,0,0,0,0,0,0,0,0,0,0,0,0,0,0,0,0,0,0,0,0,0,0,0,0,0,0,0,0,0,0,0,0,0,0,0,0,0,0,0,0,0,0,0,0,0,0,0,0,0,0,0,0,0,0,0,0,0,0,0,0,0,0,0,0,0,0,0,0,0,0,0,0,0,0,0,0,0,0,0,0,0,0,0,0,0,0,0,0,0,0,0,0,
8835,0,0,0,11683,11684,11435,11436,11435,11436,11435,11436,11441,11442,0,0,0,0,0,0,0,0,0,0,0,0,0,0,0,0,0,0,0,0,0,0,0,0,0,0,0,0,0,0,0,0,0,0,0,0,10885,10886,10891,10892,10891,10892,10891,10892,10891,10892,10891,10892,10891,10892,0,0,0,0,0,0,0,0,0,0,0,0,0,0,0,8852,0,0,0,0,0,0,0,0,0,0,0,0,0,0,0,0,0,0,0,0,0,0,0,0,0,0,0,0,0,0,0,0,0,0,0,0,0,0,0,0,0,0,0,0,0,0,0,0,0,0,0,0,0,0,0,0,0,0,0,0,0,0,0,0,0,0,0,0,0,0,0,0,0,0,0,0,0,0,0,0,0,0,0,0,0,0,0,0,0,0,0,0,0,0,0,0,0,0,0,0,0,0,0,0,0,0,0,0,0,0,0,0,0,0,0,0,0,0,0,0,0,0,0,0,0,0,0,0,0,0,0,0,0,0,0,0,0,0,0,0,0,0,0,0,0,0,0,0,0,0,0,0,0,0,0,0,0,0,0,0,0,0,0,0,0,0,0,0,0,0,0,0,0,0,0,0,
8707,0,0,0,8707,0,0,0,0,0,0,0,0,8724,0,0,8197,8198,8203,8204,8209,8210,0,0,0,0,0,0,0,0,0,0,0,0,0,0,0,0,0,0,0,0,0,0,0,0,0,0,0,0,0,0,0,0,0,0,0,0,0,0,0,0,0,0,0,0,0,0,0,0,0,0,0,0,0,0,0,0,0,8724,0,0,0,0,0,0,0,0,0,0,0,0,0,0,0,0,0,0,0,0,0,0,0,0,0,0,0,0,0,0,0,0,0,0,0,0,0,0,0,0,0,0,0,0,0,0,0,0,0,0,0,0,0,0,0,0,0,0,0,0,0,0,0,0,0,0,0,0,0,0,0,0,0,0,0,0,0,0,0,0,0,0,0,0,0,0,0,0,0,0,0,0,0,0,0,0,0,0,0,0,0,0,0,0,0,0,0,0,0,0,0,0,0,0,0,0,0,0,0,0,0,0,0,0,0,0,0,0,0,0,0,0,0,0,0,0,0,0,0,0,0,0,0,0,0,0,0,0,0,0,0,0,0,0,0,0,0,0,0,0,0,0,0,0,0,0,0,0,0,0,0,0,0,0,0,0,
8835,0,0,0,8835,0,0,0,0,0,0,0,0,8852,0,0,8325,8326,8331,8332,8337,8338,0,0,0,0,0,0,0,0,0,0,0,0,0,0,0,0,0,0,0,0,0,0,0,0,0,0,0,0,0,0,0,0,0,0,0,0,0,0,0,0,0,0,0,0,0,0,0,0,0,0,0,0,0,0,0,0,0,8852,0,0,0,0,0,0,0,0,0,0,0,0,0,0,0,0,0,0,0,0,0,0,0,0,0,0,0,0,0,0,0,0,0,0,0,0,0,0,0,0,0,0,0,0,0,0,0,0,0,0,0,0,0,0,0,0,0,0,0,0,0,0,0,0,0,0,0,0,0,0,0,0,0,0,0,0,0,0,0,0,0,0,0,0,0,0,0,0,0,0,0,0,0,0,0,0,0,0,0,0,0,0,0,0,0,0,0,0,0,0,0,0,0,0,0,0,0,0,0,0,0,0,0,0,0,0,0,0,0,0,0,0,0,0,0,0,0,0,0,0,0,0,0,0,0,0,0,0,0,0,0,0,0,0,0,0,0,0,0,0,0,0,0,0,0,0,0,0,0,0,0,0,0,0,0,0,
8707,0,0,0,10757,10758,11273,11274,11275,11276,11277,11278,10767,10768,8203,8204,8453,0,0,0,0,8724,0,0,0,0,0,0,0,0,0,0,0,0,0,0,0,0,0,0,0,0,0,0,0,0,0,0,0,0,8197,8198,0,0,0,0,0,0,0,0,0,0,0,0,0,0,0,0,0,0,0,0,0,0,0,0,0,0,0,8724,0,0,0,0,0,0,0,0,0,0,0,0,0,0,0,0,0,0,0,0,0,0,0,0,0,0,0,0,0,0,0,0,0,0,0,0,0,0,0,0,0,0,0,0,0,0,0,0,0,0,0,0,0,0,0,0,0,0,0,0,0,0,0,0,0,0,0,0,0,0,0,0,0,0,0,0,0,0,0,0,0,0,0,0,0,0,0,0,0,0,0,0,0,0,0,0,0,0,0,0,0,0,0,0,0,0,0,0,0,0,0,0,0,0,0,0,0,0,0,0,0,0,0,0,0,0,0,0,0,0,0,0,0,0,0,0,0,0,0,0,0,0,0,0,0,0,0,0,0,0,0,0,0,0,0,0,0,0,0,0,0,0,0,0,0,0,0,0,0,0,0,0,0,0,0,0,
8835,0,0,0,10885,10886,11401,11402,11403,11404,11405,11406,8331,8332,8331,8332,8581,0,0,0,0,8852,0,0,0,0,0,0,0,0,0,0,0,0,0,0,0,0,0,0,0,0,0,0,0,0,0,0,0,0,8325,8326,0,0,0,0,0,0,0,0,0,0,0,0,0,0,0,0,0,0,0,0,0,0,0,0,0,0,0,8852,0,0,0,0,0,0,0,0,0,0,0,0,0,0,0,0,0,0,0,0,0,0,0,0,0,0,0,0,0,0,0,0,0,0,0,0,0,0,0,0,0,0,0,0,0,0,0,0,0,0,0,0,0,0,0,0,0,0,0,0,0,0,0,0,0,0,0,0,0,0,0,0,0,0,0,0,0,0,0,0,0,0,0,0,0,0,0,0,0,0,0,0,0,0,0,0,0,0,0,0,0,0,0,0,0,0,0,0,0,0,0,0,0,0,0,0,0,0,0,0,0,0,0,0,0,0,0,0,0,0,0,0,0,0,0,0,0,0,0,0,0,0,0,0,0,0,0,0,0,0,0,0,0,0,0,0,0,0,0,0,0,0,0,0,0,0,0,0,0,0,0,0,0,0,0,0,
8707,0,0,0,0,0,8707,0,0,0,0,8464,0,0,0,0,0,0,0,0,0,8724,0,0,0,0,0,0,0,0,0,0,0,0,0,0,0,0,0,0,0,0,0,0,0,0,0,0,0,0,8707,0,0,0,0,0,0,0,0,0,0,0,0,0,0,0,0,0,0,0,0,0,0,0,0,0,0,0,0,8724,0,0,0,0,0,0,0,0,0,0,0,0,0,0,0,0,0,0,0,0,0,0,0,0,0,0,0,0,0,0,0,0,0,0,0,0,0,0,0,0,0,0,0,0,0,0,0,0,0,0,0,0,0,0,0,0,0,0,0,0,0,0,0,0,0,0,0,0,0,0,0,0,0,0,0,0,0,0,0,0,0,0,0,0,0,0,0,0,0,0,0,0,0,0,0,0,0,0,0,0,0,0,0,0,0,0,0,0,0,0,0,0,0,0,0,0,0,0,0,0,0,0,0,0,0,0,0,0,0,0,0,0,0,0,0,0,0,0,0,0,0,0,0,0,0,0,0,0,0,0,0,0,0,0,0,0,0,0,0,0,0,0,0,0,0,0,0,0,0,0,0,0,0,0,0,0,
8835,0,0,0,0,0,8835,0,0,0,0,8592,0,0,0,0,0,0,0,0,0,8852,0,0,0,0,0,0,0,0,0,0,0,0,0,0,0,0,0,0,0,0,0,0,0,0,0,0,0,0,8835,0,0,0,0,0,0,0,0,0,0,0,0,0,0,0,0,0,0,0,0,0,0,0,0,0,0,0,0,8852,0,0,0,0,0,0,0,0,0,0,0,0,0,0,0,0,0,0,0,0,0,0,0,0,0,0,0,0,0,0,0,0,0,0,0,0,0,0,0,0,0,0,0,0,0,0,0,0,0,0,0,0,0,0,0,0,0,0,0,0,0,0,0,0,0,0,0,0,0,0,0,0,0,0,0,0,0,0,0,0,0,0,0,0,0,0,0,0,0,0,0,0,0,0,0,0,0,0,0,0,0,0,0,0,0,0,0,0,0,0,0,0,0,0,0,0,0,0,0,0,0,0,0,0,0,0,0,0,0,0,0,0,0,0,0,0,0,0,0,0,0,0,0,0,0,0,0,0,0,0,0,0,0,0,0,0,0,0,0,0,0,0,0,0,0,0,0,0,0,0,0,0,0,0,0,0,
8707,0,0,0,0,0,8707,0,0,0,0,0,0,0,0,0,0,0,0,0,0,8724,0,0,0,0,0,0,0,0,0,0,0,0,0,0,0,0,0,0,0,0,0,0,0,0,0,0,0,0,8707,0,0,0,0,0,0,0,0,0,0,0,0,0,0,0,0,0,0,0,0,0,0,0,0,0,0,0,0,8724,0,0,0,0,0,0,0,0,0,0,0,0,0,0,0,0,0,0,0,0,0,0,0,0,0,0,0,0,0,0,0,0,0,0,0,0,0,0,0,0,0,0,0,0,0,0,0,0,0,0,0,0,0,0,0,0,0,0,0,0,0,0,0,0,0,0,0,0,0,0,0,0,0,0,0,0,0,0,0,0,0,0,0,0,0,0,0,0,0,0,0,0,0,0,0,0,0,0,0,0,0,0,0,0,0,0,0,0,0,0,0,0,0,0,0,0,0,0,0,0,0,0,0,0,0,0,0,0,0,0,0,0,0,0,0,0,0,0,0,0,0,0,0,0,0,0,0,0,0,0,0,0,0,0,0,0,0,0,0,0,0,0,0,0,0,0,0,0,0,0,0,0,0,0,0,0,
8835,0,0,0,0,0,8835,0,0,0,0,0,0,0,0,0,0,0,0,0,0,8852,0,0,0,0,0,0,0,0,0,0,0,0,0,0,0,0,0,0,0,0,0,0,0,0,0,0,0,0,8835,0,0,0,0,0,0,0,0,0,0,0,0,0,0,0,0,0,0,0,0,0,0,0,0,0,0,0,0,8852,0,0,0,0,0,0,0,0,0,0,0,0,0,0,0,0,0,0,0,0,0,0,0,0,0,0,0,0,0,0,0,0,0,0,0,0,0,0,0,0,0,0,0,0,0,0,0,0,0,0,0,0,0,0,0,0,0,0,0,0,0,0,0,0,0,0,0,0,0,0,0,0,0,0,0,0,0,0,0,0,0,0,0,0,0,0,0,0,0,0,0,0,0,0,0,0,0,0,0,0,0,0,0,0,0,0,0,0,0,0,0,0,0,0,0,0,0,0,0,0,0,0,0,0,0,0,0,0,0,0,0,0,0,0,0,0,0,0,0,0,0,0,0,0,0,0,0,0,0,0,0,0,0,0,0,0,0,0,0,0,0,0,0,0,0,0,0,0,0,0,0,0,0,0,0,0,
8707,0,0,0,0,0,8707,0,0,0,0,0,0,0,0,0,0,0,0,0,0,8724,0,0,0,0,0,0,0,0,0,0,0,0,0,0,0,0,0,0,0,0,0,0,0,0,0,0,0,0,8707,0,0,0,0,0,0,0,0,0,0,0,0,0,0,0,0,0,0,0,0,0,0,0,0,0,0,0,0,8724,0,0,0,0,0,0,0,0,0,0,0,0,0,0,0,0,0,0,0,0,0,0,0,0,0,0,0,0,0,0,0,0,0,0,0,0,0,0,0,0,0,0,0,0,0,0,0,0,0,0,0,0,0,0,0,0,0,0,0,0,0,0,0,0,0,0,0,0,0,0,0,0,0,0,0,0,0,0,0,0,0,0,0,0,0,0,0,0,0,0,0,0,0,0,0,0,0,0,0,0,0,0,0,0,0,0,0,0,0,0,0,0,0,0,0,0,0,0,0,0,0,0,0,0,0,0,0,0,0,0,0,0,0,0,0,0,0,0,0,0,0,0,0,0,0,0,0,0,0,0,0,0,0,0,0,0,0,0,0,0,0,0,0,0,0,0,0,0,0,0,0,0,0,0,0,0,
8835,0,0,0,0,0,8835,0,0,0,0,0,0,0,0,0,0,0,0,0,0,8852,0,0,0,0,0,0,0,0,0,0,0,0,0,0,0,0,0,0,0,0,0,0,0,0,0,0,0,0,8835,0,0,0,0,0,0,0,0,0,0,0,0,0,0,0,0,0,0,0,0,0,0,0,0,0,0,0,0,8852,0,0,0,0,0,0,0,0,0,0,0,0,0,0,0,0,0,0,0,0,0,0,0,0,0,0,0,0,0,0,0,0,0,0,0,0,0,0,0,0,0,0,0,0,0,0,0,0,0,0,0,0,0,0,0,0,0,0,0,0,0,0,0,0,0,0,0,0,0,0,0,0,0,0,0,0,0,0,0,0,0,0,0,0,0,0,0,0,0,0,0,0,0,0,0,0,0,0,0,0,0,0,0,0,0,0,0,0,0,0,0,0,0,0,0,0,0,0,0,0,0,0,0,0,0,0,0,0,0,0,0,0,0,0,0,0,0,0,0,0,0,0,0,0,0,0,0,0,0,0,0,0,0,0,0,0,0,0,0,0,0,0,0,0,0,0,0,0,0,0,0,0,0,0,0,0,
8707,0,0,0,0,0,8707,0,0,0,0,0,0,0,0,10514,10795,10796,0,0,10801,10802,0,0,0,0,0,0,0,0,0,0,0,0,0,0,0,0,0,0,0,0,0,0,0,0,0,0,0,0,8707,0,0,0,0,0,0,0,0,0,0,0,0,0,0,0,0,0,0,0,0,0,0,0,0,0,0,0,0,8724,0,0,0,0,0,0,0,0,0,0,0,0,0,0,0,0,0,0,0,0,0,0,0,0,0,0,0,0,0,0,0,0,0,0,0,0,0,0,0,0,0,0,0,0,0,0,0,0,0,0,0,0,0,0,0,0,0,0,0,0,0,0,0,0,0,0,0,0,0,0,0,0,0,0,0,0,0,0,0,0,0,0,0,0,0,0,0,0,0,0,0,0,0,0,0,0,0,0,0,0,0,0,0,0,0,0,0,0,0,0,0,0,0,0,0,0,0,0,0,0,0,0,0,0,0,0,0,0,0,0,0,0,0,0,0,0,0,0,0,0,0,0,0,0,0,0,0,0,0,0,0,0,0,0,0,0,0,0,0,0,0,0,0,0,0,0,0,0,0,0,0,0,0,0,0,0,
8835,0,0,0,0,0,8835,0,0,0,0,0,0,0,0,10642,10923,10924,0,0,10929,10930,0,0,0,0,0,0,0,0,0,0,0,0,0,0,0,0,0,0,0,0,0,0,0,0,0,0,0,0,8835,0,0,0,0,0,0,0,0,0,0,0,0,0,0,0,0,0,0,0,0,0,0,0,0,0,0,0,0,8852,0,0,0,0,0,0,0,0,0,0,0,0,0,0,0,0,0,0,0,0,0,0,0,0,0,0,0,0,0,0,0,0,0,0,0,0,0,0,0,0,0,0,0,0,0,0,0,0,0,0,0,0,0,0,0,0,0,0,0,0,0,0,0,0,0,0,0,0,0,0,0,0,0,0,0,0,0,0,0,0,0,0,0,0,0,0,0,0,0,0,0,0,0,0,0,0,0,0,0,0,0,0,0,0,0,0,0,0,0,0,0,0,0,0,0,0,0,0,0,0,0,0,0,0,0,0,0,0,0,0,0,0,0,0,0,0,0,0,0,0,0,0,0,0,0,0,0,0,0,0,0,0,0,0,0,0,0,0,0,0,0,0,0,0,0,0,0,0,0,0,0,0,0,0,0,0,
8707,0,0,0,0,0,10757,10758,10763,10764,10763,10764,10763,10764,10769,10770,0,0,0,0,0,0,0,0,0,0,0,0,0,0,0,0,0,0,0,0,0,0,0,0,8197,8198,8203,8204,8203,8204,8207,8208,8203,8204,10759,10760,10763,10764,10763,10764,10763,10764,10763,10764,10763,10764,10763,10764,8207,8208,10763,10764,10763,10764,10763,10764,10763,10764,0,0,10763,10764,10515,10516,0,0,0,0,0,0,0,0,0,0,0,0,0,0,0,0,0,0,0,0,0,0,0,0,0,0,0,0,0,0,0,0,0,0,0,0,0,0,0,0,0,0,0,0,0,0,0,0,0,0,0,0,0,0,0,0,0,0,0,0,0,0,0,0,0,0,0,0,0,0,0,0,0,0,0,0,0,0,0,0,0,0,0,0,0,0,0,0,0,0,0,0,0,0,0,0,0,0,0,0,0,0,0,0,0,0,0,0,0,0,0,0,0,0,0,0,0,0,0,0,0,0,0,0,0,0,0,0,0,0,0,0,0,0,0,0,0,0,0,0,0,0,0,0,0,0,0,0,0,0,0,0,0,0,0,0,0,0,0,0,0,0,0,0,0,0,0,0,0,0,0,0,0,0,0,0,
8835,0,0,0,0,0,10885,10886,10891,10892,10891,10892,10891,10892,10897,10898,0,0,0,0,0,0,0,0,0,0,0,0,0,0,0,0,0,0,0,0,0,0,0,0,8325,8326,8331,8332,8331,8332,8335,8336,8331,8332,10887,10888,10891,10892,10891,10892,10891,10892,10891,10892,10891,10892,10891,10892,8335,8336,10891,10892,10891,10892,10891,10892,10891,10892,0,0,10891,10892,10643,10644,0,0,0,0,0,0,0,0,0,0,0,0,0,0,0,0,0,0,0,0,0,0,0,0,0,0,0,0,0,0,0,0,0,0,0,0,0,0,0,0,0,0,0,0,0,0,0,0,0,0,0,0,0,0,0,0,0,0,0,0,0,0,0,0,0,0,0,0,0,0,0,0,0,0,0,0,0,0,0,0,0,0,0,0,0,0,0,0,0,0,0,0,0,0,0,0,0,0,0,0,0,0,0,0,0,0,0,0,0,0,0,0,0,0,0,0,0,0,0,0,0,0,0,0,0,0,0,0,0,0,0,0,0,0,0,0,0,0,0,0,0,0,0,0,0,0,0,0,0,0,0,0,0,0,0,0,0,0,0,0,0,0,0,0,0,0,0,0,0,0,0,0,0,0,0,0,
8707,0,0,0,0,0,0,0,0,0,0,0,0,0,0,0,0,0,0,0,8197,8198,8209,8210,0,0,0,0,8203,8204,8203,8204,8203,8204,8203,8204,8203,8204,8203,8204,8453,0,0,0,0,0,8723,8724,0,0,0,0,0,0,0,0,0,0,0,0,0,0,0,0,0,8724,0,0,0,0,0,0,0,0,0,0,0,0,0,0,0,0,0,0,0,0,0,0,0,0,0,0,0,0,0,0,0,0,0,0,0,0,0,0,0,0,0,0,0,0,0,0,0,0,0,0,0,0,0,0,0,0,0,0,0,0,0,0,0,0,0,0,0,0,0,0,0,0,0,0,0,0,0,0,0,0,0,0,0,0,0,0,0,0,0,0,0,0,0,0,0,0,0,0,0,0,0,0,0,0,0,0,0,0,0,0,0,0,0,0,0,0,0,0,0,0,0,0,0,0,0,0,0,0,0,0,0,0,0,0,0,0,0,0,0,0,0,0,0,0,0,0,0,0,0,0,0,0,0,0,0,0,0,0,0,0,0,0,0,0,0,0,0,0,0,0,0,0,0,0,0,0,0,0,0,0,0,0,0,0,0,0,0,0,0,0,
8835,0,0,0,0,0,0,0,0,0,0,0,0,0,0,0,0,0,0,0,8325,8326,8337,8338,0,0,0,0,8331,8332,8331,8332,8331,8332,8331,8332,8331,8332,8331,8332,8581,0,0,0,0,0,8851,8852,0,0,0,0,0,0,0,0,0,0,0,0,0,0,0,0,0,8852,0,0,0,0,0,0,0,0,0,0,0,0,0,0,0,0,0,0,0,0,0,0,0,0,0,0,0,0,0,0,0,0,0,0,0,0,0,0,0,0,0,0,0,0,0,0,0,0,0,0,0,0,0,0,0,0,0,0,0,0,0,0,0,0,0,0,0,0,0,0,0,0,0,0,0,0,0,0,0,0,0,0,0,0,0,0,0,0,0,0,0,0,0,0,0,0,0,0,0,0,0,0,0,0,0,0,0,0,0,0,0,0,0,0,0,0,0,0,0,0,0,0,0,0,0,0,0,0,0,0,0,0,0,0,0,0,0,0,0,0,0,0,0,0,0,0,0,0,0,0,0,0,0,0,0,0,0,0,0,0,0,0,0,0,0,0,0,0,0,0,0,0,0,0,0,0,0,0,0,0,0,0,0,0,0,0,0,0,0,0,
8707,0,0,0,0,0,0,0,0,0,0,0,0,0,0,0,0,0,0,0,8707,0,0,8724,0,0,0,0,0,0,0,0,0,0,0,0,0,0,0,0,0,0,0,0,0,0,8723,8724,0,0,0,0,0,0,0,0,0,0,0,0,0,0,0,0,0,8724,0,0,0,0,0,0,0,0,0,0,0,0,0,0,0,0,0,0,0,0,0,0,0,0,0,0,0,0,0,0,0,0,0,0,0,0,0,0,0,0,0,0,0,0,0,0,0,0,0,0,0,0,0,0,0,0,0,0,0,0,0,0,0,0,0,0,0,0,0,0,0,0,0,0,0,0,0,0,0,0,0,0,0,0,0,0,0,0,0,0,0,0,0,0,0,0,0,0,0,0,0,0,0,0,0,0,0,0,0,0,0,0,0,0,0,0,0,0,0,0,0,0,0,0,0,0,0,0,0,0,0,0,0,0,0,0,0,0,0,0,0,0,0,0,0,0,0,0,0,0,0,0,0,0,0,0,0,0,0,0,0,0,0,0,0,0,0,0,0,0,0,0,0,0,0,0,0,0,0,0,0,0,0,0,0,0,0,0,0,0,
8835,0,0,0,0,0,0,0,0,0,0,0,0,0,0,0,0,0,0,0,8835,0,0,8852,0,0,0,0,0,0,0,0,0,0,0,0,0,0,0,0,0,0,0,0,0,0,8851,8852,0,0,0,0,0,0,0,0,0,0,0,0,0,0,0,0,0,8852,0,0,0,0,0,0,0,0,0,0,0,0,0,0,0,0,0,0,0,0,0,0,0,0,0,0,0,0,0,0,0,0,0,0,0,0,0,0,0,0,0,0,0,0,0,0,0,0,0,0,0,0,0,0,0,0,0,0,0,0,0,0,0,0,0,0,0,0,0,0,0,0,0,0,0,0,0,0,0,0,0,0,0,0,0,0,0,0,0,0,0,0,0,0,0,0,0,0,0,0,0,0,0,0,0,0,0,0,0,0,0,0,0,0,0,0,0,0,0,0,0,0,0,0,0,0,0,0,0,0,0,0,0,0,0,0,0,0,0,0,0,0,0,0,0,0,0,0,0,0,0,0,0,0,0,0,0,0,0,0,0,0,0,0,0,0,0,0,0,0,0,0,0,0,0,0,0,0,0,0,0,0,0,0,0,0,0,0,0,0,
8707,0,0,0,0,0,0,0,0,0,0,0,0,0,0,0,0,0,0,0,8707,0,0,8724,0,0,0,0,0,0,0,0,0,0,0,0,0,0,0,0,0,0,0,0,0,0,8723,8724,0,0,0,0,0,0,0,0,0,0,0,0,0,0,0,0,0,8724,0,0,0,0,0,0,0,0,0,0,0,0,0,0,0,0,0,0,0,0,0,0,0,0,0,0,0,0,0,0,0,0,0,0,0,0,0,0,0,0,0,0,0,0,0,0,0,0,0,0,0,0,0,0,0,0,0,0,0,0,0,0,0,0,0,0,0,0,0,0,0,0,0,0,0,0,0,0,0,0,0,0,0,0,0,0,0,0,0,0,0,0,0,0,0,0,0,0,0,0,0,0,0,0,0,0,0,0,0,0,0,0,0,0,0,0,0,0,0,0,0,0,0,0,0,0,0,0,0,0,0,0,0,0,0,0,0,0,0,0,0,0,0,0,0,0,0,0,0,0,0,0,0,0,0,0,0,0,0,0,0,0,0,0,0,0,0,0,0,0,0,0,0,0,0,0,0,0,0,0,0,0,0,0,0,0,0,0,0,0,
8835,0,0,0,0,0,0,0,0,0,0,0,0,0,0,0,0,0,0,0,8835,0,0,8852,0,0,0,0,0,0,0,0,0,0,0,0,0,0,0,0,0,0,0,0,0,0,8851,8852,0,0,0,0,0,0,0,0,0,0,0,0,0,0,0,0,0,8852,0,0,0,0,0,0,0,0,0,0,0,0,0,0,0,0,0,0,0,0,0,0,0,0,0,0,0,0,0,0,0,0,0,0,0,0,0,0,0,0,0,0,0,0,0,0,0,0,0,0,0,0,0,0,0,0,0,0,0,0,0,0,0,0,0,0,0,0,0,0,0,0,0,0,0,0,0,0,0,0,0,0,0,0,0,0,0,0,0,0,0,0,0,0,0,0,0,0,0,0,0,0,0,0,0,0,0,0,0,0,0,0,0,0,0,0,0,0,0,0,0,0,0,0,0,0,0,0,0,0,0,0,0,0,0,0,0,0,0,0,0,0,0,0,0,0,0,0,0,0,0,0,0,0,0,0,0,0,0,0,0,0,0,0,0,0,0,0,0,0,0,0,0,0,0,0,0,0,0,0,0,0,0,0,0,0,0,0,0,0,
8707,0,0,0,0,0,0,0,0,0,0,0,0,0,0,0,0,0,0,0,8707,0,0,8724,0,0,0,0,0,0,0,0,0,0,0,0,0,0,0,0,0,0,0,0,0,0,8723,8724,0,0,0,0,0,0,0,0,0,0,0,0,0,0,0,0,0,8724,0,0,0,0,0,0,0,0,0,0,0,0,0,0,0,0,0,0,0,0,0,0,0,0,0,0,0,0,0,0,0,0,0,0,0,0,0,0,0,0,0,0,0,0,0,0,0,0,0,0,0,0,0,0,0,0,0,0,0,0,0,0,0,0,0,0,0,0,0,0,0,0,0,0,0,0,0,0,0,0,0,0,0,0,0,0,0,0,0,0,0,0,0,0,0,0,0,0,0,0,0,0,0,0,0,0,0,0,0,0,0,0,0,0,0,0,0,0,0,0,0,0,0,0,0,0,0,0,0,0,0,0,0,0,0,0,0,0,0,0,0,0,0,0,0,0,0,0,0,0,0,0,0,0,0,0,0,0,0,0,0,0,0,0,0,0,0,0,0,0,0,0,0,0,0,0,0,0,0,0,0,0,0,0,0,0,0,0,0,0,
8835,0,0,0,0,0,0,0,0,0,0,0,0,0,0,0,0,0,0,0,8835,0,0,8852,0,0,0,0,0,0,0,0,0,0,0,0,0,0,0,0,0,0,0,0,0,0,8851,8852,0,0,0,0,0,0,0,0,0,0,0,0,0,0,0,0,0,8852,0,0,0,0,0,0,0,0,0,0,0,0,0,0,0,0,0,0,0,0,0,0,0,0,0,0,0,0,0,0,0,0,0,0,0,0,0,0,0,0,0,0,0,0,0,0,0,0,0,0,0,0,0,0,0,0,0,0,0,0,0,0,0,0,0,0,0,0,0,0,0,0,0,0,0,0,0,0,0,0,0,0,0,0,0,0,0,0,0,0,0,0,0,0,0,0,0,0,0,0,0,0,0,0,0,0,0,0,0,0,0,0,0,0,0,0,0,0,0,0,0,0,0,0,0,0,0,0,0,0,0,0,0,0,0,0,0,0,0,0,0,0,0,0,0,0,0,0,0,0,0,0,0,0,0,0,0,0,0,0,0,0,0,0,0,0,0,0,0,0,0,0,0,0,0,0,0,0,0,0,0,0,0,0,0,0,0,0,0,0,
8707,0,0,0,0,0,0,0,0,0,0,0,0,0,0,0,0,0,0,0,8707,0,0,8724,0,0,0,0,0,0,0,0,0,0,0,0,0,0,0,0,0,0,0,0,0,0,8723,8724,0,0,0,0,0,0,0,0,0,0,0,0,0,0,0,0,0,8724,0,0,0,0,0,0,0,0,0,0,0,0,0,0,0,0,0,0,0,0,0,0,0,0,0,0,0,0,0,0,0,0,0,0,0,0,0,0,0,0,0,0,0,0,0,0,0,0,0,0,0,0,0,0,0,0,0,0,0,0,0,0,0,0,0,0,0,0,0,0,0,0,0,0,0,0,0,0,0,0,0,0,0,0,0,0,0,0,0,0,0,0,0,0,0,0,0,0,0,0,0,0,0,0,0,0,0,0,0,0,0,0,0,0,0,0,0,0,0,0,0,0,0,0,0,0,0,0,0,0,0,0,0,0,0,0,0,0,0,0,0,0,0,0,0,0,0,0,0,0,0,0,0,0,0,0,0,0,0,0,0,0,0,0,0,0,0,0,0,0,0,0,0,0,0,0,0,0,0,0,0,0,0,0,0,0,0,0,0,0,
8835,0,0,0,0,0,0,0,0,0,0,0,0,0,0,0,0,0,0,0,8835,0,0,8852,0,0,0,0,0,0,0,0,0,0,0,0,0,0,0,0,0,0,0,0,0,0,8851,8852,0,0,0,0,0,0,0,0,0,0,0,0,0,0,0,0,0,8852,0,0,0,0,0,0,0,0,0,0,0,0,0,0,0,0,0,0,0,0,0,0,0,0,0,0,0,0,0,0,0,0,0,0,0,0,0,0,0,0,0,0,0,0,0,0,0,0,0,0,0,0,0,0,0,0,0,0,0,0,0,0,0,0,0,0,0,0,0,0,0,0,0,0,0,0,0,0,0,0,0,0,0,0,0,0,0,0,0,0,0,0,0,0,0,0,0,0,0,0,0,0,0,0,0,0,0,0,0,0,0,0,0,0,0,0,0,0,0,0,0,0,0,0,0,0,0,0,0,0,0,0,0,0,0,0,0,0,0,0,0,0,0,0,0,0,0,0,0,0,0,0,0,0,0,0,0,0,0,0,0,0,0,0,0,0,0,0,0,0,0,0,0,0,0,0,0,0,0,0,0,0,0,0,0,0,0,0,0,0,
8707,0,0,0,0,0,0,0,0,0,0,0,0,0,0,0,0,0,0,0,8707,0,0,8724,0,0,0,0,0,0,0,0,0,0,0,0,0,0,0,0,0,0,0,0,0,0,8723,8724,0,0,0,0,0,0,0,0,0,0,0,0,0,0,0,0,0,8724,0,0,0,0,0,0,0,0,0,0,0,0,0,0,0,0,0,0,0,0,0,0,0,0,0,0,0,0,0,0,0,0,0,0,0,0,0,0,0,0,0,0,0,0,0,0,0,0,0,0,0,0,0,0,0,0,0,0,0,0,0,0,0,0,0,0,0,0,0,0,0,0,0,0,0,0,0,0,0,0,0,0,0,0,0,0,0,0,0,0,0,0,0,0,0,0,0,0,0,0,0,0,0,0,0,0,0,0,0,0,0,0,0,0,0,0,0,0,0,0,0,0,0,0,0,0,0,0,0,0,0,0,0,0,0,0,0,0,0,0,0,0,0,0,0,0,0,0,0,0,0,0,0,0,0,0,0,0,0,0,0,0,0,0,0,0,0,0,0,0,0,0,0,0,0,0,0,0,0,0,0,0,0,0,0,0,0,0,0,0,
8835,0,0,0,0,0,0,0,0,0,0,0,0,0,0,0,0,0,0,0,8835,0,0,8852,0,0,0,0,0,0,0,0,0,0,0,0,0,0,0,0,0,0,0,0,0,0,8851,8852,0,0,0,0,0,0,0,0,0,0,0,0,0,0,0,0,0,8852,0,0,0,0,0,0,0,0,0,0,0,0,0,0,0,0,0,0,0,0,0,0,0,0,0,0,0,0,0,0,0,0,0,0,0,0,0,0,0,0,0,0,0,0,0,0,0,0,0,0,0,0,0,0,0,0,0,0,0,0,0,0,0,0,0,0,0,0,0,0,0,0,0,0,0,0,0,0,0,0,0,0,0,0,0,0,0,0,0,0,0,0,0,0,0,0,0,0,0,0,0,0,0,0,0,0,0,0,0,0,0,0,0,0,0,0,0,0,0,0,0,0,0,0,0,0,0,0,0,0,0,0,0,0,0,0,0,0,0,0,0,0,0,0,0,0,0,0,0,0,0,0,0,0,0,0,0,0,0,0,0,0,0,0,0,0,0,0,0,0,0,0,0,0,0,0,0,0,0,0,0,0,0,0,0,0,0,0,0,0,
9731,9476,8203,8204,8203,8204,8203,8204,8203,8204,8203,8204,8203,8204,8203,8204,8203,8204,0,0,8707,0,0,8724,0,0,0,0,0,0,0,0,0,0,0,0,0,0,0,0,0,0,0,0,0,0,8723,8724,0,0,0,0,0,0,0,0,0,0,0,0,0,0,0,0,0,8724,0,0,0,0,0,0,0,0,0,0,0,0,0,0,0,0,0,0,0,0,0,0,0,0,0,0,0,0,0,0,0,0,0,0,0,0,0,0,0,0,0,0,0,0,0,0,0,0,0,0,0,0,0,0,0,0,0,0,0,0,0,0,0,0,0,0,0,0,0,0,0,0,0,0,0,0,0,0,0,0,0,0,0,0,0,0,0,0,0,0,0,0,0,0,0,0,0,0,0,0,0,0,0,0,0,0,0,0,0,0,0,0,0,0,0,0,0,0,0,0,0,0,0,0,0,0,0,0,0,0,0,0,0,0,0,0,0,0,0,0,0,0,0,0,0,0,0,0,0,0,0,0,0,0,0,0,0,0,0,0,0,0,0,0,0,0,0,0,0,0,0,0,0,0,0,0,0,0,0,0,0,0,0,0,0,0,0,0,0,0,
9603,9604,8331,8332,8331,8332,8331,8332,8331,8332,8331,8332,8331,8332,8331,8332,8331,8332,0,0,8835,0,0,8852,0,0,0,0,0,0,0,0,0,0,0,0,0,0,0,0,0,0,0,0,0,0,8851,8852,0,0,0,0,0,0,0,0,0,0,0,0,0,0,0,0,0,8852,0,0,0,0,0,0,0,0,0,0,0,0,0,0,0,0,0,0,0,0,0,0,0,0,0,0,0,0,0,0,0,0,0,0,0,0,0,0,0,0,0,0,0,0,0,0,0,0,0,0,0,0,0,0,0,0,0,0,0,0,0,0,0,0,0,0,0,0,0,0,0,0,0,0,0,0,0,0,0,0,0,0,0,0,0,0,0,0,0,0,0,0,0,0,0,0,0,0,0,0,0,0,0,0,0,0,0,0,0,0,0,0,0,0,0,0,0,0,0,0,0,0,0,0,0,0,0,0,0,0,0,0,0,0,0,0,0,0,0,0,0,0,0,0,0,0,0,0,0,0,0,0,0,0,0,0,0,0,0,0,0,0,0,0,0,0,0,0,0,0,0,0,0,0,0,0,0,0,0,0,0,0,0,0,0,0,0,0,0,0,
8707,0,0,0,0,0,0,0,0,0,0,0,0,0,0,0,0,0,0,0,10757,10758,10767,10768,8203,8204,8203,8204,8207,8208,8203,8204,8199,8200,10763,10764,10763,10764,10763,10764,10763,10764,10763,10764,10763,10764,10515,9492,10763,10764,10763,10764,10763,10764,10763,10764,0,0,10763,10764,10763,10764,10763,10764,9747,9748,0,0,0,0,0,0,0,0,0,0,0,0,0,0,0,0,0,0,0,0,0,0,0,0,0,0,0,0,0,0,0,0,0,0,0,0,0,0,0,0,0,0,0,0,0,0,0,0,0,0,0,0,0,0,0,0,0,0,0,0,0,0,0,0,0,0,0,0,0,0,0,0,0,0,0,0,0,0,0,0,0,0,0,0,0,0,0,0,0,0,0,0,0,0,0,0,0,0,0,0,0,0,0,0,0,0,0,0,0,0,0,0,0,0,0,0,0,0,0,0,0,0,0,0,0,0,0,0,0,0,0,0,0,0,0,0,0,0,0,0,0,0,0,0,0,0,0,0,0,0,0,0,0,0,0,0,0,0,0,0,0,0,0,0,0,0,0,0,0,0,0,0,0,0,0,0,0,0,0,0,0,0,0,0,0,0,0,0,0,0,
8835,0,0,0,0,0,0,0,0,0,0,0,0,0,0,0,0,0,0,0,10885,10886,10895,10896,8331,8332,8331,8332,8335,8336,8331,8332,8327,8328,10891,10892,10891,10892,10891,10892,10891,10892,10891,10892,10891,10892,10643,9620,10891,10892,10891,10892,10891,10892,10891,10892,0,0,10891,10892,10891,10892,10891,10892,9875,9876,0,0,0,0,0,0,0,0,0,0,0,0,0,0,0,0,0,0,0,0,0,0,0,0,0,0,0,0,0,0,0,0,0,0,0,0,0,0,0,0,0,0,0,0,0,0,0,0,0,0,0,0,0,0,0,0,0,0,0,0,0,0,0,0,0,0,0,0,0,0,0,0,0,0,0,0,0,0,0,0,0,0,0,0,0,0,0,0,0,0,0,0,0,0,0,0,0,0,0,0,0,0,0,0,0,0,0,0,0,0,0,0,0,0,0,0,0,0,0,0,0,0,0,0,0,0,0,0,0,0,0,0,0,0,0,0,0,0,0,0,0,0,0,0,0,0,0,0,0,0,0,0,0,0,0,0,0,0,0,0,0,0,0,0,0,0,0,0,0,0,0,0,0,0,0,0,0,0,0,0,0,0,0,0,0,0,0,0,0,0,
8707,0,0,0,0,0,0,0,0,0,0,0,0,0,0,0,0,0,0,0,0,0,0,0,0,0,0,0,0,8724,0,0,8707,0,0,0,0,0,0,0,0,0,0,0,0,0,0,8724,0,0,0,0,0,0,0,0,0,0,0,0,0,0,0,0,0,8724,0,0,0,0,0,0,0,0,0,0,0,0,0,0,0,0,0,0,0,0,0,0,0,0,0,0,0,0,0,0,0,0,0,0,0,0,0,0,0,0,0,0,0,0,0,0,0,0,0,0,0,0,0,0,0,0,0,0,0,0,0,0,0,0,0,0,0,0,0,0,0,0,0,0,0,0,0,0,0,0,0,0,0,0,0,0,0,0,0,0,0,0,0,0,0,0,0,0,0,0,0,0,0,0,0,0,0,0,0,0,0,0,0,0,0,0,0,0,0,0,0,0,0,0,0,0,0,0,0,0,0,0,0,0,0,0,0,0,0,0,0,0,0,0,0,0,0,0,0,0,0,0,0,0,0,0,0,0,0,0,0,0,0,0,0,0,0,0,0,0,0,0,0,0,0,0,0,0,0,0,0,0,0,0,0,0,0,0,0,0,
8835,0,0,0,0,0,0,0,0,0,0,0,0,0,0,0,0,0,0,0,0,0,0,0,0,0,0,0,0,8852,0,0,8835,0,0,0,0,0,0,0,0,0,0,0,0,0,0,8852,0,0,0,0,0,0,0,0,0,0,0,0,0,0,0,0,0,8852,0,0,0,0,0,0,0,0,0,0,0,0,0,0,0,0,0,0,0,0,0,0,0,0,0,0,0,0,0,0,0,0,0,0,0,0,0,0,0,0,0,0,0,0,0,0,0,0,0,0,0,0,0,0,0,0,0,0,0,0,0,0,0,0,0,0,0,0,0,0,0,0,0,0,0,0,0,0,0,0,0,0,0,0,0,0,0,0,0,0,0,0,0,0,0,0,0,0,0,0,0,0,0,0,0,0,0,0,0,0,0,0,0,0,0,0,0,0,0,0,0,0,0,0,0,0,0,0,0,0,0,0,0,0,0,0,0,0,0,0,0,0,0,0,0,0,0,0,0,0,0,0,0,0,0,0,0,0,0,0,0,0,0,0,0,0,0,0,0,0,0,0,0,0,0,0,0,0,0,0,0,0,0,0,0,0,0,0,0,0,
8707,0,0,0,0,0,0,0,0,0,0,0,0,0,0,0,0,0,0,0,0,0,0,0,0,0,0,0,0,8724,0,0,8707,0,0,0,0,0,0,0,0,0,0,0,0,0,0,8724,0,0,9219,0,0,0,0,0,0,0,0,0,0,0,0,0,0,8724,0,0,0,0,0,0,0,0,0,0,0,0,0,0,0,0,0,0,0,0,0,0,0,0,0,0,0,0,0,0,0,0,0,0,0,0,0,0,0,0,0,0,0,0,0,0,0,0,0,0,0,0,0,0,0,0,0,0,0,0,0,0,0,0,0,0,0,0,0,0,0,0,0,0,0,0,0,0,0,0,0,0,0,0,0,0,0,0,0,0,0,0,0,0,0,0,0,0,0,0,0,0,0,0,0,0,0,0,0,0,0,0,0,0,0,0,0,0,0,0,0,0,0,0,0,0,0,0,0,0,0,0,0,0,0,0,0,0,0,0,0,0,0,0,0,0,0,0,0,0,0,0,0,0,0,0,0,0,0,0,0,0,0,0,0,0,0,0,0,0,0,0,0,0,0,0,0,0,0,0,0,0,0,0,0,0,0,0,0,0,
8835,0,0,0,0,0,0,0,0,0,0,0,0,0,0,0,0,0,0,0,0,0,0,0,0,0,0,0,0,8852,0,0,8835,0,0,0,0,0,0,0,0,0,0,0,0,0,0,8852,0,0,9347,0,0,0,0,0,0,0,0,0,0,0,0,0,0,8852,0,0,0,0,0,0,0,0,0,0,0,0,0,0,0,0,0,0,0,0,0,0,0,0,0,0,0,0,0,0,0,0,0,0,0,0,0,0,0,0,0,0,0,0,0,0,0,0,0,0,0,0,0,0,0,0,0,0,0,0,0,0,0,0,0,0,0,0,0,0,0,0,0,0,0,0,0,0,0,0,0,0,0,0,0,0,0,0,0,0,0,0,0,0,0,0,0,0,0,0,0,0,0,0,0,0,0,0,0,0,0,0,0,0,0,0,0,0,0,0,0,0,0,0,0,0,0,0,0,0,0,0,0,0,0,0,0,0,0,0,0,0,0,0,0,0,0,0,0,0,0,0,0,0,0,0,0,0,0,0,0,0,0,0,0,0,0,0,0,0,0,0,0,0,0,0,0,0,0,0,0,0,0,0,0,0,0,0,0,0,
8707,0,0,0,0,0,0,0,0,0,0,0,0,0,0,0,0,0,0,0,0,0,0,0,0,0,0,0,0,8724,0,0,8707,0,0,0,0,0,0,0,0,0,0,0,0,0,0,8724,0,0,8707,0,0,0,0,0,0,0,0,0,0,0,0,0,0,8724,0,0,0,0,0,0,0,0,0,0,0,0,0,0,0,0,0,0,0,0,0,0,0,0,0,0,0,0,0,0,0,0,0,0,0,0,0,0,0,0,0,0,0,0,0,0,0,0,0,0,0,0,0,0,0,0,0,0,0,0,0,0,0,0,0,0,0,0,0,0,0,0,0,0,0,0,0,0,0,0,0,0,0,0,0,0,0,0,0,0,0,0,0,0,0,0,0,0,0,0,0,0,0,0,0,0,0,0,0,0,0,0,0,0,0,0,0,0,0,0,0,0,0,0,0,0,0,0,0,0,0,0,0,0,0,0,0,0,0,0,0,0,0,0,0,0,0,0,0,0,0,0,0,0,0,0,0,0,0,0,0,0,0,0,0,0,0,0,0,0,0,0,0,0,0,0,0,0,0,0,0,0,0,0,0,0,0,0,0,0,
8835,0,0,0,0,0,0,0,0,0,0,0,0,0,0,0,0,0,0,0,0,0,0,0,0,0,0,0,0,8852,0,0,8835,0,0,0,0,0,0,0,0,0,0,0,0,0,0,8852,0,0,8835,0,0,0,0,0,0,0,0,0,0,0,0,0,0,8852,0,0,0,0,0,0,0,0,0,0,0,0,0,0,0,0,0,0,0,0,0,0,0,0,0,0,0,0,0,0,0,0,0,0,0,0,0,0,0,0,0,0,0,0,0,0,0,0,0,0,0,0,0,0,0,0,0,0,0,0,0,0,0,0,0,0,0,0,0,0,0,0,0,0,0,0,0,0,0,0,0,0,0,0,0,0,0,0,0,0,0,0,0,0,0,0,0,0,0,0,0,0,0,0,0,0,0,0,0,0,0,0,0,0,0,0,0,0,0,0,0,0,0,0,0,0,0,0,0,0,0,0,0,0,0,0,0,0,0,0,0,0,0,0,0,0,0,0,0,0,0,0,0,0,0,0,0,0,0,0,0,0,0,0,0,0,0,0,0,0,0,0,0,0,0,0,0,0,0,0,0,0,0,0,0,0,0,0,0,0,
8707,0,0,0,0,0,0,0,0,0,0,0,0,0,0,0,0,0,0,0,0,0,0,0,0,0,0,0,0,8724,0,0,8707,0,0,0,0,0,0,0,0,0,0,0,0,0,0,8724,0,0,8707,0,0,0,0,0,0,0,0,0,0,0,0,0,0,8724,0,0,0,0,0,0,0,0,0,0,0,0,0,0,0,0,0,0,0,0,0,0,0,0,0,0,0,0,0,0,0,0,0,0,0,0,0,0,0,0,0,0,0,0,0,0,0,0,0,0,0,0,0,0,0,0,0,0,0,0,0,0,0,0,0,0,0,0,0,0,0,0,0,0,0,0,0,0,0,0,0,0,0,0,0,0,0,0,0,0,0,0,0,0,0,0,0,0,0,0,0,0,0,0,0,0,0,0,0,0,0,0,0,0,0,0,0,0,0,0,0,0,0,0,0,0,0,0,0,0,0,0,0,0,0,0,0,0,0,0,0,0,0,0,0,0,0,0,0,0,0,0,0,0,0,0,0,0,0,0,0,0,0,0,0,0,0,0,0,0,0,0,0,0,0,0,0,0,0,0,0,0,0,0,0,0,0,0,0,0,
8835,0,0,0,0,0,0,0,0,0,0,0,0,0,0,0,0,0,0,0,0,0,0,0,0,0,0,0,0,8852,0,0,8835,0,0,0,0,0,0,0,0,0,0,0,0,0,0,8852,0,0,8835,0,0,0,0,0,0,0,0,0,0,0,0,0,0,8852,0,0,0,0,0,0,0,0,0,0,0,0,0,0,0,0,0,0,0,0,0,0,0,0,0,0,0,0,0,0,0,0,0,0,0,0,0,0,0,0,0,0,0,0,0,0,0,0,0,0,0,0,0,0,0,0,0,0,0,0,0,0,0,0,0,0,0,0,0,0,0,0,0,0,0,0,0,0,0,0,0,0,0,0,0,0,0,0,0,0,0,0,0,0,0,0,0,0,0,0,0,0,0,0,0,0,0,0,0,0,0,0,0,0,0,0,0,0,0,0,0,0,0,0,0,0,0,0,0,0,0,0,0,0,0,0,0,0,0,0,0,0,0,0,0,0,0,0,0,0,0,0,0,0,0,0,0,0,0,0,0,0,0,0,0,0,0,0,0,0,0,0,0,0,0,0,0,0,0,0,0,0,0,0,0,0,0,0,0,0,
8707,0,0,0,0,0,0,0,0,0,0,0,0,0,0,0,0,0,0,0,0,0,0,0,0,0,0,0,0,8724,0,0,8707,0,0,0,0,0,0,0,0,0,0,0,0,0,0,8980,0,0,8707,0,0,0,0,0,0,0,0,0,0,0,0,0,0,8724,0,0,0,0,0,0,0,0,0,0,0,0,0,0,0,0,0,0,0,0,0,0,0,0,0,0,0,0,0,0,0,0,0,0,0,0,0,0,0,0,0,0,0,0,0,0,0,0,0,0,0,0,0,0,0,0,0,0,0,0,0,0,0,0,0,0,0,0,0,0,0,0,0,0,0,0,0,0,0,0,0,0,0,0,0,0,0,0,0,0,0,0,0,0,0,0,0,0,0,0,0,0,0,0,0,0,0,0,0,0,0,0,0,0,0,0,0,0,0,0,0,0,0,0,0,0,0,0,0,0,0,0,0,0,0,0,0,0,0,0,0,0,0,0,0,0,0,0,0,0,0,0,0,0,0,0,0,0,0,0,0,0,0,0,0,0,0,0,0,0,0,0,0,0,0,0,0,0,0,0,0,0,0,0,0,0,0,0,0,0,
8835,0,0,0,0,0,0,0,0,0,0,0,0,0,0,0,0,0,0,0,0,0,0,0,0,0,0,0,0,8852,0,0,8835,0,0,0,0,0,0,0,0,0,0,0,0,0,0,9108,0,0,8835,0,0,0,0,0,0,0,0,0,0,0,0,0,0,8852,0,0,0,0,0,0,0,0,0,0,0,0,0,0,0,0,0,0,0,0,0,0,0,0,0,0,0,0,0,0,0,0,0,0,0,0,0,0,0,0,0,0,0,0,0,0,0,0,0,0,0,0,0,0,0,0,0,0,0,0,0,0,0,0,0,0,0,0,0,0,0,0,0,0,0,0,0,0,0,0,0,0,0,0,0,0,0,0,0,0,0,0,0,0,0,0,0,0,0,0,0,0,0,0,0,0,0,0,0,0,0,0,0,0,0,0,0,0,0,0,0,0,0,0,0,0,0,0,0,0,0,0,0,0,0,0,0,0,0,0,0,0,0,0,0,0,0,0,0,0,0,0,0,0,0,0,0,0,0,0,0,0,0,0,0,0,0,0,0,0,0,0,0,0,0,0,0,0,0,0,0,0,0,0,0,0,0,0,0,0,
8707,0,0,0,0,0,0,0,0,0,0,0,0,0,0,0,0,0,0,0,0,0,0,0,0,0,0,0,0,8724,0,0,8707,0,0,0,0,0,0,0,0,0,0,0,0,0,0,0,0,0,8707,0,0,0,0,0,0,0,0,0,0,0,0,0,0,8724,0,0,0,0,0,0,0,0,0,0,0,0,0,0,0,0,0,0,0,0,0,0,0,0,0,0,0,0,0,0,0,0,0,0,0,0,0,0,0,0,0,0,0,0,0,0,0,0,0,0,0,0,0,0,0,0,0,0,0,0,0,0,0,0,0,0,0,0,0,0,0,0,0,0,0,0,0,0,0,0,0,0,0,0,0,0,0,0,0,0,0,0,0,0,0,0,0,0,0,0,0,0,0,0,0,0,0,0,0,0,0,0,0,0,0,0,0,0,0,0,0,0,0,0,0,0,0,0,0,0,0,0,0,0,0,0,0,0,0,0,0,0,0,0,0,0,0,0,0,0,0,0,0,0,0,0,0,0,0,0,0,0,0,0,0,0,0,0,0,0,0,0,0,0,0,0,0,0,0,0,0,0,0,0,0,0,0,0,0,0,
8835,0,0,0,0,0,0,0,0,0,0,0,0,0,0,0,0,0,0,0,0,0,0,0,0,0,0,0,0,8852,0,0,8835,0,0,0,0,0,0,0,0,0,0,0,0,0,0,0,0,0,8835,0,0,0,0,0,0,0,0,0,0,0,0,0,0,8852,0,0,0,0,0,0,0,0,0,0,0,0,0,0,0,0,0,0,0,0,0,0,0,0,0,0,0,0,0,0,0,0,0,0,0,0,0,0,0,0,0,0,0,0,0,0,0,0,0,0,0,0,0,0,0,0,0,0,0,0,0,0,0,0,0,0,0,0,0,0,0,0,0,0,0,0,0,0,0,0,0,0,0,0,0,0,0,0,0,0,0,0,0,0,0,0,0,0,0,0,0,0,0,0,0,0,0,0,0,0,0,0,0,0,0,0,0,0,0,0,0,0,0,0,0,0,0,0,0,0,0,0,0,0,0,0,0,0,0,0,0,0,0,0,0,0,0,0,0,0,0,0,0,0,0,0,0,0,0,0,0,0,0,0,0,0,0,0,0,0,0,0,0,0,0,0,0,0,0,0,0,0,0,0,0,0,0,0,0,0,
8707,0,0,0,0,0,0,0,0,0,0,0,0,0,0,0,0,0,0,0,0,0,0,0,0,0,0,0,0,8724,0,0,10757,10758,10763,10764,10763,10764,0,0,10763,10764,10763,10764,10763,10764,8207,8208,10763,10764,10759,10760,10763,10764,10763,10764,10763,10764,10763,10764,10763,10764,10763,10764,10769,9748,0,0,0,0,0,0,0,0,0,0,0,0,0,0,0,0,0,0,0,0,0,0,0,0,0,0,0,0,0,0,0,0,0,0,0,0,0,0,0,0,0,0,0,0,0,0,0,0,0,0,0,0,0,0,0,0,0,0,0,0,0,0,0,0,0,0,0,0,0,0,0,0,0,0,0,0,0,0,0,0,0,0,0,0,0,0,0,0,0,0,0,0,0,0,0,0,0,0,0,0,0,0,0,0,0,0,0,0,0,0,0,0,0,0,0,0,0,0,0,0,0,0,0,0,0,0,0,0,0,0,0,0,0,0,0,0,0,0,0,0,0,0,0,0,0,0,0,0,0,0,0,0,0,0,0,0,0,0,0,0,0,0,0,0,0,0,0,0,0,0,0,0,0,0,0,0,0,0,0,0,0,0,0,0,0,0,0,0,0,0,
8835,0,0,0,0,0,0,0,0,0,0,0,0,0,0,0,0,0,0,0,0,0,0,0,0,0,0,0,0,8852,0,0,10885,10886,10891,10892,10891,10892,0,0,10891,10892,10891,10892,10891,10892,8335,8336,10891,10892,10887,10888,10891,10892,10891,10892,10891,10892,10891,10892,10891,10892,10891,10892,10897,9876,0,0,0,0,0,0,0,0,0,0,0,0,0,0,0,0,0,0,0,0,0,0,0,0,0,0,0,0,0,0,0,0,0,0,0,0,0,0,0,0,0,0,0,0,0,0,0,0,0,0,0,0,0,0,0,0,0,0,0,0,0,0,0,0,0,0,0,0,0,0,0,0,0,0,0,0,0,0,0,0,0,0,0,0,0,0,0,0,0,0,0,0,0,0,0,0,0,0,0,0,0,0,0,0,0,0,0,0,0,0,0,0,0,0,0,0,0,0,0,0,0,0,0,0,0,0,0,0,0,0,0,0,0,0,0,0,0,0,0,0,0,0,0,0,0,0,0,0,0,0,0,0,0,0,0,0,0,0,0,0,0,0,0,0,0,0,0,0,0,0,0,0,0,0,0,0,0,0,0,0,0,0,0,0,0,0,0,0,0,0,
8707,0,0,0,0,0,0,0,0,0,0,0,0,0,0,0,0,0,0,0,0,0,0,0,0,0,0,0,0,8724,0,0,0,0,0,0,0,0,0,0,0,0,0,0,0,0,0,8724,0,0,0,0,0,0,0,0,0,0,0,0,0,0,0,0,0,8724,0,0,0,0,0,0,0,0,0,0,0,0,0,0,0,0,0,0,0,0,0,0,0,0,0,0,0,0,0,0,0,0,0,0,0,0,0,0,0,0,0,0,0,0,0,0,0,0,0,0,0,0,0,0,0,0,0,0,0,0,0,0,0,0,0,0,0,0,0,0,0,0,0,0,0,0,0,0,0,0,0,0,0,0,0,0,0,0,0,0,0,0,0,0,0,0,0,0,0,0,0,0,0,0,0,0,0,0,0,0,0,0,0,0,0,0,0,0,0,0,0,0,0,0,0,0,0,0,0,0,0,0,0,0,0,0,0,0,0,0,0,0,0,0,0,0,0,0,0,0,0,0,0,0,0,0,0,0,0,0,0,0,0,0,0,0,0,0,0,0,0,0,0,0,0,0,0,0,0,0,0,0,0,0,0,0,0,0,0,0,
8835,0,0,0,0,0,0,0,0,0,0,0,0,0,0,0,0,0,0,0,0,0,0,0,0,0,0,0,0,8852,0,0,0,0,0,0,0,0,0,0,0,0,0,0,0,0,0,8852,0,0,0,0,0,0,0,0,0,0,0,0,0,0,0,0,0,8852,0,0,0,0,0,0,0,0,0,0,0,0,0,0,0,0,0,0,0,0,0,0,0,0,0,0,0,0,0,0,0,0,0,0,0,0,0,0,0,0,0,0,0,0,0,0,0,0,0,0,0,0,0,0,0,0,0,0,0,0,0,0,0,0,0,0,0,0,0,0,0,0,0,0,0,0,0,0,0,0,0,0,0,0,0,0,0,0,0,0,0,0,0,0,0,0,0,0,0,0,0,0,0,0,0,0,0,0,0,0,0,0,0,0,0,0,0,0,0,0,0,0,0,0,0,0,0,0,0,0,0,0,0,0,0,0,0,0,0,0,0,0,0,0,0,0,0,0,0,0,0,0,0,0,0,0,0,0,0,0,0,0,0,0,0,0,0,0,0,0,0,0,0,0,0,0,0,0,0,0,0,0,0,0,0,0,0,0,0,0,
8707,0,0,0,0,0,0,0,0,0,0,0,0,0,0,0,0,0,0,0,0,0,0,0,0,0,0,0,0,8724,0,0,10503,0,0,0,0,0,0,0,0,0,0,0,0,0,0,8724,0,0,9219,0,0,0,0,0,0,0,0,0,0,0,0,0,0,8724,0,0,0,0,0,0,0,0,0,0,0,0,0,0,0,0,0,0,0,0,0,0,0,0,0,0,0,0,0,0,0,0,0,0,0,0,0,0,0,0,0,0,0,0,0,0,0,0,0,0,0,0,0,0,0,0,0,0,0,0,0,0,0,0,0,0,0,0,0,0,0,0,0,0,0,0,0,0,0,0,0,0,0,0,0,0,0,0,0,0,0,0,0,0,0,0,0,0,0,0,0,0,0,0,0,0,0,0,0,0,0,0,0,0,0,0,0,0,0,0,0,0,0,0,0,0,0,0,0,0,0,0,0,0,0,0,0,0,0,0,0,0,0,0,0,0,0,0,0,0,0,0,0,0,0,0,0,0,0,0,0,0,0,0,0,0,0,0,0,0,0,0,0,0,0,0,0,0,0,0,0,0,0,0,0,0,0,0,0,0,
8835,0,0,0,0,0,0,0,0,0,0,0,0,0,0,0,0,0,0,0,0,0,0,0,0,0,0,0,0,8852,0,0,10631,0,0,0,0,0,0,0,0,0,0,0,0,0,0,8852,0,0,9347,0,0,0,0,0,0,0,0,0,0,0,0,0,0,8852,0,0,0,0,0,0,0,0,0,0,0,0,0,0,0,0,0,0,0,0,0,0,0,0,0,0,0,0,0,0,0,0,0,0,0,0,0,0,0,0,0,0,0,0,0,0,0,0,0,0,0,0,0,0,0,0,0,0,0,0,0,0,0,0,0,0,0,0,0,0,0,0,0,0,0,0,0,0,0,0,0,0,0,0,0,0,0,0,0,0,0,0,0,0,0,0,0,0,0,0,0,0,0,0,0,0,0,0,0,0,0,0,0,0,0,0,0,0,0,0,0,0,0,0,0,0,0,0,0,0,0,0,0,0,0,0,0,0,0,0,0,0,0,0,0,0,0,0,0,0,0,0,0,0,0,0,0,0,0,0,0,0,0,0,0,0,0,0,0,0,0,0,0,0,0,0,0,0,0,0,0,0,0,0,0,0,0,0,0,0,
8707,0,0,0,0,0,0,0,0,0,0,0,0,0,0,0,0,0,0,0,0,0,0,0,0,0,0,0,0,8724,0,0,8707,0,0,0,0,0,0,0,0,0,0,0,0,0,0,8724,0,0,8707,0,0,0,0,0,0,0,0,0,0,0,0,0,0,8724,0,0,0,0,0,0,0,0,0,0,0,0,0,0,0,0,0,0,0,0,0,0,0,0,0,0,0,0,0,0,0,0,0,0,0,0,0,0,0,0,0,0,0,0,0,0,0,0,0,0,0,0,0,0,0,0,0,0,0,0,0,0,0,0,0,0,0,0,0,0,0,0,0,0,0,0,0,0,0,0,0,0,0,0,0,0,0,0,0,0,0,0,0,0,0,0,0,0,0,0,0,0,0,0,0,0,0,0,0,0,0,0,0,0,0,0,0,0,0,0,0,0,0,0,0,0,0,0,0,0,0,0,0,0,0,0,0,0,0,0,0,0,0,0,0,0,0,0,0,0,0,0,0,0,0,0,0,0,0,0,0,0,0,0,0,0,0,0,0,0,0,0,0,0,0,0,0,0,0,0,0,0,0,0,0,0,0,0,0,0,
8835,0,0,0,0,0,0,0,0,0,0,0,0,0,0,0,0,0,0,0,0,0,0,0,0,0,0,0,0,8852,0,0,8835,0,0,0,0,0,0,0,0,0,0,0,0,0,0,8852,0,0,8835,0,0,0,0,0,0,0,0,0,0,0,0,0,0,8852,0,0,0,0,0,0,0,0,0,0,0,0,0,0,0,0,0,0,0,0,0,0,0,0,0,0,0,0,0,0,0,0,0,0,0,0,0,0,0,0,0,0,0,0,0,0,0,0,0,0,0,0,0,0,0,0,0,0,0,0,0,0,0,0,0,0,0,0,0,0,0,0,0,0,0,0,0,0,0,0,0,0,0,0,0,0,0,0,0,0,0,0,0,0,0,0,0,0,0,0,0,0,0,0,0,0,0,0,0,0,0,0,0,0,0,0,0,0,0,0,0,0,0,0,0,0,0,0,0,0,0,0,0,0,0,0,0,0,0,0,0,0,0,0,0,0,0,0,0,0,0,0,0,0,0,0,0,0,0,0,0,0,0,0,0,0,0,0,0,0,0,0,0,0,0,0,0,0,0,0,0,0,0,0,0,0,0,0,0,0,
8707,0,0,0,0,0,0,0,0,0,0,0,0,0,0,0,0,0,0,0,0,0,0,0,0,0,0,0,0,8724,0,0,8707,0,0,0,0,0,0,0,0,0,0,0,0,0,0,8724,0,0,8707,0,0,0,0,0,0,0,0,0,0,0,0,0,0,8724,0,0,0,0,0,0,0,0,0,0,0,0,0,0,0,0,0,0,0,0,0,0,0,0,0,0,0,0,0,0,0,0,0,0,0,0,0,0,0,0,0,0,0,0,0,0,0,0,0,0,0,0,0,0,0,0,0,0,0,0,0,0,0,0,0,0,0,0,0,0,0,0,0,0,0,0,0,0,0,0,0,0,0,0,0,0,0,0,0,0,0,0,0,0,0,0,0,0,0,0,0,0,0,0,0,0,0,0,0,0,0,0,0,0,0,0,0,0,0,0,0,0,0,0,0,0,0,0,0,0,0,0,0,0,0,0,0,0,0,0,0,0,0,0,0,0,0,0,0,0,0,0,0,0,0,0,0,0,0,0,0,0,0,0,0,0,0,0,0,0,0,0,0,0,0,0,0,0,0,0,0,0,0,0,0,0,0,0,0,0,
8835,0,0,0,0,0,0,0,0,0,0,0,0,0,0,0,0,0,0,0,0,0,0,0,0,0,0,0,0,8852,0,0,8835,0,0,0,0,0,0,0,0,0,0,0,0,0,0,8852,0,0,8835,0,0,0,0,0,0,0,0,0,0,0,0,0,0,8852,0,0,0,0,0,0,0,0,0,0,0,0,0,0,0,0,0,0,0,0,0,0,0,0,0,0,0,0,0,0,0,0,0,0,0,0,0,0,0,0,0,0,0,0,0,0,0,0,0,0,0,0,0,0,0,0,0,0,0,0,0,0,0,0,0,0,0,0,0,0,0,0,0,0,0,0,0,0,0,0,0,0,0,0,0,0,0,0,0,0,0,0,0,0,0,0,0,0,0,0,0,0,0,0,0,0,0,0,0,0,0,0,0,0,0,0,0,0,0,0,0,0,0,0,0,0,0,0,0,0,0,0,0,0,0,0,0,0,0,0,0,0,0,0,0,0,0,0,0,0,0,0,0,0,0,0,0,0,0,0,0,0,0,0,0,0,0,0,0,0,0,0,0,0,0,0,0,0,0,0,0,0,0,0,0,0,0,0,0,0,
8707,0,0,0,0,0,0,0,0,0,0,0,0,0,0,0,0,0,0,0,0,0,0,0,0,0,0,0,0,8724,0,0,8707,0,0,0,0,0,0,0,0,0,0,0,0,0,0,8724,0,0,8707,0,0,0,0,0,0,0,0,0,0,0,0,0,0,8724,0,0,0,0,0,0,0,0,0,0,0,0,0,0,0,0,0,0,0,0,0,0,0,0,0,0,0,0,0,0,0,0,0,0,0,0,0,0,0,0,0,0,0,0,0,0,0,0,0,0,0,0,0,0,0,0,0,0,0,0,0,0,0,0,0,0,0,0,0,0,0,0,0,0,0,0,0,0,0,0,0,0,0,0,0,0,0,0,0,0,0,0,0,0,0,0,0,0,0,0,0,0,0,0,0,0,0,0,0,0,0,0,0,0,0,0,0,0,0,0,0,0,0,0,0,0,0,0,0,0,0,0,0,0,0,0,0,0,0,0,0,0,0,0,0,0,0,0,0,0,0,0,0,0,0,0,0,0,0,0,0,0,0,0,0,0,0,0,0,0,0,0,0,0,0,0,0,0,0,0,0,0,0,0,0,0,0,0,0,0,
8835,0,0,0,0,0,0,0,0,0,0,0,0,0,0,0,0,0,0,0,0,0,0,0,0,0,0,0,0,8852,0,0,8835,0,0,0,0,0,0,0,0,0,0,0,0,0,0,8852,0,0,8835,0,0,0,0,0,0,0,0,0,0,0,0,0,0,8852,0,0,0,0,0,0,0,0,0,0,0,0,0,0,0,0,0,0,0,0,0,0,0,0,0,0,0,0,0,0,0,0,0,0,0,0,0,0,0,0,0,0,0,0,0,0,0,0,0,0,0,0,0,0,0,0,0,0,0,0,0,0,0,0,0,0,0,0,0,0,0,0,0,0,0,0,0,0,0,0,0,0,0,0,0,0,0,0,0,0,0,0,0,0,0,0,0,0,0,0,0,0,0,0,0,0,0,0,0,0,0,0,0,0,0,0,0,0,0,0,0,0,0,0,0,0,0,0,0,0,0,0,0,0,0,0,0,0,0,0,0,0,0,0,0,0,0,0,0,0,0,0,0,0,0,0,0,0,0,0,0,0,0,0,0,0,0,0,0,0,0,0,0,0,0,0,0,0,0,0,0,0,0,0,0,0,0,0,0,0,
8707,0,0,0,0,0,0,0,0,0,0,0,0,0,0,0,0,0,0,0,0,0,0,0,0,0,0,0,0,8980,0,0,8707,0,0,0,0,0,0,0,0,0,0,0,0,0,0,8980,0,0,8707,0,0,0,0,0,0,0,0,0,0,0,0,0,0,8724,0,0,0,0,0,0,0,0,0,0,0,0,0,0,0,0,0,0,0,0,0,0,0,0,0,0,0,0,0,0,0,0,0,0,0,0,0,0,0,0,0,0,0,0,0,0,0,0,0,0,0,0,0,0,0,0,0,0,0,0,0,0,0,0,0,0,0,0,0,0,0,0,0,0,0,0,0,0,0,0,0,0,0,0,0,0,0,0,0,0,0,0,0,0,0,0,0,0,0,0,0,0,0,0,0,0,0,0,0,0,0,0,0,0,0,0,0,0,0,0,0,0,0,0,0,0,0,0,0,0,0,0,0,0,0,0,0,0,0,0,0,0,0,0,0,0,0,0,0,0,0,0,0,0,0,0,0,0,0,0,0,0,0,0,0,0,0,0,0,0,0,0,0,0,0,0,0,0,0,0,0,0,0,0,0,0,0,0,0,0,
8835,0,0,0,0,0,0,0,0,0,0,0,0,0,0,0,0,0,0,0,0,0,0,0,0,0,0,0,0,9108,0,0,8835,0,0,0,0,0,0,0,0,0,0,0,0,0,0,9108,0,0,8835,0,0,0,0,0,0,0,0,0,0,0,0,0,0,8852,0,0,0,0,0,0,0,0,0,0,0,0,0,0,0,0,0,0,0,0,0,0,0,0,0,0,0,0,0,0,0,0,0,0,0,0,0,0,0,0,0,0,0,0,0,0,0,0,0,0,0,0,0,0,0,0,0,0,0,0,0,0,0,0,0,0,0,0,0,0,0,0,0,0,0,0,0,0,0,0,0,0,0,0,0,0,0,0,0,0,0,0,0,0,0,0,0,0,0,0,0,0,0,0,0,0,0,0,0,0,0,0,0,0,0,0,0,0,0,0,0,0,0,0,0,0,0,0,0,0,0,0,0,0,0,0,0,0,0,0,0,0,0,0,0,0,0,0,0,0,0,0,0,0,0,0,0,0,0,0,0,0,0,0,0,0,0,0,0,0,0,0,0,0,0,0,0,0,0,0,0,0,0,0,0,0,0,0,0,0,
8707,0,0,0,0,0,0,0,0,0,0,0,0,0,0,0,0,0,0,0,0,0,0,0,0,0,0,0,0,0,0,0,8707,0,0,0,0,0,0,0,0,0,0,0,0,0,0,0,0,0,8707,0,0,0,0,0,0,0,0,0,0,0,0,0,0,8724,0,0,0,0,0,0,0,0,0,0,0,0,0,0,0,0,0,0,0,0,0,0,0,0,0,0,0,0,0,0,0,0,0,0,0,0,0,0,0,0,0,0,0,0,0,0,0,0,0,0,0,0,0,0,0,0,0,0,0,0,0,0,0,0,0,0,0,0,0,0,0,0,0,0,0,0,0,0,0,0,0,0,0,0,0,0,0,0,0,0,0,0,0,0,0,0,0,0,0,0,0,0,0,0,0,0,0,0,0,0,0,0,0,0,0,0,0,0,0,0,0,0,0,0,0,0,0,0,0,0,0,0,0,0,0,0,0,0,0,0,0,0,0,0,0,0,0,0,0,0,0,0,0,0,0,0,0,0,0,0,0,0,0,0,0,0,0,0,0,0,0,0,0,0,0,0,0,0,0,0,0,0,0,0,0,0,0,0,0,0,
8835,0,0,0,0,0,0,0,0,0,0,0,0,0,0,0,0,0,0,0,0,0,0,0,0,0,0,0,0,0,0,0,8835,0,0,0,0,0,0,0,0,0,0,0,0,0,0,0,0,0,8835,0,0,0,0,0,0,0,0,0,0,0,0,0,0,8852,0,0,0,0,0,0,0,0,0,0,0,0,0,0,0,0,0,0,0,0,0,0,0,0,0,0,0,0,0,0,0,0,0,0,0,0,0,0,0,0,0,0,0,0,0,0,0,0,0,0,0,0,0,0,0,0,0,0,0,0,0,0,0,0,0,0,0,0,0,0,0,0,0,0,0,0,0,0,0,0,0,0,0,0,0,0,0,0,0,0,0,0,0,0,0,0,0,0,0,0,0,0,0,0,0,0,0,0,0,0,0,0,0,0,0,0,0,0,0,0,0,0,0,0,0,0,0,0,0,0,0,0,0,0,0,0,0,0,0,0,0,0,0,0,0,0,0,0,0,0,0,0,0,0,0,0,0,0,0,0,0,0,0,0,0,0,0,0,0,0,0,0,0,0,0,0,0,0,0,0,0,0,0,0,0,0,0,0,0,0,
9731,9476,8203,8204,8203,8204,8203,8204,8203,8204,8203,8204,8203,8204,8203,8204,8203,8204,10763,10764,10763,10764,10763,10764,10763,10764,10763,10764,10763,10764,10763,10764,10759,10760,10763,10764,10763,10764,10763,10764,10763,10764,10763,10764,10763,10764,10769,10764,8199,8200,8453,0,0,0,0,0,0,0,0,0,0,0,0,0,0,8724,0,0,0,0,0,0,0,0,0,0,0,0,0,0,0,0,0,0,0,0,0,0,0,0,0,0,0,0,0,0,0,0,0,0,0,0,0,0,0,0,0,0,0,0,0,0,0,0,0,0,0,0,0,0,0,0,0,0,0,0,0,0,0,0,0,0,0,0,0,0,0,0,0,0,0,0,0,0,0,0,0,0,0,0,0,0,0,0,0,0,0,0,0,0,0,0,0,0,0,0,0,0,0,0,0,0,0,0,0,0,0,0,0,0,0,0,0,0,0,0,0,0,0,0,0,0,0,0,0,0,0,0,0,0,0,0,0,0,0,0,0,0,0,0,0,0,0,0,0,0,0,0,0,0,0,0,0,0,0,0,0,0,0,0,0,0,0,0,0,0,0,0,0,0,0,0,0,0,0,0,0,0,0,0,0,0,0,0,0,0,
9603,9604,8331,8332,8331,8332,8331,8332,8331,8332,8331,8332,8331,8332,8331,8332,8331,8332,10891,10892,10891,10892,10891,10892,10891,10892,10891,10892,10891,10892,10891,10892,10887,10888,10891,10892,10891,10892,10891,10892,10891,10892,10891,10892,10891,10892,10897,10892,8327,8328,8581,0,0,0,0,0,0,0,0,0,0,0,0,0,0,8852,0,0,0,0,0,0,0,0,0,0,0,0,0,0,0,0,0,0,0,0,0,0,0,0,0,0,0,0,0,0,0,0,0,0,0,0,0,0,0,0,0,0,0,0,0,0,0,0,0,0,0,0,0,0,0,0,0,0,0,0,0,0,0,0,0,0,0,0,0,0,0,0,0,0,0,0,0,0,0,0,0,0,0,0,0,0,0,0,0,0,0,0,0,0,0,0,0,0,0,0,0,0,0,0,0,0,0,0,0,0,0,0,0,0,0,0,0,0,0,0,0,0,0,0,0,0,0,0,0,0,0,0,0,0,0,0,0,0,0,0,0,0,0,0,0,0,0,0,0,0,0,0,0,0,0,0,0,0,0,0,0,0,0,0,0,0,0,0,0,0,0,0,0,0,0,0,0,0,0,0,0,0,0,0,0,0,0,0,0,0,
8707,0,0,0,0,0,0,0,0,0,0,0,0,0,0,0,0,0,0,0,0,0,0,0,0,0,0,0,0,0,0,0,0,0,0,0,0,0,0,0,0,0,0,0,0,0,0,0,8707,0,0,0,0,0,0,0,0,0,0,0,0,0,0,0,0,8724,0,0,0,0,0,0,0,0,0,0,0,0,0,0,0,0,0,0,0,0,0,0,0,0,0,0,0,0,0,0,0,0,0,0,0,0,0,0,0,0,0,0,0,0,0,0,0,0,0,0,0,0,0,0,0,0,0,0,0,0,0,0,0,0,0,0,0,0,0,0,0,0,0,0,0,0,0,0,0,0,0,0,0,0,0,0,0,0,0,0,0,0,0,0,0,0,0,0,0,0,0,0,0,0,0,0,0,0,0,0,0,0,0,0,0,0,0,0,0,0,0,0,0,0,0,0,0,0,0,0,0,0,0,0,0,0,0,0,0,0,0,0,0,0,0,0,0,0,0,0,0,0,0,0,0,0,0,0,0,0,0,0,0,0,0,0,0,0,0,0,0,0,0,0,0,0,0,0,0,0,0,0,0,0,0,0,0,0,0,0,
8835,0,0,0,0,0,0,0,0,0,0,0,0,0,0,0,0,0,0,0,0,0,0,0,0,0,0,0,0,0,0,0,0,0,0,0,0,0,0,0,0,0,0,0,0,0,0,0,8835,0,0,0,0,0,0,0,0,0,0,0,0,0,0,0,0,8852,0,0,0,0,0,0,0,0,0,0,0,0,0,0,0,0,0,0,0,0,0,0,0,0,0,0,0,0,0,0,0,0,0,0,0,0,0,0,0,0,0,0,0,0,0,0,0,0,0,0,0,0,0,0,0,0,0,0,0,0,0,0,0,0,0,0,0,0,0,0,0,0,0,0,0,0,0,0,0,0,0,0,0,0,0,0,0,0,0,0,0,0,0,0,0,0,0,0,0,0,0,0,0,0,0,0,0,0,0,0,0,0,0,0,0,0,0,0,0,0,0,0,0,0,0,0,0,0,0,0,0,0,0,0,0,0,0,0,0,0,0,0,0,0,0,0,0,0,0,0,0,0,0,0,0,0,0,0,0,0,0,0,0,0,0,0,0,0,0,0,0,0,0,0,0,0,0,0,0,0,0,0,0,0,0,0,0,0,0,0,
8707,0,0,0,0,0,0,0,0,0,0,0,0,0,0,0,0,0,0,0,0,0,0,0,0,0,0,0,0,0,0,0,0,0,0,0,0,0,0,0,0,0,0,0,0,0,0,0,8707,0,0,0,0,0,0,0,0,0,0,0,0,0,0,0,0,8724,0,0,0,0,0,0,0,0,0,0,0,0,0,0,0,0,0,0,0,0,0,0,0,0,0,0,0,0,0,0,0,0,0,0,0,0,0,0,0,0,0,0,0,0,0,0,0,0,0,0,0,0,0,0,0,0,0,0,0,0,0,0,0,0,0,0,0,0,0,0,0,0,0,0,0,0,0,0,0,0,0,0,0,0,0,0,0,0,0,0,0,0,0,0,0,0,0,0,0,0,0,0,0,0,0,0,0,0,0,0,0,0,0,0,0,0,0,0,0,0,0,0,0,0,0,0,0,0,0,0,0,0,0,0,0,0,0,0,0,0,0,0,0,0,0,0,0,0,0,0,0,0,0,0,0,0,0,0,0,0,0,0,0,0,0,0,0,0,0,0,0,0,0,0,0,0,0,0,0,0,0,0,0,0,0,0,0,0,0,0,
8835,0,0,0,0,0,0,0,0,0,0,0,0,0,0,0,0,0,0,0,0,0,0,0,0,0,0,0,0,0,0,0,0,0,0,0,0,0,0,0,0,0,0,0,0,0,0,0,8835,0,0,0,0,0,0,0,0,0,0,0,0,0,0,0,0,8852,0,0,0,0,0,0,0,0,0,0,0,0,0,0,0,0,0,0,0,0,0,0,0,0,0,0,0,0,0,0,0,0,0,0,0,0,0,0,0,0,0,0,0,0,0,0,0,0,0,0,0,0,0,0,0,0,0,0,0,0,0,0,0,0,0,0,0,0,0,0,0,0,0,0,0,0,0,0,0,0,0,0,0,0,0,0,0,0,0,0,0,0,0,0,0,0,0,0,0,0,0,0,0,0,0,0,0,0,0,0,0,0,0,0,0,0,0,0,0,0,0,0,0,0,0,0,0,0,0,0,0,0,0,0,0,0,0,0,0,0,0,0,0,0,0,0,0,0,0,0,0,0,0,0,0,0,0,0,0,0,0,0,0,0,0,0,0,0,0,0,0,0,0,0,0,0,0,0,0,0,0,0,0,0,0,0,0,0,0,0,
8707,0,0,0,0,0,0,0,0,0,0,0,0,0,0,0,0,0,0,0,0,0,0,0,0,0,0,0,0,0,0,0,0,0,0,0,0,0,0,0,0,0,0,0,0,0,0,0,8707,0,0,0,0,0,0,0,0,0,0,0,0,0,0,0,0,8724,0,0,0,0,0,0,0,0,0,0,0,0,0,0,0,0,0,0,0,0,0,0,0,0,0,0,0,0,0,0,0,0,0,0,0,0,0,0,0,0,0,0,0,0,0,0,0,0,0,0,0,0,0,0,0,0,0,0,0,0,0,0,0,0,0,0,0,0,0,0,0,0,0,0,0,0,0,0,0,0,0,0,0,0,0,0,0,0,0,0,0,0,0,0,0,0,0,0,0,0,0,0,0,0,0,0,0,0,0,0,0,0,0,0,0,0,0,0,0,0,0,0,0,0,0,0,0,0,0,0,0,0,0,0,0,0,0,0,0,0,0,0,0,0,0,0,0,0,0,0,0,0,0,0,0,0,0,0,0,0,0,0,0,0,0,0,0,0,0,0,0,0,0,0,0,0,0,0,0,0,0,0,0,0,0,0,0,0,0,0,
8835,0,0,0,0,0,0,0,0,0,0,0,0,0,0,0,0,0,0,0,0,0,0,0,0,0,0,0,0,0,0,0,0,0,0,0,0,0,0,0,0,0,0,0,0,0,0,0,8835,0,0,0,0,0,0,0,0,0,0,0,0,0,0,0,0,8852,0,0,0,0,0,0,0,0,0,0,0,0,0,0,0,0,0,0,0,0,0,0,0,0,0,0,0,0,0,0,0,0,0,0,0,0,0,0,0,0,0,0,0,0,0,0,0,0,0,0,0,0,0,0,0,0,0,0,0,0,0,0,0,0,0,0,0,0,0,0,0,0,0,0,0,0,0,0,0,0,0,0,0,0,0,0,0,0,0,0,0,0,0,0,0,0,0,0,0,0,0,0,0,0,0,0,0,0,0,0,0,0,0,0,0,0,0,0,0,0,0,0,0,0,0,0,0,0,0,0,0,0,0,0,0,0,0,0,0,0,0,0,0,0,0,0,0,0,0,0,0,0,0,0,0,0,0,0,0,0,0,0,0,0,0,0,0,0,0,0,0,0,0,0,0,0,0,0,0,0,0,0,0,0,0,0,0,0,0,0,
8707,0,0,0,0,0,0,0,0,0,0,0,0,0,0,0,0,0,0,0,0,0,0,0,0,0,0,0,0,0,0,0,0,0,0,0,0,0,0,0,10763,10764,10763,10764,10763,10764,10763,10764,8707,0,0,0,0,0,0,0,0,0,0,0,0,0,0,0,0,8724,0,0,0,0,0,0,0,0,0,0,0,0,0,0,0,0,0,0,0,0,0,0,0,0,0,0,0,0,0,0,0,0,0,0,0,0,0,0,0,0,0,0,0,0,0,0,0,0,0,0,0,0,0,0,0,0,0,0,0,0,0,0,0,0,0,0,0,0,0,0,0,0,0,0,0,0,0,0,0,0,0,0,0,0,0,0,0,0,0,0,0,0,0,0,0,0,0,0,0,0,0,0,0,0,0,0,0,0,0,0,0,0,0,0,0,0,0,0,0,0,0,0,0,0,0,0,0,0,0,0,0,0,0,0,0,0,0,0,0,0,0,0,0,0,0,0,0,0,0,0,0,0,0,0,0,0,0,0,0,0,0,0,0,0,0,0,0,0,0,0,0,0,0,0,0,0,0,0,0,0,0,0,0,0,0,0,0,0,0,0,
8835,0,0,0,0,0,0,0,0,0,0,0,0,0,0,0,0,0,0,0,0,0,0,0,0,0,0,0,0,0,0,0,0,0,0,0,0,0,0,0,10891,10892,10891,10892,10891,10892,10891,10892,8835,0,0,0,0,0,0,0,0,0,0,0,0,0,0,0,0,8852,0,0,0,0,0,0,0,0,0,0,0,0,0,0,0,0,0,0,0,0,0,0,0,0,0,0,0,0,0,0,0,0,0,0,0,0,0,0,0,0,0,0,0,0,0,0,0,0,0,0,0,0,0,0,0,0,0,0,0,0,0,0,0,0,0,0,0,0,0,0,0,0,0,0,0,0,0,0,0,0,0,0,0,0,0,0,0,0,0,0,0,0,0,0,0,0,0,0,0,0,0,0,0,0,0,0,0,0,0,0,0,0,0,0,0,0,0,0,0,0,0,0,0,0,0,0,0,0,0,0,0,0,0,0,0,0,0,0,0,0,0,0,0,0,0,0,0,0,0,0,0,0,0,0,0,0,0,0,0,0,0,0,0,0,0,0,0,0,0,0,0,0,0,0,0,0,0,0,0,0,0,0,0,0,0,0,0,0,0,0,
8707,0,0,0,0,0,0,0,0,0,0,0,0,0,0,0,0,0,0,0,0,0,0,0,0,0,0,0,0,0,0,0,0,0,0,0,0,0,0,0,0,0,0,0,0,0,0,0,8707,0,0,0,0,0,0,0,0,0,0,0,0,0,0,0,0,8724,0,0,0,0,0,0,0,0,0,0,0,0,0,0,0,0,0,0,0,0,0,0,0,0,0,0,0,0,0,0,0,0,0,0,0,0,0,0,0,0,0,0,0,0,0,0,0,0,0,0,0,0,0,0,0,0,0,0,0,0,0,0,0,0,0,0,0,0,0,0,0,0,0,0,0,0,0,0,0,0,0,0,0,0,0,0,0,0,0,0,0,0,0,0,0,0,0,0,0,0,0,0,0,0,0,0,0,0,0,0,0,0,0,0,0,0,0,0,0,0,0,0,0,0,0,0,0,0,0,0,0,0,0,0,0,0,0,0,0,0,0,0,0,0,0,0,0,0,0,0,0,0,0,0,0,0,0,0,0,0,0,0,0,0,0,0,0,0,0,0,0,0,0,0,0,0,0,0,0,0,0,0,0,0,0,0,0,0,0,0,
8835,0,0,0,0,0,0,0,0,0,0,0,0,0,0,0,0,0,0,0,0,0,0,0,0,0,0,0,0,0,0,0,0,0,0,0,0,0,0,0,0,0,0,0,0,0,0,0,8835,0,0,0,0,0,0,0,0,0,0,0,0,0,0,0,0,8852,0,0,0,0,0,0,0,0,0,0,0,0,0,0,0,0,0,0,0,0,0,0,0,0,0,0,0,0,0,0,0,0,0,0,0,0,0,0,0,0,0,0,0,0,0,0,0,0,0,0,0,0,0,0,0,0,0,0,0,0,0,0,0,0,0,0,0,0,0,0,0,0,0,0,0,0,0,0,0,0,0,0,0,0,0,0,0,0,0,0,0,0,0,0,0,0,0,0,0,0,0,0,0,0,0,0,0,0,0,0,0,0,0,0,0,0,0,0,0,0,0,0,0,0,0,0,0,0,0,0,0,0,0,0,0,0,0,0,0,0,0,0,0,0,0,0,0,0,0,0,0,0,0,0,0,0,0,0,0,0,0,0,0,0,0,0,0,0,0,0,0,0,0,0,0,0,0,0,0,0,0,0,0,0,0,0,0,0,0,0,
8707,0,0,0,0,0,0,0,0,0,0,0,0,0,0,0,0,0,0,0,0,0,0,0,0,0,0,0,0,0,0,0,0,0,0,0,0,0,0,0,0,0,0,0,0,0,0,0,8707,0,0,0,0,0,0,0,0,0,0,0,0,0,0,0,0,8724,0,0,0,0,0,0,0,0,0,0,0,0,0,0,0,0,0,0,0,0,0,0,0,0,0,0,0,0,0,0,0,0,0,0,0,0,0,0,0,0,0,0,0,0,0,0,0,0,0,0,0,0,0,0,0,0,0,0,0,0,0,0,0,0,0,0,0,0,0,0,0,0,0,0,0,0,0,0,0,0,0,0,0,0,0,0,0,0,0,0,0,0,0,0,0,0,0,0,0,0,0,0,0,0,0,0,0,0,0,0,0,0,0,0,0,0,0,0,0,0,0,0,0,0,0,0,0,0,0,0,0,0,0,0,0,0,0,0,0,0,0,0,0,0,0,0,0,0,0,0,0,0,0,0,0,0,0,0,0,0,0,0,0,0,0,0,0,0,0,0,0,0,0,0,0,0,0,0,0,0,0,0,0,0,0,0,0,0,0,0,
8835,0,0,0,0,0,0,0,0,0,0,0,0,0,0,0,0,0,0,0,0,0,0,0,0,0,0,0,0,0,0,0,0,0,0,0,0,0,0,0,0,0,0,0,0,0,0,0,8835,0,0,0,0,0,0,0,0,0,0,0,0,0,0,0,0,8852,0,0,0,0,0,0,0,0,0,0,0,0,0,0,0,0,0,0,0,0,0,0,0,0,0,0,0,0,0,0,0,0,0,0,0,0,0,0,0,0,0,0,0,0,0,0,0,0,0,0,0,0,0,0,0,0,0,0,0,0,0,0,0,0,0,0,0,0,0,0,0,0,0,0,0,0,0,0,0,0,0,0,0,0,0,0,0,0,0,0,0,0,0,0,0,0,0,0,0,0,0,0,0,0,0,0,0,0,0,0,0,0,0,0,0,0,0,0,0,0,0,0,0,0,0,0,0,0,0,0,0,0,0,0,0,0,0,0,0,0,0,0,0,0,0,0,0,0,0,0,0,0,0,0,0,0,0,0,0,0,0,0,0,0,0,0,0,0,0,0,0,0,0,0,0,0,0,0,0,0,0,0,0,0,0,0,0,0,0,0,
9731,9476,10763,10764,10763,10764,10763,10764,10763,10764,10763,10764,10763,10764,10763,10764,10763,10764,10763,10764,0,0,0,0,0,0,0,0,0,0,0,0,0,0,0,0,0,0,0,0,0,0,0,0,0,0,0,0,8707,0,0,0,0,0,0,0,0,0,0,0,0,0,0,0,0,8724,0,0,0,0,0,0,0,0,0,0,0,0,0,0,0,0,0,0,0,0,0,0,0,0,0,0,0,0,0,0,0,0,0,0,0,0,0,0,0,0,0,0,0,0,0,0,0,0,0,0,0,0,0,0,0,0,0,0,0,0,0,0,0,0,0,0,0,0,0,0,0,0,0,0,0,0,0,0,0,0,0,0,0,0,0,0,0,0,0,0,0,0,0,0,0,0,0,0,0,0,0,0,0,0,0,0,0,0,0,0,0,0,0,0,0,0,0,0,0,0,0,0,0,0,0,0,0,0,0,0,0,0,0,0,0,0,0,0,0,0,0,0,0,0,0,0,0,0,0,0,0,0,0,0,0,0,0,0,0,0,0,0,0,0,0,0,0,0,0,0,0,0,0,0,0,0,0,0,0,0,0,0,0,0,0,0,0,0,0,0,
9603,9604,10891,10892,10891,10892,10891,10892,10891,10892,10891,10892,10891,10892,10891,10892,10891,10892,10891,10892,0,0,0,0,0,0,0,0,0,0,0,0,0,0,0,0,0,0,0,0,0,0,0,0,0,0,0,0,8835,0,0,0,0,0,0,0,0,0,0,0,0,0,0,0,0,8852,0,0,0,0,0,0,0,0,0,0,0,0,0,0,0,0,0,0,0,0,0,0,0,0,0,0,0,0,0,0,0,0,0,0,0,0,0,0,0,0,0,0,0,0,0,0,0,0,0,0,0,0,0,0,0,0,0,0,0,0,0,0,0,0,0,0,0,0,0,0,0,0,0,0,0,0,0,0,0,0,0,0,0,0,0,0,0,0,0,0,0,0,0,0,0,0,0,0,0,0,0,0,0,0,0,0,0,0,0,0,0,0,0,0,0,0,0,0,0,0,0,0,0,0,0,0,0,0,0,0,0,0,0,0,0,0,0,0,0,0,0,0,0,0,0,0,0,0,0,0,0,0,0,0,0,0,0,0,0,0,0,0,0,0,0,0,0,0,0,0,0,0,0,0,0,0,0,0,0,0,0,0,0,0,0,0,0,0,0,0,
8707,0,0,0,0,0,0,0,0,0,0,0,0,0,0,0,0,0,0,0,0,0,0,0,0,0,0,0,0,0,0,0,0,0,0,0,0,0,0,0,0,0,0,0,0,0,0,0,8707,0,0,0,0,0,0,0,0,0,0,0,0,0,0,0,0,8724,0,0,0,0,0,0,0,0,0,0,0,0,0,0,0,0,0,0,0,0,0,0,0,0,0,0,0,0,0,0,0,0,0,0,0,0,0,0,0,0,0,0,0,0,0,0,0,0,0,0,0,0,0,0,0,0,0,0,0,0,0,0,0,0,0,0,0,0,0,0,0,0,0,0,0,0,0,0,0,0,0,0,0,0,0,0,0,0,0,0,0,0,0,0,0,0,0,0,0,0,0,0,0,0,0,0,0,0,0,0,0,0,0,0,0,0,0,0,0,0,0,0,0,0,0,0,0,0,0,0,0,0,0,0,0,0,0,0,0,0,0,0,0,0,0,0,0,0,0,0,0,0,0,0,0,0,0,0,0,0,0,0,0,0,0,0,0,0,0,0,0,0,0,0,0,0,0,0,0,0,0,0,0,0,0,0,0,0,0,0,
8835,0,0,0,0,0,0,0,0,0,0,0,0,0,0,0,0,0,0,0,0,0,0,0,0,0,0,0,0,0,0,0,0,0,0,0,0,0,0,0,0,0,0,0,0,0,0,0,8835,0,0,0,0,0,0,0,0,0,0,0,0,0,0,0,0,8852,0,0,0,0,0,0,0,0,0,0,0,0,0,0,0,0,0,0,0,0,0,0,0,0,0,0,0,0,0,0,0,0,0,0,0,0,0,0,0,0,0,0,0,0,0,0,0,0,0,0,0,0,0,0,0,0,0,0,0,0,0,0,0,0,0,0,0,0,0,0,0,0,0,0,0,0,0,0,0,0,0,0,0,0,0,0,0,0,0,0,0,0,0,0,0,0,0,0,0,0,0,0,0,0,0,0,0,0,0,0,0,0,0,0,0,0,0,0,0,0,0,0,0,0,0,0,0,0,0,0,0,0,0,0,0,0,0,0,0,0,0,0,0,0,0,0,0,0,0,0,0,0,0,0,0,0,0,0,0,0,0,0,0,0,0,0,0,0,0,0,0,0,0,0,0,0,0,0,0,0,0,0,0,0,0,0,0,0,0,0,
8707,0,0,0,0,0,0,0,0,0,0,0,0,0,0,0,0,0,0,0,0,0,0,0,0,0,0,0,0,0,0,0,0,0,0,0,0,0,0,0,0,0,0,0,0,0,0,0,8707,0,0,0,0,0,0,0,0,0,0,0,0,0,0,0,0,8724,0,0,0,0,0,0,0,0,0,0,0,0,0,0,0,0,0,0,0,0,0,0,0,0,0,0,0,0,0,0,0,0,0,0,0,0,0,0,0,0,0,0,0,0,0,0,0,0,0,0,0,0,0,0,0,0,0,0,0,0,0,0,0,0,0,0,0,0,0,0,0,0,0,0,0,0,0,0,0,0,0,0,0,0,0,0,0,0,0,0,0,0,0,0,0,0,0,0,0,0,0,0,0,0,0,0,0,0,0,0,0,0,0,0,0,0,0,0,0,0,0,0,0,0,0,0,0,0,0,0,0,0,0,0,0,0,0,0,0,0,0,0,0,0,0,0,0,0,0,0,0,0,0,0,0,0,0,0,0,0,0,0,0,0,0,0,0,0,0,0,0,0,0,0,0,0,0,0,0,0,0,0,0,0,0,0,0,0,0,0,
8835,0,0,0,0,0,0,0,0,0,0,0,0,0,0,0,0,0,0,0,0,0,0,0,0,0,0,0,0,0,0,0,0,0,0,0,0,0,0,0,0,0,0,0,0,0,0,0,8835,0,0,0,0,0,0,0,0,0,0,0,0,0,0,0,0,8852,0,0,0,0,0,0,0,0,0,0,0,0,0,0,0,0,0,0,0,0,0,0,0,0,0,0,0,0,0,0,0,0,0,0,0,0,0,0,0,0,0,0,0,0,0,0,0,0,0,0,0,0,0,0,0,0,0,0,0,0,0,0,0,0,0,0,0,0,0,0,0,0,0,0,0,0,0,0,0,0,0,0,0,0,0,0,0,0,0,0,0,0,0,0,0,0,0,0,0,0,0,0,0,0,0,0,0,0,0,0,0,0,0,0,0,0,0,0,0,0,0,0,0,0,0,0,0,0,0,0,0,0,0,0,0,0,0,0,0,0,0,0,0,0,0,0,0,0,0,0,0,0,0,0,0,0,0,0,0,0,0,0,0,0,0,0,0,0,0,0,0,0,0,0,0,0,0,0,0,0,0,0,0,0,0,0,0,0,0,0,
9731,9476,8203,8204,0,0,8203,8204,8203,8204,8203,8204,8203,8204,8203,8204,8203,8204,8203,8204,8203,8204,8203,8204,8203,8204,8203,8204,8203,8204,8209,8208,8209,8204,8203,8204,8203,8204,8203,8204,8203,8204,0,0,8203,8204,8203,8204,8201,8202,8205,8206,8203,8204,8203,8204,10013,10014,0,0,0,0,8473,8474,10767,10768,8203,8204,8201,8202,8203,8204,8203,8204,8203,8204,8203,8204,8203,8204,8203,8204,10501,0,0,0,0,0,0,0,0,0,0,0,0,0,0,0,0,0,0,0,0,0,0,0,0,0,0,0,0,0,0,0,0,0,0,0,0,0,0,0,0,0,0,0,0,0,0,0,0,0,0,0,0,0,0,0,0,0,0,0,0,0,0,0,0,0,0,0,0,0,0,0,0,0,0,0,0,0,0,0,0,0,0,0,0,0,0,0,0,0,0,0,0,0,0,0,0,0,0,0,0,0,0,0,0,0,0,0,0,0,0,0,0,0,0,0,0,0,0,0,0,0,0,0,0,0,0,0,0,0,0,0,0,0,0,0,0,0,0,0,0,0,0,0,0,0,0,0,0,0,0,0,0,0,0,0,0,0,0,0,0,0,0,0,0,0,0,0,0,0,0,0,0,0,
9603,9604,8331,8332,0,0,8331,8332,8331,8332,8331,8332,8331,8332,8331,8332,8331,8332,8331,8332,8331,8332,8331,8332,8331,8332,8331,8332,8331,8332,8337,8336,8337,8332,8331,8332,8331,8332,8331,8332,8331,8332,0,0,8331,8332,8331,8332,8329,8330,8333,8334,8331,8332,8331,8332,10141,10142,0,0,0,0,8601,8602,10895,10896,8331,8332,8329,8330,8331,8332,8331,8332,8331,8332,8331,8332,8331,8332,8331,8332,10629,0,0,0,0,0,0,0,0,0,0,0,0,0,0,0,0,0,0,0,0,0,0,0,0,0,0,0,0,0,0,0,0,0,0,0,0,0,0,0,0,0,0,0,0,0,0,0,0,0,0,0,0,0,0,0,0,0,0,0,0,0,0,0,0,0,0,0,0,0,0,0,0,0,0,0,0,0,0,0,0,0,0,0,0,0,0,0,0,0,0,0,0,0,0,0,0,0,0,0,0,0,0,0,0,0,0,0,0,0,0,0,0,0,0,0,0,0,0,0,0,0,0,0,0,0,0,0,0,0,0,0,0,0,0,0,0,0,0,0,0,0,0,0,0,0,0,0,0,0,0,0,0,0,0,0,0,0,0,0,0,0,0,0,0,0,0,0,0,0,0,0,0,0,
8707,0,0,0,0,0,0,0,0,0,0,0,0,0,0,0,0,0,0,0,0,0,0,0,0,0,0,0,0,0,0,8724,0,0,0,0,0,0,0,0,0,0,0,0,0,0,0,0,8707,0,0,8724,0,0,0,0,0,0,0,0,0,0,0,0,0,0,0,0,8707,0,0,0,0,0,0,0,0,0,0,0,0,0,8707,0,0,0,0,0,0,0,0,0,0,0,0,0,0,0,0,0,0,0,0,0,0,0,0,0,0,0,0,0,0,0,0,0,0,0,0,0,0,0,0,0,0,0,0,0,0,0,0,0,0,0,0,0,0,0,0,0,0,0,0,0,0,0,0,0,0,0,0,0,0,0,0,0,0,0,0,0,0,0,0,0,0,0,0,0,0,0,0,0,0,0,0,0,0,0,0,0,0,0,0,0,0,0,0,0,0,0,0,0,0,0,0,0,0,0,0,0,0,0,0,0,0,0,0,0,0,0,0,0,0,0,0,0,0,0,0,0,0,0,0,0,0,0,0,0,0,0,0,0,0,0,0,0,0,0,0,0,0,0,0,0,0,0,0,0,0,0,0,0,0,0,0,0,
8835,0,0,0,0,0,0,0,0,0,0,0,0,0,0,0,0,0,0,0,0,0,0,0,0,0,0,0,0,0,0,8852,0,0,0,0,0,0,0,0,0,0,0,0,0,0,0,0,8835,0,0,8852,0,0,0,0,0,0,0,0,0,0,0,0,0,0,0,0,8835,0,0,0,0,0,0,0,0,0,0,0,0,0,8835,0,0,0,0,0,0,0,0,0,0,0,0,0,0,0,0,0,0,0,0,0,0,0,0,0,0,0,0,0,0,0,0,0,0,0,0,0,0,0,0,0,0,0,0,0,0,0,0,0,0,0,0,0,0,0,0,0,0,0,0,0,0,0,0,0,0,0,0,0,0,0,0,0,0,0,0,0,0,0,0,0,0,0,0,0,0,0,0,0,0,0,0,0,0,0,0,0,0,0,0,0,0,0,0,0,0,0,0,0,0,0,0,0,0,0,0,0,0,0,0,0,0,0,0,0,0,0,0,0,0,0,0,0,0,0,0,0,0,0,0,0,0,0,0,0,0,0,0,0,0,0,0,0,0,0,0,0,0,0,0,0,0,0,0,0,0,0,0,0,0,0,0,0,
8707,0,0,0,8197,8198,8203,8204,8203,8204,8203,8204,8203,8204,8203,8204,8203,8204,8203,8204,8203,8204,8203,8204,8203,8204,8467,8468,0,0,0,8724,0,0,0,0,0,0,0,0,0,0,0,0,0,0,0,0,8707,0,0,8724,0,0,0,0,0,0,0,0,0,0,0,0,0,0,0,0,8707,0,0,0,0,0,0,10512,0,0,0,0,0,0,8707,0,0,0,0,0,0,0,0,0,0,0,0,0,0,0,0,0,0,0,0,0,0,0,0,0,0,0,0,0,0,0,0,0,0,0,0,0,0,0,0,0,0,0,0,0,0,0,0,0,0,0,0,0,0,0,0,0,0,0,0,0,0,0,0,0,0,0,0,0,0,0,0,0,0,0,0,0,0,0,0,0,0,0,0,0,0,0,0,0,0,0,0,0,0,0,0,0,0,0,0,0,0,0,0,0,0,0,0,0,0,0,0,0,0,0,0,0,0,0,0,0,0,0,0,0,0,0,0,0,0,0,0,0,0,0,0,0,0,0,0,0,0,0,0,0,0,0,0,0,0,0,0,0,0,0,0,0,0,0,0,0,0,0,0,0,0,0,0,0,0,0,0,0,
8835,0,0,0,8325,8326,8331,8332,8331,8332,8331,8332,8331,8332,8331,8332,8331,8332,8331,8332,8331,8332,8331,8332,8331,8332,8595,8596,0,0,0,8852,0,0,0,0,0,0,0,0,0,0,0,0,0,0,0,0,8835,0,0,8852,0,0,0,0,0,0,0,0,0,0,0,0,0,0,0,0,8835,0,0,0,0,0,0,10640,0,0,0,0,0,0,8835,0,0,0,0,0,0,0,0,0,0,0,0,0,0,0,0,0,0,0,0,0,0,0,0,0,0,0,0,0,0,0,0,0,0,0,0,0,0,0,0,0,0,0,0,0,0,0,0,0,0,0,0,0,0,0,0,0,0,0,0,0,0,0,0,0,0,0,0,0,0,0,0,0,0,0,0,0,0,0,0,0,0,0,0,0,0,0,0,0,0,0,0,0,0,0,0,0,0,0,0,0,0,0,0,0,0,0,0,0,0,0,0,0,0,0,0,0,0,0,0,0,0,0,0,0,0,0,0,0,0,0,0,0,0,0,0,0,0,0,0,0,0,0,0,0,0,0,0,0,0,0,0,0,0,0,0,0,0,0,0,0,0,0,0,0,0,0,0,0,0,0,0,0,
8707,0,0,0,8707,0,0,0,0,0,0,0,0,0,0,0,0,0,0,0,0,0,0,0,0,0,0,8724,0,0,0,8724,0,0,0,0,0,0,0,0,0,0,0,0,0,0,0,0,8707,0,0,8724,0,0,0,0,0,0,0,0,0,0,0,0,0,0,0,0,8707,0,0,0,0,0,0,8724,0,0,0,0,0,0,8707,0,0,0,0,0,0,0,0,0,0,0,0,0,0,0,0,0,0,0,0,0,0,0,0,0,0,0,0,0,0,0,0,0,0,0,0,0,0,0,0,0,0,0,0,0,0,0,0,0,0,0,0,0,0,0,0,0,0,0,0,0,0,0,0,0,0,0,0,0,0,0,0,0,0,0,0,0,0,0,0,0,0,0,0,0,0,0,0,0,0,0,0,0,0,0,0,0,0,0,0,0,0,0,0,0,0,0,0,0,0,0,0,0,0,0,0,0,0,0,0,0,0,0,0,0,0,0,0,0,0,0,0,0,0,0,0,0,0,0,0,0,0,0,0,0,0,0,0,0,0,0,0,0,0,0,0,0,0,0,0,0,0,0,0,0,0,0,0,0,0,0,0,0,
8835,0,0,0,8835,0,0,0,0,0,0,0,0,0,0,0,0,0,0,0,0,0,0,0,0,0,0,8852,0,0,0,8852,0,0,0,0,0,0,0,0,0,0,0,0,0,0,0,0,8835,0,0,8852,0,0,0,0,0,0,0,0,0,0,0,0,0,0,0,0,8835,0,0,0,0,0,0,8852,0,0,0,0,0,0,8835,0,0,0,0,0,0,0,0,0,0,0,0,0,0,0,0,0,0,0,0,0,0,0,0,0,0,0,0,0,0,0,0,0,0,0,0,0,0,0,0,0,0,0,0,0,0,0,0,0,0,0,0,0,0,0,0,0,0,0,0,0,0,0,0,0,0,0,0,0,0,0,0,0,0,0,0,0,0,0,0,0,0,0,0,0,0,0,0,0,0,0,0,0,0,0,0,0,0,0,0,0,0,0,0,0,0,0,0,0,0,0,0,0,0,0,0,0,0,0,0,0,0,0,0,0,0,0,0,0,0,0,0,0,0,0,0,0,0,0,0,0,0,0,0,0,0,0,0,0,0,0,0,0,0,0,0,0,0,0,0,0,0,0,0,0,0,0,0,0,0,0,0,0,
8707,0,0,0,8707,0,0,0,8197,8198,8203,8204,8203,8204,8203,8204,8203,8204,8203,8204,8203,8204,9501,9502,0,0,0,8724,0,0,0,8724,0,0,0,0,0,0,0,0,0,0,0,0,0,0,0,0,8707,0,0,8724,0,0,0,0,0,0,0,0,0,0,0,0,0,0,0,0,8707,0,0,0,0,0,0,8724,0,0,0,0,0,0,8707,0,0,0,0,0,0,0,0,0,0,0,0,0,0,0,0,0,0,0,0,0,0,0,0,0,0,0,0,0,0,0,0,0,0,0,0,0,0,0,0,0,0,0,0,0,0,0,0,0,0,0,0,0,0,0,0,0,0,0,0,0,0,0,0,0,0,0,0,0,0,0,0,0,0,0,0,0,0,0,0,0,0,0,0,0,0,0,0,0,0,0,0,0,0,0,0,0,0,0,0,0,0,0,0,0,0,0,0,0,0,0,0,0,0,0,0,0,0,0,0,0,0,0,0,0,0,0,0,0,0,0,0,0,0,0,0,0,0,0,0,0,0,0,0,0,0,0,0,0,0,0,0,0,0,0,0,0,0,0,0,0,0,0,0,0,0,0,0,0,0,0,0,0,
8835,0,0,0,8835,0,0,0,8325,8326,8331,8332,8331,8332,8331,8332,8331,8332,8331,8332,8331,8332,9629,9630,0,0,0,8852,0,0,0,8852,0,0,0,0,0,0,0,0,0,0,0,0,0,0,0,0,8835,0,0,8852,0,0,0,0,0,0,0,0,0,0,0,0,0,0,0,0,8835,0,0,0,0,0,0,8852,0,0,0,0,0,0,8835,0,0,0,0,0,0,0,0,0,0,0,0,0,0,0,0,0,0,0,0,0,0,0,0,0,0,0,0,0,0,0,0,0,0,0,0,0,0,0,0,0,0,0,0,0,0,0,0,0,0,0,0,0,0,0,0,0,0,0,0,0,0,0,0,0,0,0,0,0,0,0,0,0,0,0,0,0,0,0,0,0,0,0,0,0,0,0,0,0,0,0,0,0,0,0,0,0,0,0,0,0,0,0,0,0,0,0,0,0,0,0,0,0,0,0,0,0,0,0,0,0,0,0,0,0,0,0,0,0,0,0,0,0,0,0,0,0,0,0,0,0,0,0,0,0,0,0,0,0,0,0,0,0,0,0,0,0,0,0,0,0,0,0,0,0,0,0,0,0,0,0,0,0,
8707,0,0,0,8707,0,0,0,8707,0,0,0,0,0,0,0,0,0,0,0,0,0,0,0,0,0,0,8724,0,0,0,8724,0,0,0,0,0,0,0,0,0,0,0,0,0,0,0,0,8707,0,0,8724,0,0,0,0,0,0,0,0,0,0,0,0,0,0,0,0,8707,0,0,0,0,0,0,8724,0,0,0,0,0,0,8707,0,0,0,0,0,0,0,0,0,0,0,0,0,0,0,0,0,0,0,0,0,0,0,0,0,0,0,0,0,0,0,0,0,0,0,0,0,0,0,0,0,0,0,0,0,0,0,0,0,0,0,0,0,0,0,0,0,0,0,0,0,0,0,0,0,0,0,0,0,0,0,0,0,0,0,0,0,0,0,0,0,0,0,0,0,0,0,0,0,0,0,0,0,0,0,0,0,0,0,0,0,0,0,0,0,0,0,0,0,0,0,0,0,0,0,0,0,0,0,0,0,0,0,0,0,0,0,0,0,0,0,0,0,0,0,0,0,0,0,0,0,0,0,0,0,0,0,0,0,0,0,0,0,0,0,0,0,0,0,0,0,0,0,0,0,0,0,0,0,0,0,0,0,
8835,0,0,0,8835,0,0,0,8835,0,0,0,0,0,0,0,0,0,0,0,0,0,0,0,0,0,0,8852,0,0,0,8852,0,0,0,0,0,0,0,0,0,0,0,0,0,0,0,0,8835,0,0,8852,0,0,0,0,0,0,0,0,0,0,0,0,0,0,0,0,8835,0,0,0,0,0,0,8852,0,0,0,0,0,0,8835,0,0,0,0,0,0,0,0,0,0,0,0,0,0,0,0,0,0,0,0,0,0,0,0,0,0,0,0,0,0,0,0,0,0,0,0,0,0,0,0,0,0,0,0,0,0,0,0,0,0,0,0,0,0,0,0,0,0,0,0,0,0,0,0,0,0,0,0,0,0,0,0,0,0,0,0,0,0,0,0,0,0,0,0,0,0,0,0,0,0,0,0,0,0,0,0,0,0,0,0,0,0,0,0,0,0,0,0,0,0,0,0,0,0,0,0,0,0,0,0,0,0,0,0,0,0,0,0,0,0,0,0,0,0,0,0,0,0,0,0,0,0,0,0,0,0,0,0,0,0,0,0,0,0,0,0,0,0,0,0,0,0,0,0,0,0,0,0,0,0,0,0,0,
8707,0,0,0,8707,0,0,0,8707,0,0,0,8451,8452,8203,8204,8203,8204,8467,8468,0,0,0,9236,0,0,0,8724,0,0,0,8724,0,0,0,0,0,0,0,0,0,0,0,0,0,0,0,0,10757,10758,10769,10770,0,0,0,0,0,0,0,0,0,0,0,0,0,0,0,0,8707,0,0,0,0,0,0,8724,0,0,0,0,0,0,8707,0,0,0,0,0,0,0,0,0,0,0,0,0,0,0,0,0,0,0,0,0,0,0,0,0,0,0,0,0,0,0,0,0,0,0,0,0,0,0,0,0,0,0,0,0,0,0,0,0,0,0,0,0,0,0,0,0,0,0,0,0,0,0,0,0,0,0,0,0,0,0,0,0,0,0,0,0,0,0,0,0,0,0,0,0,0,0,0,0,0,0,0,0,0,0,0,0,0,0,0,0,0,0,0,0,0,0,0,0,0,0,0,0,0,0,0,0,0,0,0,0,0,0,0,0,0,0,0,0,0,0,0,0,0,0,0,0,0,0,0,0,0,0,0,0,0,0,0,0,0,0,0,0,0,0,0,0,0,0,0,0,0,0,0,0,0,0,0,0,0,0,0,0,
8835,0,0,0,8835,0,0,0,8835,0,0,0,8579,8580,8331,8332,8331,8332,8595,8596,0,0,0,9364,0,0,0,8852,0,0,0,8852,0,0,0,0,0,0,0,0,0,0,0,0,0,0,0,0,10885,10886,10897,10898,0,0,0,0,0,0,0,0,0,0,0,0,0,0,0,0,8835,0,0,0,0,0,0,8852,0,0,0,0,0,0,8835,0,0,0,0,0,0,0,0,0,0,0,0,0,0,0,0,0,0,0,0,0,0,0,0,0,0,0,0,0,0,0,0,0,0,0,0,0,0,0,0,0,0,0,0,0,0,0,0,0,0,0,0,0,0,0,0,0,0,0,0,0,0,0,0,0,0,0,0,0,0,0,0,0,0,0,0,0,0,0,0,0,0,0,0,0,0,0,0,0,0,0,0,0,0,0,0,0,0,0,0,0,0,0,0,0,0,0,0,0,0,0,0,0,0,0,0,0,0,0,0,0,0,0,0,0,0,0,0,0,0,0,0,0,0,0,0,0,0,0,0,0,0,0,0,0,0,0,0,0,0,0,0,0,0,0,0,0,0,0,0,0,0,0,0,0,0,0,0,0,0,0,0,0,
8707,0,0,0,8707,0,0,0,8707,0,0,0,8963,0,0,0,0,0,8723,8724,0,0,0,8724,0,0,0,8724,0,0,0,8724,0,0,0,0,0,0,0,0,0,0,0,0,0,0,0,0,0,0,0,0,0,0,0,0,0,0,0,0,0,0,0,0,0,0,0,0,8707,0,0,0,0,0,0,8724,0,0,0,0,0,0,8707,0,0,0,0,0,0,0,0,0,0,0,0,0,0,0,0,0,0,0,0,0,0,0,0,0,0,0,0,0,0,0,0,0,0,0,0,0,0,0,0,0,0,0,0,0,0,0,0,0,0,0,0,0,0,0,0,0,0,0,0,0,0,0,0,0,0,0,0,0,0,0,0,0,0,0,0,0,0,0,0,0,0,0,0,0,0,0,0,0,0,0,0,0,0,0,0,8724,0,0,0,0,0,0,0,0,0,0,0,0,0,0,0,0,0,0,0,0,0,0,0,0,0,0,0,0,0,0,0,0,0,0,0,0,0,0,0,0,0,0,0,0,0,0,0,0,0,0,0,0,0,0,0,0,0,0,0,0,0,0,0,0,0,0,0,0,0,0,0,0,0,0,0,0,
8835,0,0,0,8835,0,0,0,8835,0,0,0,9091,0,0,0,0,0,8851,8852,0,0,0,8852,0,0,0,8852,0,0,0,8852,0,0,0,0,0,0,0,0,0,0,0,0,0,0,0,0,0,0,0,0,0,0,0,0,0,0,0,0,0,0,0,0,0,0,0,0,8835,0,0,0,0,0,0,8852,0,0,0,0,0,0,8835,0,0,0,0,0,0,0,0,0,0,0,0,0,0,0,0,0,0,0,0,0,0,0,0,0,0,0,0,0,0,0,0,0,0,0,0,0,0,0,0,0,0,0,0,0,0,0,0,0,0,0,0,0,0,0,0,0,0,0,0,0,0,0,0,0,0,0,0,0,0,0,0,0,0,0,0,0,0,0,0,0,0,0,0,0,0,0,0,0,0,0,0,0,0,0,0,8852,0,0,0,0,0,0,0,0,0,0,0,0,0,0,0,0,0,0,0,0,0,0,0,0,0,0,0,0,0,0,0,0,0,0,0,0,0,0,0,0,0,0,0,0,0,0,0,0,0,0,0,0,0,0,0,0,0,0,0,0,0,0,0,0,0,0,0,0,0,0,0,0,0,0,0,0,
8707,0,0,0,8707,0,0,0,8707,0,0,0,0,0,0,0,0,0,0,8724,0,0,0,8724,0,0,0,8724,0,0,0,8724,9473,9474,10763,10764,10763,10764,10763,8206,10763,10764,10763,10764,10763,10764,10763,8206,10763,10764,10763,10764,10763,10764,10763,10764,10763,10764,10763,8206,10763,10764,10763,10764,10763,10764,10763,8206,10759,10760,10763,10764,10763,10764,9747,9748,0,0,0,0,0,0,8707,0,0,0,0,0,0,0,0,0,0,0,0,0,0,0,0,0,0,0,0,0,0,0,0,0,0,0,0,0,0,0,0,0,0,0,0,0,0,0,0,0,0,0,0,0,0,0,0,0,0,0,0,0,0,0,0,0,0,0,0,0,0,0,0,0,0,0,0,0,0,0,0,0,0,0,0,0,0,0,0,0,0,0,0,0,0,0,0,0,0,0,0,0,0,0,0,8724,0,0,0,0,0,0,0,0,0,0,0,0,0,0,0,0,0,0,0,0,0,0,0,0,0,0,0,0,0,0,0,0,0,0,0,0,0,0,0,0,0,0,0,0,0,0,0,0,0,0,0,0,0,0,0,0,0,0,0,0,0,0,0,0,0,0,0,0,0,0,0,0,0,0,0,0,
8835,0,0,0,8835,0,0,0,8835,0,0,0,0,0,0,0,0,0,0,8852,0,0,0,8852,0,0,0,8852,0,0,0,8852,9601,9602,10891,10892,10891,10892,10891,8334,10891,10892,10891,10892,10891,10892,10891,8334,10891,10892,10891,10892,10891,10892,10891,10892,10891,10892,10891,8334,10891,10892,10891,10892,10891,10892,10891,8334,10887,10888,10891,10892,10891,10892,9875,9876,0,0,0,0,0,0,8835,0,0,0,0,0,0,0,0,0,0,0,0,0,0,0,0,0,0,0,0,0,0,0,0,0,0,0,0,0,0,0,0,0,0,0,0,0,0,0,0,0,0,0,0,0,0,0,0,0,0,0,0,0,0,0,0,0,0,0,0,0,0,0,0,0,0,0,0,0,0,0,0,0,0,0,0,0,0,0,0,0,0,0,0,0,0,0,0,0,0,0,0,0,0,0,0,8852,0,0,0,0,0,0,0,0,0,0,0,0,0,0,0,0,0,0,0,0,0,0,0,0,0,0,0,0,0,0,0,0,0,0,0,0,0,0,0,0,0,0,0,0,0,0,0,0,0,0,0,0,0,0,0,0,0,0,0,0,0,0,0,0,0,0,0,0,0,0,0,0,0,0,0,0,
8707,0,0,0,8707,0,0,0,8707,0,0,0,8985,8986,10763,10764,10763,10764,10769,10770,0,0,0,8724,0,0,0,8724,0,0,0,8724,0,0,0,0,0,0,0,8724,0,0,0,0,0,0,0,8724,0,0,0,0,0,0,0,0,0,0,0,8724,0,0,0,0,0,0,0,8724,0,0,0,0,0,0,0,8724,0,0,0,0,0,0,8707,0,0,0,0,0,0,0,0,0,0,0,0,0,0,0,0,0,0,0,0,0,0,0,0,0,0,0,0,0,0,0,0,0,0,0,0,0,0,0,0,0,0,0,0,0,0,0,0,0,0,0,0,0,0,0,0,0,0,0,0,0,0,0,0,0,0,0,0,0,0,0,0,0,0,0,0,0,0,0,0,0,0,0,0,0,0,0,0,0,0,0,0,0,0,0,0,8724,0,0,0,0,0,0,0,0,0,0,0,0,0,0,0,0,0,0,0,0,0,0,0,0,0,0,0,0,0,0,0,0,0,0,0,0,0,0,0,0,0,0,0,0,0,0,0,0,0,0,0,0,0,0,0,0,0,0,0,0,0,0,0,0,0,0,0,0,0,0,0,0,0,0,0,0,
8835,0,0,0,8835,0,0,0,8835,0,0,0,9113,9114,10891,10892,10891,10892,10897,10898,0,0,0,8852,0,0,0,8852,0,0,0,8852,0,0,0,0,0,0,0,8852,0,0,0,0,0,0,0,8852,0,0,0,0,0,0,0,0,0,0,0,8852,0,0,0,0,0,0,0,8852,0,0,0,0,0,0,0,8852,0,0,0,0,0,0,8835,0,0,0,0,0,0,0,0,0,0,0,0,0,0,0,0,0,0,0,0,0,0,0,0,0,0,0,0,0,0,0,0,0,0,0,0,0,0,0,0,0,0,0,0,0,0,0,0,0,0,0,0,0,0,0,0,0,0,0,0,0,0,0,0,0,0,0,0,0,0,0,0,0,0,0,0,0,0,0,0,0,0,0,0,0,0,0,0,0,0,0,0,0,0,0,0,8852,0,0,0,0,0,0,0,0,0,0,0,0,0,0,0,0,0,0,0,0,0,0,0,0,0,0,0,0,0,0,0,0,0,0,0,0,0,0,0,0,0,0,0,0,0,0,0,0,0,0,0,0,0,0,0,0,0,0,0,0,0,0,0,0,0,0,0,0,0,0,0,0,0,0,0,0,
8707,0,0,0,8707,0,0,0,8707,0,0,0,0,0,0,0,0,0,0,0,0,0,0,8724,0,0,0,8980,0,0,0,8724,0,0,0,0,0,0,0,8724,0,0,0,0,0,0,0,8724,0,0,0,0,0,0,0,0,0,0,0,8724,0,0,0,0,0,0,0,8724,0,0,0,0,0,0,0,8724,0,0,0,0,0,0,8707,0,0,0,0,0,0,0,0,0,0,0,0,0,0,0,0,0,0,0,0,0,0,0,0,0,0,0,0,0,0,0,0,0,0,0,0,0,0,0,0,0,0,0,0,0,0,0,0,0,0,0,0,0,0,0,0,0,0,0,0,0,0,0,0,0,0,0,0,0,0,0,0,0,0,0,0,0,0,0,0,0,0,0,0,0,0,0,0,0,0,0,0,0,0,0,0,8724,0,0,0,0,0,0,0,0,0,0,0,0,0,0,0,0,0,0,0,0,0,0,0,0,0,0,0,0,0,0,0,0,0,0,0,0,0,0,0,0,0,0,0,0,0,0,0,0,0,0,0,0,0,0,0,0,0,0,0,0,0,0,0,0,0,0,0,0,0,0,0,0,0,0,0,0,
8835,0,0,0,8835,0,0,0,8835,0,0,0,0,0,0,0,0,0,0,0,0,0,0,8852,0,0,0,9108,0,0,0,8852,0,0,0,0,0,0,0,8852,0,0,0,0,0,0,0,8852,0,0,0,0,0,0,0,0,0,0,0,8852,0,0,0,0,0,0,0,8852,0,0,0,0,0,0,0,8852,0,0,0,0,0,0,8835,0,0,0,0,0,0,0,0,0,0,0,0,0,0,0,0,0,0,0,0,0,0,0,0,0,0,0,0,0,0,0,0,0,0,0,0,0,0,0,0,0,0,0,0,0,0,0,0,0,0,0,0,0,0,0,0,0,0,0,0,0,0,0,0,0,0,0,0,0,0,0,0,0,0,0,0,0,0,0,0,0,0,0,0,0,0,0,0,0,0,0,0,0,0,0,0,8852,0,0,0,0,0,0,0,0,0,0,0,0,0,0,0,0,0,0,0,0,0,0,0,0,0,0,0,0,0,0,0,0,0,0,0,0,0,0,0,0,0,0,0,0,0,0,0,0,0,0,0,0,0,0,0,0,0,0,0,0,0,0,0,0,0,0,0,0,0,0,0,0,0,0,0,0,
8707,0,0,0,8707,0,0,0,10757,10758,10763,10764,10763,10764,10763,10764,10763,10764,10763,10764,10763,10764,10769,10770,0,0,0,0,0,0,0,8466,10763,10764,0,0,10763,10764,10763,10764,10763,10764,0,0,10763,10764,10763,10764,10763,10764,10763,10764,0,0,10763,10764,10763,10764,10763,10764,10763,10764,10763,10764,0,0,10763,10764,10763,10764,10763,10764,0,0,10769,10770,0,0,0,0,0,0,8707,0,0,0,0,0,0,0,0,0,0,0,0,0,0,0,0,0,0,0,0,0,0,0,0,0,0,0,0,0,0,0,0,0,0,0,0,0,0,0,0,0,0,0,0,0,0,0,0,0,0,0,0,0,0,0,0,0,0,0,0,0,0,0,0,0,0,0,0,0,0,0,0,0,0,0,0,0,0,0,0,0,0,0,0,0,0,0,0,0,0,0,0,0,0,0,0,8724,0,0,0,0,0,0,0,0,0,0,0,0,0,0,0,0,0,0,0,0,0,0,0,0,0,0,0,0,0,0,0,0,0,0,0,0,0,0,0,0,0,0,0,0,0,0,0,0,0,0,0,0,0,0,0,0,0,0,0,0,0,0,0,0,0,0,0,0,0,0,0,0,0,0,0,0,
8835,0,0,0,8835,0,0,0,10885,10886,10891,10892,10891,10892,10891,10892,10891,10892,10891,10892,10891,10892,10897,10898,0,0,0,0,0,0,0,8594,10891,10892,0,0,10891,10892,10891,10892,10891,10892,0,0,10891,10892,10891,10892,10891,10892,10891,10892,0,0,10891,10892,10891,10892,10891,10892,10891,10892,10891,10892,0,0,10891,10892,10891,10892,10891,10892,0,0,10897,10898,0,0,0,0,0,0,8835,0,0,0,0,0,0,0,0,0,0,0,0,0,0,0,0,0,0,0,0,0,0,0,0,0,0,0,0,0,0,0,0,0,0,0,0,0,0,0,0,0,0,0,0,0,0,0,0,0,0,0,0,0,0,0,0,0,0,0,0,0,0,0,0,0,0,0,0,0,0,0,0,0,0,0,0,0,0,0,0,0,0,0,0,0,0,0,0,0,0,0,0,0,0,0,0,8852,0,0,0,0,0,0,0,0,0,0,0,0,0,0,0,0,0,0,0,0,0,0,0,0,0,0,0,0,0,0,0,0,0,0,0,0,0,0,0,0,0,0,0,0,0,0,0,0,0,0,0,0,0,0,0,0,0,0,0,0,0,0,0,0,0,0,0,0,0,0,0,0,0,0,0,0,
8707,0,0,0,8963,0,0,0,0,0,0,0,0,0,0,0,0,0,0,0,0,0,0,0,0,0,0,0,0,0,0,0,0,0,0,0,0,0,0,0,0,0,0,0,0,0,0,0,0,0,0,0,0,0,0,0,0,0,0,0,0,0,0,0,0,0,0,0,0,0,0,0,0,0,0,0,0,0,0,0,0,0,0,0,0,0,0,0,0,0,0,0,0,0,0,0,0,0,0,0,0,0,0,0,0,0,0,0,0,0,0,0,0,0,0,0,0,0,0,0,0,0,0,0,0,0,0,0,0,0,0,0,0,0,0,0,0,0,0,0,0,0,0,0,0,0,0,0,0,0,0,0,0,0,0,0,0,0,0,0,0,0,0,0,0,0,0,0,0,0,0,0,0,0,0,0,0,0,0,8724,0,0,0,0,0,0,0,0,0,0,0,0,0,0,0,0,0,0,0,0,0,0,0,0,0,0,0,0,0,0,0,0,0,0,0,0,0,0,0,0,0,0,0,0,0,0,0,0,0,0,0,0,0,0,0,0,0,0,0,0,0,0,0,0,0,0,0,0,0,0,0,0,0,0,0,0,
8835,0,0,0,9091,0,0,0,0,0,0,0,0,0,0,0,0,0,0,0,0,0,0,0,0,0,0,0,0,0,0,0,0,0,0,0,0,0,0,0,0,0,0,0,0,0,0,0,0,0,0,0,0,0,0,0,0,0,0,0,0,0,0,0,0,0,0,0,0,0,0,0,0,0,0,0,0,0,0,0,0,0,0,0,0,0,0,0,0,0,0,0,0,0,0,0,0,0,0,0,0,0,0,0,0,0,0,0,0,0,0,0,0,0,0,0,0,0,0,0,0,0,0,0,0,0,0,0,0,0,0,0,0,0,0,0,0,0,0,0,0,0,0,0,0,0,0,0,0,0,0,0,0,0,0,0,0,0,0,0,0,0,0,0,0,0,0,0,0,0,0,0,0,0,0,0,0,0,0,8852,0,0,0,0,0,0,0,0,0,0,0,0,0,0,0,0,0,0,0,0,0,0,0,0,0,0,0,0,0,0,0,0,0,0,0,0,0,0,0,0,0,0,0,0,0,0,0,0,0,0,0,0,0,0,0,0,0,0,0,0,0,0,0,0,0,0,0,0,0,0,0,0,0,0,0,0,
8707,0,0,0,0,0,0,0,8985,8986,10763,10764,10763,10764,10763,10764,10763,10764,10763,10764,10763,10764,10763,10764,0,0,0,0,0,0,0,0,0,0,0,0,0,0,0,0,0,0,0,0,0,0,0,0,0,0,0,0,0,0,0,0,0,0,0,0,0,0,0,0,0,0,0,0,0,0,0,0,0,0,0,0,0,0,0,0,0,0,0,0,0,0,0,0,0,0,0,0,0,0,0,0,0,0,0,0,0,0,0,0,0,0,0,0,0,0,0,0,0,0,0,0,0,0,0,0,0,0,0,0,0,0,0,0,0,0,0,0,0,0,0,0,0,0,0,0,0,0,0,0,0,0,0,0,0,0,0,0,0,0,0,0,0,0,0,0,0,0,0,0,0,0,0,0,0,0,0,0,0,0,0,0,0,0,0,8724,0,0,0,0,0,0,0,0,0,0,0,0,0,0,0,0,0,0,0,0,0,0,0,0,0,0,0,0,0,0,0,0,0,0,0,0,0,0,0,0,0,0,0,0,0,0,0,0,0,0,0,0,0,0,0,0,0,0,0,0,0,0,0,0,0,0,0,0,0,0,0,0,0,0,0,0,
8835,0,0,0,0,0,0,0,9113,9114,10891,10892,10891,10892,10891,10892,10891,10892,10891,10892,10891,10892,10891,10892,0,0,0,0,0,0,0,0,0,0,0,0,0,0,0,0,0,0,0,0,0,0,0,0,0,0,0,0,0,0,0,0,0,0,0,0,0,0,0,0,0,0,0,0,0,0,0,0,0,0,0,0,0,0,0,0,0,0,0,0,0,0,0,0,0,0,0,0,0,0,0,0,0,0,0,0,0,0,0,0,0,0,0,0,0,0,0,0,0,0,0,0,0,0,0,0,0,0,0,0,0,0,0,0,0,0,0,0,0,0,0,0,0,0,0,0,0,0,0,0,0,0,0,0,0,0,0,0,0,0,0,0,0,0,0,0,0,0,0,0,0,0,0,0,0,0,0,0,0,0,0,0,0,0,0,8852,0,0,0,0,0,0,0,0,0,0,0,0,0,0,0,0,0,0,0,0,0,0,0,0,0,0,0,0,0,0,0,0,0,0,0,0,0,0,0,0,0,0,0,0,0,0,0,0,0,0,0,0,0,0,0,0,0,0,0,0,0,0,0,0,0,0,0,0,0,0,0,0,0,0,0,0,
8707,0,0,0,0,0,0,0,0,0,0,0,0,0,0,0,0,0,0,0,0,0,0,0,0,0,0,0,0,0,0,0,0,0,0,0,0,0,0,0,0,0,0,0,0,0,0,0,0,0,0,0,0,0,0,0,0,0,0,0,0,0,0,0,0,0,0,0,0,0,0,0,0,0,0,0,0,0,0,0,0,0,0,0,0,0,0,0,0,0,0,0,0,0,0,0,0,0,0,0,0,0,0,0,0,0,0,0,0,0,0,0,0,0,0,0,0,0,0,0,0,0,0,0,0,0,0,0,0,0,0,0,0,0,0,0,0,0,0,0,0,0,0,0,0,0,0,0,0,0,0,0,0,0,0,0,0,0,0,0,0,0,0,0,0,0,0,0,0,0,0,0,0,0,0,0,0,0,0,8724,0,0,0,0,0,0,0,0,0,0,0,0,0,0,0,0,0,0,0,0,0,0,0,0,0,0,0,0,0,0,0,0,0,0,0,0,0,0,0,0,0,0,0,0,0,0,0,0,0,0,0,0,0,0,0,0,0,0,0,0,0,0,0,0,0,0,0,0,0,0,0,0,0,0,0,0,
8835,0,0,0,0,0,0,0,0,0,0,0,0,0,0,0,0,0,0,0,0,0,0,0,0,0,0,0,0,0,0,0,0,0,0,0,0,0,0,0,0,0,0,0,0,0,0,0,0,0,0,0,0,0,0,0,0,0,0,0,0,0,0,0,0,0,0,0,0,0,0,0,0,0,0,0,0,0,0,0,0,0,0,0,0,0,0,0,0,0,0,0,0,0,0,0,0,0,0,0,0,0,0,0,0,0,0,0,0,0,0,0,0,0,0,0,0,0,0,0,0,0,0,0,0,0,0,0,0,0,0,0,0,0,0,0,0,0,0,0,0,0,0,0,0,0,0,0,0,0,0,0,0,0,0,0,0,0,0,0,0,0,0,0,0,0,0,0,0,0,0,0,0,0,0,0,0,0,0,8852,0,0,0,0,0,0,0,0,0,0,0,0,0,0,0,0,0,0,0,0,0,0,0,0,0,0,0,0,0,0,0,0,0,0,0,0,0,0,0,0,0,0,0,0,0,0,0,0,0,0,0,0,0,0,0,0,0,0,0,0,0,0,0,0,0,0,0,0,0,0,0,0,0,0,0,0,
10757,10758,10763,10764,10763,10764,10763,10764,10763,10764,10763,10764,10763,10764,10763,10764,10763,10764,10763,10764,10763,10764,10763,10764,10763,10764,10763,10764,10763,10764,10763,10764,10763,10764,10763,10764,10763,10764,10763,10764,10763,10764,10763,10764,10763,10764,10763,10764,10763,10764,10763,10764,10763,10764,10763,10764,10763,10764,10763,10764,10763,10764,10763,10764,10763,10764,10763,10764,10763,10764,10763,10764,10763,10764,10763,10764,10763,10764,10763,10764,10763,10764,10763,10764,10763,10764,10763,10764,10763,10764,10763,10764,10763,10764,10763,10764,10763,10764,10763,10764,10763,10764,10763,10764,10763,10764,10763,10764,10763,10764,10763,10764,10763,10764,10763,10764,10763,10764,10763,10764,10763,10764,10763,10764,10763,10764,10763,10764,10763,10764,10763,10764,10763,10764,10763,10764,10763,10764,10763,10764,10763,10764,10763,10764,10763,10764,10763,10764,10763,10764,10763,10764,10763,10764,10763,10764,10763,10764,10763,10764,10763,10764,10763,10764,10763,10764,10763,10764,10763,10764,10763,10764,10763,10764,10763,10764,10763,10764,10769,10770,0,0,0,0,0,0,0,0,0,0,0,0,0,0,0,0,0,0,0,0,0,0,0,0,0,0,0,0,0,0,0,0,0,0,0,0,0,0,0,0,0,0,0,0,0,0,0,0,0,0,0,0,0,0,0,0,0,0,0,0,0,0,0,0,0,0,0,0,0,0,0,0,0,0,0,0,
10885,10886,10891,10892,10891,10892,10891,10892,10891,10892,10891,10892,10891,10892,10891,10892,10891,10892,10891,10892,10891,10892,10891,10892,10891,10892,10891,10892,10891,10892,10891,10892,10891,10892,10891,10892,10891,10892,10891,10892,10891,10892,10891,10892,10891,10892,10891,10892,10891,10892,10891,10892,10891,10892,10891,10892,10891,10892,10891,10892,10891,10892,10891,10892,10891,10892,10891,10892,10891,10892,10891,10892,10891,10892,10891,10892,10891,10892,10891,10892,10891,10892,10891,10892,10891,10892,10891,10892,10891,10892,10891,10892,10891,10892,10891,10892,10891,10892,10891,10892,10891,10892,10891,10892,10891,10892,10891,10892,10891,10892,10891,10892,10891,10892,10891,10892,10891,10892,10891,10892,10891,10892,10891,10892,10891,10892,10891,10892,10891,10892,10891,10892,10891,10892,10891,10892,10891,10892,10891,10892,10891,10892,10891,10892,10891,10892,10891,10892,10891,10892,10891,10892,10891,10892,10891,10892,10891,10892,10891,10892,10891,10892,10891,10892,10891,10892,10891,10892,10891,10892,10891,10892,10891,10892,10891,10892,10891,10892,10897,10898,0,0,0,0,0,0,0,0,0,0,0,0,0,0,0,0,0,0,0,0,0,0,0,0,0,0,0,0,0,0,0,0,0,0,0,0,0,0,0,0,0,0,0,0,0,0,0,0,0,0,0,0,0,0,0,0,0,0,0,0,0,0,0,0,0,0,0,0,0,0,0,0,0,0,0,0
</data>
 </layer>
 <objectgroup id="4" name="Objects">
  <object id="3" name="player" x="79.3333" y="79.3333">
   <point/>
  </object>
  <object id="4" name="spawner" x="432.667" y="176.667">
   <point/>
  </object>
  <object id="5" name="spawner" x="623.333" y="181.333">
   <point/>
  </object>
  <object id="6" name="spawner" x="434" y="340">
   <point/>
  </object>
  <object id="7" name="spawner" x="624.667" y="339.333">
   <point/>
  </object>
  <object id="8" name="door" x="303.5" y="725">
   <point/>
  </object>
  <object id="9" name="door" x="303.5" y="467">
   <point/>
  </object>
  <object id="10" name="redDoor" x="81" y="1555">
   <point/>
  </object>
  <object id="11" name="door" x="687.5" y="1557">
   <point/>
  </object>
  <object id="12" name="spawner" x="658" y="627.333">
   <point/>
  </object>
  <object id="13" name="door" x="496.667" y="1105.33">
   <point/>
  </object>
  <object id="14" name="door" x="624.667" y="977.333">
   <point/>
  </object>
  <object id="15" name="door" x="784.667" y="851.333">
   <point/>
  </object>
  <object id="16" name="door" x="786" y="885.333">
   <point/>
  </object>
  <object id="17" name="computer" x="142.667" y="49.3333">
   <point/>
  </object>
  <object id="18" name="door" x="784" y="1112">
   <point/>
  </object>
  <object id="19" name="spawner" x="912" y="1682">
   <point/>
  </object>
  <object id="20" name="spawner" x="1011.33" y="1680">
   <point/>
  </object>
  <object id="21" name="key" x="48.0909" y="304.773">
   <point/>
  </object>
  <object id="22" name="key" x="48.0455" y="337.545">
   <point/>
  </object>
  <object id="23" name="key" x="47.8636" y="369.455">
   <point/>
  </object>
  <object id="24" name="key" x="48.1364" y="401.636">
   <point/>
  </object>
  <object id="25" name="key" x="48.1364" y="433.591">
   <point/>
  </object>
  <object id="26" name="key" x="48.2727" y="465.5">
   <point/>
  </object>
  <object id="27" name="redDoor" x="175.75" y="179">
   <point/>
  </object>
  <object id="28" name="key" x="1023.67" y="865.333">
   <point/>
  </object>
  <object id="29" name="key" x="1023.33" y="898.333">
   <point/>
  </object>
  <object id="30" name="key" x="1024" y="930.333">
   <point/>
  </object>
  <object id="34" name="boss" x="1324" y="673.333">
   <point/>
  </object>
  <object id="35" name="ammo" x="879.333" y="915.667">
   <point/>
  </object>
  <object id="36" name="ammo" x="914" y="915">
   <point/>
  </object>
  <object id="37" name="ammo" x="945.333" y="914.667">
   <point/>
  </object>
  <object id="38" name="door" x="912.333" y="753.667">
   <point/>
  </object>
  <object id="39" name="ammo" x="878.333" y="594.333">
   <point/>
  </object>
  <object id="40" name="ammo" x="913.667" y="594">
   <point/>
  </object>
  <object id="41" name="ammo" x="945" y="594">
   <point/>
  </object>
  <object id="42" name="spawner" x="816.667" y="561.333">
   <point/>
  </object>
  <object id="43" name="spawner" x="977" y="561.333">
   <point/>
  </object>
  <object id="44" name="ammo" x="1136" y="1745.58">
   <point/>
  </object>
  <object id="45" name="ammo" x="1168.42" y="1745.75">
   <point/>
  </object>
  <object id="46" name="ammo" x="1135.75" y="1713.5">
   <point/>
  </object>
  <object id="47" name="ammo" x="1168.25" y="1713.25">
   <point/>
  </object>
  <object id="48" name="ammo" x="1135.75" y="1683.25">
   <point/>
  </object>
  <object id="49" name="ammo" x="1168.25" y="1682">
   <point/>
  </object>
  <object id="50" name="ammo" x="240" y="1780">
   <point/>
  </object>
  <object id="51" name="health" x="240.333" y="402.667">
   <point/>
  </object>
  <object id="52" name="ammo" x="273.333" y="402.333">
   <point/>
  </object>
  <object id="53" name="health" x="495.667" y="785.667">
   <point/>
  </object>
  <object id="54" name="health" x="271.75" y="1778.25">
   <point/>
  </object>
  <object id="55" name="door" x="560.5" y="1908">
   <point/>
  </object>
  <object id="56" name="door" x="689" y="1906.33">
   <point/>
  </object>
  <object id="57" name="door" x="848.333" y="1905">
   <point/>
  </object>
  <object id="58" name="door" x="1041" y="1906.67">
   <point/>
  </object>
  <object id="59" name="door" x="1167.67" y="1905.67">
   <point/>
  </object>
  <object id="60" name="computer" x="49.5" y="1491">
   <point/>
  </object>
  <object id="61" name="key" x="559.333" y="1844">
   <point/>
  </object>
  <object id="62" name="key" x="590.667" y="1842">
   <point/>
  </object>
  <object id="63" name="ammo" x="690" y="1842.67">
   <point/>
  </object>
  <object id="64" name="ammo" x="721.333" y="1842">
   <point/>
  </object>
  <object id="65" name="health" x="847.333" y="1844">
   <point/>
  </object>
  <object id="66" name="health" x="880" y="1844">
   <point/>
  </object>
  <object id="67" name="key" x="1010" y="1847.33">
   <point/>
  </object>
  <object id="68" name="key" x="1041.33" y="1845.33">
   <point/>
  </object>
  <object id="69" name="ammo" x="1136.67" y="1846">
   <point/>
  </object>
  <object id="70" name="ammo" x="1168" y="1845.33">
   <point/>
  </object>
  <object id="71" name="bigSpawner" x="912" y="408">
   <point/>
  </object>
  <object id="72" name="bigSpawner" x="80.6667" y="1012.67">
   <point/>
  </object>
  <object id="73" name="bigSpawner" x="210.667" y="1013.33">
   <point/>
  </object>
  <object id="74" name="bigSpawner" x="337.333" y="1012.67">
   <point/>
  </object>
 </objectgroup>
</map>
